(.../external_usr-lang-prog/pcbgcode/pcb-gcode.ulp)
(Copyright 2005 - 2012 by John Johnson)
(See readme.txt for licensing terms.)
(This file generated from the board:)
(.../Welti/Bugboard.brd)
(Current profile is .../pcbgcode/profiles/generic.pp  )
(This file generated 10.09.2019 16:40:17)
(Settings from pcb-machine.h)
(  Tool Size)
(0.0070 )
(Z Axis Settings)
(  High     Up        Down     Drill)
(0.5000 	0.1000 	-0.0070 	-0.0320 )
(spindle on time = 3.0000)
(milling depth = -0.0100)
(text depth = -0.0050)
(tool change at 0.5000 0.6000 1.0000 )
(feed rate xy = F20.00 )
(feed rate z  = F10.00 )
(Settings from pcb-defaults.h)
(isolate min = 0.0010)
(isolate max = 0.0200)
(isolate step = 0.0050)
(Generated bottom outlines, bottom drill, )
(Unit of measure: inch)
(Inch Mode)
G20
(Absolute Coordinates)
G90
G00 X0.0000 Y0.0000 
M03
G04 P3.000000
G00 Z0.1000 
G00 X-0.4118 Y2.5295 
G01 Z-0.0070 F10.00 
G01 X-0.4132 Y2.5295 F20.00 
G01 X-0.4295 Y2.5132 
G01 X-0.4295 Y2.5118 
G01 X-0.4118 Y2.5295 
G00 Z0.1000 
G00 X-0.4705 Y2.5118 
G01 Z-0.0070 F10.00 
G01 X-0.4705 Y2.5132 F20.00 
G01 X-0.4868 Y2.5295 
G01 X-0.4882 Y2.5295 
G01 X-0.4705 Y2.5118 
G00 Z0.1000 
G00 X-2.1414 Y1.3405 
G01 Z-0.0070 F10.00 
G01 X-2.1586 Y1.3405 F20.00 
G01 X-2.1646 Y1.3345 
G01 X-2.1354 Y1.3345 
G01 X-2.1414 Y1.3405 
G00 Z0.1000 
G00 X-2.2414 Y1.3405 
G01 Z-0.0070 F10.00 
G01 X-2.2586 Y1.3405 F20.00 
G01 X-2.2646 Y1.3345 
G01 X-2.2354 Y1.3345 
G01 X-2.2414 Y1.3405 
G00 Z0.1000 
G00 X-3.7878 Y1.3455 
G01 Z-0.0070 F10.00 
G01 X-3.7864 Y1.3455 F20.00 
G01 X-3.7705 Y1.3614 
G01 X-3.7705 Y1.3628 
G01 X-3.7878 Y1.3455 
G00 Z0.1000 
G00 X-3.7705 Y1.4562 
G01 Z-0.0070 F10.00 
G01 X-3.7705 Y1.4576 F20.00 
G01 X-3.7924 Y1.4795 
G01 X-3.7938 Y1.4795 
G01 X-3.7705 Y1.4562 
G00 Z0.1000 
G00 X-3.7190 Y1.3636 
G01 Z-0.0070 F10.00 
G01 X-3.7217 Y1.3636 F20.00 
G01 X-3.7244 Y1.3636 
G01 X-3.7248 Y1.3637 
G01 X-3.7295 Y1.3649 
G01 X-3.7295 Y1.3614 
G01 X-3.7136 Y1.3455 
G01 X-3.7069 Y1.3455 
G01 X-3.7047 Y1.3494 
G01 X-3.7033 Y1.3508 
G01 X-3.7167 Y1.3642 
G01 X-3.7190 Y1.3636 
G00 Z0.1000 
G00 X-0.6027 Y2.9696 
G01 Z-0.0070 F10.00 
G01 X-0.6027 Y2.9696 F20.00 
G01 X-0.5927 Y2.9796 
G01 X-0.5911 Y2.9803 
G01 X-0.5893 Y2.9803 
G01 X-0.5876 Y2.9796 
G01 X-0.5863 Y2.9784 
G01 X-0.5776 Y2.9696 
G01 X-0.5738 Y2.9658 
G01 X-0.5630 Y2.9551 
G01 X-0.5551 Y2.9551 
G01 X-0.5535 Y2.9544 
G01 X-0.5522 Y2.9531 
G01 X-0.5515 Y2.9514 
G01 X-0.5515 Y2.9377 
G01 X-0.5515 Y2.6697 
G01 X-0.5475 Y2.6600 
G01 X-0.5352 Y2.6477 
G01 X-0.5150 Y2.6275 
G01 X-0.5053 Y2.6235 
G01 X-0.5021 Y2.6235 
G01 X-0.4973 Y2.6235 
G01 X-0.4956 Y2.6228 
G01 X-0.4944 Y2.6215 
G01 X-0.4922 Y2.6194 
G01 X-0.4884 Y2.6156 
G01 X-0.4783 Y2.6055 
G01 X-0.4754 Y2.6025 
G01 X-0.4747 Y2.6009 
G01 X-0.4747 Y2.5991 
G01 X-0.4750 Y2.5984 
G01 X-0.4743 Y2.5956 
G01 X-0.4743 Y2.5902 
G01 X-0.4756 Y2.5850 
G01 X-0.4776 Y2.5816 
G01 X-0.4783 Y2.5803 
G01 X-0.4822 Y2.5765 
G01 X-0.4882 Y2.5705 
G01 X-0.4868 Y2.5705 
G01 X-0.4668 Y2.5905 
G01 X-0.4332 Y2.5905 
G01 X-0.4132 Y2.5705 
G01 X-0.4118 Y2.5705 
G01 X-0.4178 Y2.5765 
G01 X-0.4217 Y2.5803 
G01 X-0.4233 Y2.5833 
G01 X-0.4244 Y2.5850 
G01 X-0.4257 Y2.5902 
G01 X-0.4257 Y2.5956 
G01 X-0.4250 Y2.5984 
G01 X-0.4253 Y2.5991 
G01 X-0.4253 Y2.6009 
G01 X-0.4246 Y2.6025 
G01 X-0.4234 Y2.6038 
G01 X-0.4217 Y2.6055 
G01 X-0.4178 Y2.6093 
G01 X-0.3985 Y2.6287 
G01 X-0.3985 Y2.6713 
G01 X-0.4146 Y2.6874 
G01 X-0.4234 Y2.6962 
G01 X-0.4246 Y2.6975 
G01 X-0.4253 Y2.6991 
G01 X-0.4253 Y2.7009 
G01 X-0.4246 Y2.7025 
G01 X-0.4146 Y2.7126 
G01 X-0.4108 Y2.7164 
G01 X-0.3985 Y2.7287 
G01 X-0.3985 Y2.7713 
G01 X-0.4096 Y2.7824 
G01 X-0.4130 Y2.7858 
G01 X-0.4137 Y2.7875 
G01 X-0.4137 Y2.7923 
G01 X-0.4137 Y2.9529 
G01 X-0.4137 Y2.9577 
G01 X-0.4130 Y2.9594 
G01 X-0.4117 Y2.9606 
G01 X-0.4096 Y2.9628 
G01 X-0.4057 Y2.9666 
G01 X-0.3957 Y2.9767 
G01 X-0.3927 Y2.9796 
G01 X-0.3911 Y2.9803 
G01 X-0.3893 Y2.9803 
G01 X-0.3885 Y2.9800 
G01 X-0.3858 Y2.9808 
G01 X-0.3804 Y2.9808 
G01 X-0.3752 Y2.9794 
G01 X-0.3718 Y2.9774 
G01 X-0.3705 Y2.9767 
G01 X-0.3667 Y2.9729 
G01 X-0.3607 Y2.9668 
G01 X-0.3607 Y2.9682 
G01 X-0.3843 Y2.9919 
G01 X-0.3843 Y3.0285 
G01 X-0.3585 Y3.0544 
G01 X-0.3219 Y3.0544 
G01 X-0.2960 Y3.0285 
G01 X-0.2960 Y2.9919 
G01 X-0.3197 Y2.9682 
G01 X-0.3197 Y2.9668 
G01 X-0.3134 Y2.9731 
G01 X-0.3096 Y2.9769 
G01 X-0.3067 Y2.9786 
G01 X-0.3049 Y2.9796 
G01 X-0.2997 Y2.9810 
G01 X-0.2943 Y2.9810 
G01 X-0.2941 Y2.9809 
G01 X-0.2920 Y2.9804 
G01 X-0.2848 Y2.9875 
G01 X-0.2840 Y2.9883 
G01 X-0.2835 Y2.9888 
G01 X-0.2819 Y2.9895 
G01 X-0.2801 Y2.9895 
G01 X-0.2785 Y2.9888 
G01 X-0.2772 Y2.9875 
G01 X-0.2765 Y2.9859 
G01 X-0.2765 Y2.9632 
G01 X-0.2765 Y2.2566 
G01 X-0.2765 Y2.1934 
G01 X-0.2765 Y1.4197 
G01 X-0.2725 Y1.4100 
G01 X-0.2602 Y1.3977 
G01 X-0.2509 Y1.3884 
G01 X-0.2472 Y1.3847 
G01 X-0.2471 Y1.3846 
G01 X-0.1772 Y1.3147 
G01 X-0.1765 Y1.3131 
G01 X-0.1765 Y1.2539 
G01 X-0.1765 Y1.0320 
G01 X-0.1765 Y0.9619 
G01 X-0.1772 Y0.9603 
G01 X-0.1785 Y0.9590 
G01 X-0.2121 Y0.9254 
G01 X-0.2159 Y0.9216 
G01 X-0.2281 Y0.9094 
G01 X-0.2319 Y0.9056 
G01 X-0.2353 Y0.9022 
G01 X-0.2369 Y0.9015 
G01 X-0.2418 Y0.9015 
G01 X-0.4332 Y0.9015 
G01 X-0.4381 Y0.9015 
G01 X-0.4397 Y0.9022 
G01 X-0.4408 Y0.9032 
G01 X-0.4431 Y0.9056 
G01 X-0.4469 Y0.9094 
G01 X-0.4974 Y0.9599 
G01 X-0.5062 Y0.9687 
G01 X-0.5064 Y0.9689 
G01 X-0.5075 Y0.9699 
G01 X-0.5082 Y0.9716 
G01 X-0.5082 Y0.9734 
G01 X-0.5075 Y0.9750 
G01 X-0.5062 Y0.9763 
G01 X-0.4974 Y0.9851 
G01 X-0.4936 Y0.9889 
G01 X-0.4835 Y0.9990 
G01 X-0.4835 Y1.0450 
G01 X-0.5160 Y1.0775 
G01 X-0.5620 Y1.0775 
G01 X-0.5945 Y1.0450 
G01 X-0.5945 Y0.9990 
G01 X-0.5839 Y0.9884 
G01 X-0.5801 Y0.9846 
G01 X-0.5703 Y0.9748 
G01 X-0.5695 Y0.9740 
G01 X-0.5690 Y0.9735 
G01 X-0.5683 Y0.9719 
G01 X-0.5683 Y0.9701 
G01 X-0.5690 Y0.9684 
G01 X-0.5703 Y0.9672 
G01 X-0.5853 Y0.9522 
G01 X-0.5869 Y0.9515 
G01 X-0.5938 Y0.9515 
G01 X-0.6376 Y0.9515 
G01 X-0.6403 Y0.9515 
G01 X-0.6430 Y0.9515 
G01 X-0.6657 Y0.9515 
G01 X-0.6674 Y0.9522 
G01 X-0.6686 Y0.9535 
G01 X-0.6693 Y0.9551 
G01 X-0.6693 Y0.9569 
G01 X-0.6686 Y0.9585 
G01 X-0.6674 Y0.9598 
G01 X-0.6602 Y0.9670 
G01 X-0.6607 Y0.9689 
G01 X-0.6608 Y0.9693 
G01 X-0.6608 Y0.9720 
G01 X-0.6608 Y0.9747 
G01 X-0.6605 Y0.9760 
G01 X-0.6595 Y0.9795 
G01 X-0.6632 Y0.9795 
G01 X-0.6832 Y0.9595 
G01 X-0.7168 Y0.9595 
G01 X-0.7405 Y0.9832 
G01 X-0.7405 Y1.0168 
G01 X-0.7205 Y1.0368 
G01 X-0.7205 Y1.0382 
G01 X-0.7223 Y1.0364 
G01 X-0.7224 Y1.0363 
G01 X-0.7271 Y1.0336 
G01 X-0.7308 Y1.0326 
G01 X-0.7323 Y1.0322 
G01 X-0.7377 Y1.0322 
G01 X-0.7400 Y1.0328 
G01 X-0.7472 Y1.0256 
G01 X-0.7480 Y1.0248 
G01 X-0.7485 Y1.0244 
G01 X-0.7501 Y1.0237 
G01 X-0.7519 Y1.0237 
G01 X-0.7535 Y1.0244 
G01 X-0.7548 Y1.0256 
G01 X-0.7555 Y1.0273 
G01 X-0.7555 Y1.0450 
G01 X-0.7880 Y1.0775 
G01 X-0.8340 Y1.0775 
G01 X-0.8665 Y1.0450 
G01 X-0.8665 Y0.9990 
G01 X-0.8559 Y0.9884 
G01 X-0.8521 Y0.9846 
G01 X-0.8340 Y0.9665 
G01 X-0.7880 Y0.9665 
G01 X-0.7598 Y0.9947 
G01 X-0.7590 Y0.9955 
G01 X-0.7585 Y0.9960 
G01 X-0.7569 Y0.9966 
G01 X-0.7551 Y0.9966 
G01 X-0.7535 Y0.9960 
G01 X-0.7522 Y0.9947 
G01 X-0.7515 Y0.9930 
G01 X-0.7515 Y0.9787 
G01 X-0.7326 Y0.9598 
G01 X-0.7317 Y0.9589 
G01 X-0.7314 Y0.9585 
G01 X-0.7307 Y0.9569 
G01 X-0.7307 Y0.9551 
G01 X-0.7314 Y0.9535 
G01 X-0.7326 Y0.9522 
G01 X-0.7343 Y0.9515 
G01 X-0.8658 Y0.9515 
G01 X-0.9082 Y0.9515 
G01 X-0.9131 Y0.9515 
G01 X-0.9147 Y0.9522 
G01 X-0.9152 Y0.9527 
G01 X-0.9181 Y0.9556 
G01 X-0.9219 Y0.9594 
G01 X-0.9349 Y0.9724 
G01 X-0.9437 Y0.9812 
G01 X-0.9445 Y0.9820 
G01 X-0.9450 Y0.9824 
G01 X-0.9457 Y0.9841 
G01 X-0.9457 Y0.9859 
G01 X-0.9450 Y0.9875 
G01 X-0.9437 Y0.9888 
G01 X-0.9349 Y0.9976 
G01 X-0.9335 Y0.9990 
G01 X-0.9335 Y1.0450 
G01 X-0.9660 Y1.0775 
G01 X-1.0120 Y1.0775 
G01 X-1.0445 Y1.0450 
G01 X-1.0445 Y0.9990 
G01 X-1.0417 Y0.9962 
G01 X-1.0328 Y0.9873 
G01 X-1.0318 Y0.9863 
G01 X-1.0315 Y0.9860 
G01 X-1.0308 Y0.9844 
G01 X-1.0308 Y0.9826 
G01 X-1.0315 Y0.9809 
G01 X-1.0328 Y0.9797 
G01 X-1.0416 Y0.9709 
G01 X-1.0453 Y0.9671 
G01 X-1.0569 Y0.9556 
G01 X-1.0603 Y0.9522 
G01 X-1.0619 Y0.9515 
G01 X-1.0668 Y0.9515 
G01 X-1.0876 Y0.9515 
G01 X-1.0903 Y0.9515 
G01 X-1.0930 Y0.9515 
G01 X-1.1157 Y0.9515 
G01 X-1.1174 Y0.9522 
G01 X-1.1186 Y0.9535 
G01 X-1.1193 Y0.9551 
G01 X-1.1193 Y0.9569 
G01 X-1.1186 Y0.9585 
G01 X-1.1174 Y0.9598 
G01 X-1.1102 Y0.9670 
G01 X-1.1107 Y0.9689 
G01 X-1.1108 Y0.9693 
G01 X-1.1108 Y0.9720 
G01 X-1.1108 Y0.9747 
G01 X-1.1105 Y0.9760 
G01 X-1.1095 Y0.9795 
G01 X-1.1132 Y0.9795 
G01 X-1.1332 Y0.9595 
G01 X-1.1668 Y0.9595 
G01 X-1.1905 Y0.9832 
G01 X-1.1905 Y1.0168 
G01 X-1.1705 Y1.0368 
G01 X-1.1705 Y1.0382 
G01 X-1.1723 Y1.0364 
G01 X-1.1724 Y1.0363 
G01 X-1.1771 Y1.0336 
G01 X-1.1808 Y1.0326 
G01 X-1.1823 Y1.0322 
G01 X-1.1877 Y1.0322 
G01 X-1.1900 Y1.0328 
G01 X-1.1972 Y1.0256 
G01 X-1.1980 Y1.0248 
G01 X-1.1985 Y1.0244 
G01 X-1.2001 Y1.0237 
G01 X-1.2019 Y1.0237 
G01 X-1.2035 Y1.0244 
G01 X-1.2048 Y1.0256 
G01 X-1.2055 Y1.0273 
G01 X-1.2055 Y1.0450 
G01 X-1.2380 Y1.0775 
G01 X-1.2840 Y1.0775 
G01 X-1.3165 Y1.0450 
G01 X-1.3165 Y0.9990 
G01 X-1.3059 Y0.9884 
G01 X-1.3021 Y0.9846 
G01 X-1.2840 Y0.9665 
G01 X-1.2380 Y0.9665 
G01 X-1.2098 Y0.9947 
G01 X-1.2090 Y0.9955 
G01 X-1.2085 Y0.9960 
G01 X-1.2069 Y0.9966 
G01 X-1.2051 Y0.9966 
G01 X-1.2035 Y0.9960 
G01 X-1.2022 Y0.9947 
G01 X-1.2015 Y0.9930 
G01 X-1.2015 Y0.9787 
G01 X-1.1826 Y0.9598 
G01 X-1.1817 Y0.9589 
G01 X-1.1814 Y0.9585 
G01 X-1.1807 Y0.9569 
G01 X-1.1807 Y0.9551 
G01 X-1.1814 Y0.9535 
G01 X-1.1826 Y0.9522 
G01 X-1.1843 Y0.9515 
G01 X-1.3158 Y0.9515 
G01 X-1.3582 Y0.9515 
G01 X-1.3631 Y0.9515 
G01 X-1.3647 Y0.9522 
G01 X-1.3652 Y0.9527 
G01 X-1.3681 Y0.9556 
G01 X-1.3719 Y0.9594 
G01 X-1.3811 Y0.9686 
G01 X-1.3848 Y0.9723 
G01 X-1.3849 Y0.9724 
G01 X-1.3937 Y0.9812 
G01 X-1.3945 Y0.9820 
G01 X-1.3950 Y0.9824 
G01 X-1.3957 Y0.9841 
G01 X-1.3957 Y0.9859 
G01 X-1.3950 Y0.9875 
G01 X-1.3937 Y0.9888 
G01 X-1.3849 Y0.9976 
G01 X-1.3835 Y0.9990 
G01 X-1.3835 Y1.0450 
G01 X-1.4160 Y1.0775 
G01 X-1.4620 Y1.0775 
G01 X-1.4945 Y1.0450 
G01 X-1.4945 Y0.9990 
G01 X-1.4916 Y0.9961 
G01 X-1.4828 Y0.9873 
G01 X-1.4818 Y0.9863 
G01 X-1.4815 Y0.9860 
G01 X-1.4808 Y0.9844 
G01 X-1.4808 Y0.9826 
G01 X-1.4815 Y0.9809 
G01 X-1.4828 Y0.9797 
G01 X-1.4916 Y0.9709 
G01 X-1.4954 Y0.9671 
G01 X-1.5031 Y0.9594 
G01 X-1.5069 Y0.9556 
G01 X-1.5103 Y0.9522 
G01 X-1.5119 Y0.9515 
G01 X-1.5168 Y0.9515 
G01 X-1.5376 Y0.9515 
G01 X-1.5403 Y0.9515 
G01 X-1.5430 Y0.9515 
G01 X-1.5657 Y0.9515 
G01 X-1.5674 Y0.9522 
G01 X-1.5686 Y0.9535 
G01 X-1.5693 Y0.9551 
G01 X-1.5693 Y0.9569 
G01 X-1.5686 Y0.9585 
G01 X-1.5674 Y0.9598 
G01 X-1.5602 Y0.9670 
G01 X-1.5607 Y0.9689 
G01 X-1.5608 Y0.9693 
G01 X-1.5608 Y0.9720 
G01 X-1.5608 Y0.9747 
G01 X-1.5605 Y0.9760 
G01 X-1.5595 Y0.9795 
G01 X-1.5632 Y0.9795 
G01 X-1.5832 Y0.9595 
G01 X-1.6168 Y0.9595 
G01 X-1.6405 Y0.9832 
G01 X-1.6405 Y1.0168 
G01 X-1.6205 Y1.0368 
G01 X-1.6205 Y1.0382 
G01 X-1.6223 Y1.0364 
G01 X-1.6224 Y1.0363 
G01 X-1.6271 Y1.0336 
G01 X-1.6308 Y1.0326 
G01 X-1.6323 Y1.0322 
G01 X-1.6377 Y1.0322 
G01 X-1.6400 Y1.0328 
G01 X-1.6472 Y1.0256 
G01 X-1.6480 Y1.0248 
G01 X-1.6485 Y1.0244 
G01 X-1.6501 Y1.0237 
G01 X-1.6519 Y1.0237 
G01 X-1.6535 Y1.0244 
G01 X-1.6548 Y1.0256 
G01 X-1.6555 Y1.0273 
G01 X-1.6555 Y1.0450 
G01 X-1.6880 Y1.0775 
G01 X-1.7340 Y1.0775 
G01 X-1.7665 Y1.0450 
G01 X-1.7665 Y0.9990 
G01 X-1.7559 Y0.9884 
G01 X-1.7521 Y0.9846 
G01 X-1.7340 Y0.9665 
G01 X-1.6880 Y0.9665 
G01 X-1.6598 Y0.9947 
G01 X-1.6590 Y0.9955 
G01 X-1.6585 Y0.9960 
G01 X-1.6569 Y0.9966 
G01 X-1.6551 Y0.9966 
G01 X-1.6535 Y0.9960 
G01 X-1.6522 Y0.9947 
G01 X-1.6515 Y0.9930 
G01 X-1.6515 Y0.9787 
G01 X-1.6326 Y0.9598 
G01 X-1.6317 Y0.9589 
G01 X-1.6314 Y0.9585 
G01 X-1.6307 Y0.9569 
G01 X-1.6307 Y0.9551 
G01 X-1.6314 Y0.9535 
G01 X-1.6326 Y0.9522 
G01 X-1.6343 Y0.9515 
G01 X-1.7658 Y0.9515 
G01 X-1.7752 Y0.9515 
G01 X-1.7801 Y0.9515 
G01 X-1.7817 Y0.9522 
G01 X-1.7830 Y0.9535 
G01 X-1.7851 Y0.9556 
G01 X-1.7889 Y0.9594 
G01 X-1.8256 Y0.9961 
G01 X-1.8294 Y0.9999 
G01 X-1.8328 Y1.0033 
G01 X-1.8335 Y1.0049 
G01 X-1.8335 Y1.0098 
G01 X-1.8335 Y1.0450 
G01 X-1.8660 Y1.0775 
G01 X-1.9012 Y1.0775 
G01 X-1.9061 Y1.0775 
G01 X-1.9077 Y1.0782 
G01 X-1.9090 Y1.0795 
G01 X-1.9111 Y1.0816 
G01 X-1.9149 Y1.0854 
G01 X-1.9770 Y1.1475 
G01 X-1.9867 Y1.1515 
G01 X-2.5482 Y1.1515 
G01 X-2.5531 Y1.1515 
G01 X-2.5547 Y1.1522 
G01 X-2.5560 Y1.1535 
G01 X-2.5581 Y1.1556 
G01 X-2.5619 Y1.1594 
G01 X-2.5788 Y1.1762 
G01 X-2.6212 Y1.1762 
G01 X-2.6512 Y1.1462 
G01 X-2.6512 Y1.1038 
G01 X-2.6212 Y1.0738 
G01 X-2.5788 Y1.0738 
G01 X-2.5581 Y1.0944 
G01 X-2.5560 Y1.0965 
G01 X-2.5547 Y1.0978 
G01 X-2.5531 Y1.0985 
G01 X-2.5482 Y1.0985 
G01 X-2.0088 Y1.0985 
G01 X-2.0039 Y1.0985 
G01 X-2.0023 Y1.0978 
G01 X-2.0010 Y1.0965 
G01 X-1.9989 Y1.0944 
G01 X-1.9951 Y1.0906 
G01 X-1.9486 Y1.0441 
G01 X-1.9452 Y1.0407 
G01 X-1.9445 Y1.0391 
G01 X-1.9445 Y1.0342 
G01 X-1.9445 Y0.9990 
G01 X-1.9120 Y0.9665 
G01 X-1.8768 Y0.9665 
G01 X-1.8719 Y0.9665 
G01 X-1.8703 Y0.9658 
G01 X-1.8690 Y0.9645 
G01 X-1.8669 Y0.9624 
G01 X-1.8631 Y0.9586 
G01 X-1.8070 Y0.9025 
G01 X-1.7973 Y0.8985 
G01 X-1.4947 Y0.8985 
G01 X-1.4850 Y0.9025 
G01 X-1.4727 Y0.9148 
G01 X-1.4501 Y0.9374 
G01 X-1.4400 Y0.9475 
G01 X-1.4384 Y0.9482 
G01 X-1.4366 Y0.9482 
G01 X-1.4350 Y0.9475 
G01 X-1.4337 Y0.9462 
G01 X-1.4249 Y0.9374 
G01 X-1.4211 Y0.9336 
G01 X-1.3900 Y0.9025 
G01 X-1.3803 Y0.8985 
G01 X-1.0447 Y0.8985 
G01 X-1.0350 Y0.9025 
G01 X-1.0227 Y0.9148 
G01 X-1.0001 Y0.9374 
G01 X-0.9900 Y0.9475 
G01 X-0.9884 Y0.9482 
G01 X-0.9866 Y0.9482 
G01 X-0.9850 Y0.9475 
G01 X-0.9837 Y0.9462 
G01 X-0.9749 Y0.9374 
G01 X-0.9711 Y0.9336 
G01 X-0.9400 Y0.9025 
G01 X-0.9303 Y0.8985 
G01 X-0.5697 Y0.8985 
G01 X-0.5600 Y0.9025 
G01 X-0.5539 Y0.9086 
G01 X-0.5502 Y0.9123 
G01 X-0.5501 Y0.9124 
G01 X-0.5413 Y0.9212 
G01 X-0.5402 Y0.9223 
G01 X-0.5400 Y0.9225 
G01 X-0.5384 Y0.9232 
G01 X-0.5366 Y0.9232 
G01 X-0.5350 Y0.9225 
G01 X-0.5337 Y0.9212 
G01 X-0.5249 Y0.9124 
G01 X-0.5212 Y0.9087 
G01 X-0.4773 Y0.8648 
G01 X-0.4650 Y0.8525 
G01 X-0.4553 Y0.8485 
G01 X-0.2197 Y0.8485 
G01 X-0.2100 Y0.8525 
G01 X-0.1360 Y0.9266 
G01 X-0.1275 Y0.9350 
G01 X-0.1235 Y0.9447 
G01 X-0.1235 Y1.3303 
G01 X-0.1275 Y1.3400 
G01 X-0.2194 Y1.4319 
G01 X-0.2215 Y1.4340 
G01 X-0.2228 Y1.4353 
G01 X-0.2235 Y1.4369 
G01 X-0.2235 Y1.4418 
G01 X-0.2235 Y2.1934 
G01 X-0.2235 Y2.2566 
G01 X-0.2235 Y3.0303 
G01 X-0.2275 Y3.0400 
G01 X-0.2766 Y3.0890 
G01 X-0.2850 Y3.0975 
G01 X-0.2947 Y3.1015 
G01 X-0.4053 Y3.1015 
G01 X-0.4150 Y3.0975 
G01 X-0.4234 Y3.0890 
G01 X-0.4273 Y3.0852 
G01 X-0.4430 Y3.0695 
G01 X-0.4451 Y3.0674 
G01 X-0.4459 Y3.0666 
G01 X-0.4464 Y3.0661 
G01 X-0.4480 Y3.0654 
G01 X-0.4528 Y3.0654 
G01 X-0.4630 Y3.0654 
G01 X-0.4738 Y3.0547 
G01 X-0.4776 Y3.0509 
G01 X-0.4863 Y3.0421 
G01 X-0.4872 Y3.0412 
G01 X-0.4876 Y3.0408 
G01 X-0.4893 Y3.0401 
G01 X-0.4911 Y3.0401 
G01 X-0.4927 Y3.0408 
G01 X-0.4940 Y3.0421 
G01 X-0.5027 Y3.0509 
G01 X-0.5173 Y3.0654 
G01 X-0.5630 Y3.0654 
G01 X-0.5738 Y3.0547 
G01 X-0.5776 Y3.0509 
G01 X-0.5863 Y3.0421 
G01 X-0.5872 Y3.0412 
G01 X-0.5876 Y3.0408 
G01 X-0.5893 Y3.0401 
G01 X-0.5911 Y3.0401 
G01 X-0.5927 Y3.0408 
G01 X-0.5940 Y3.0421 
G01 X-0.6027 Y3.0509 
G01 X-0.6173 Y3.0654 
G01 X-0.6630 Y3.0654 
G01 X-0.6738 Y3.0547 
G01 X-0.6776 Y3.0509 
G01 X-0.6863 Y3.0421 
G01 X-0.6872 Y3.0412 
G01 X-0.6876 Y3.0408 
G01 X-0.6893 Y3.0401 
G01 X-0.6911 Y3.0401 
G01 X-0.6927 Y3.0408 
G01 X-0.6940 Y3.0421 
G01 X-0.7027 Y3.0509 
G01 X-0.7173 Y3.0654 
G01 X-0.7630 Y3.0654 
G01 X-0.7738 Y3.0547 
G01 X-0.7776 Y3.0509 
G01 X-0.7863 Y3.0421 
G01 X-0.7872 Y3.0412 
G01 X-0.7876 Y3.0408 
G01 X-0.7893 Y3.0401 
G01 X-0.7911 Y3.0401 
G01 X-0.7927 Y3.0408 
G01 X-0.7940 Y3.0421 
G01 X-0.8027 Y3.0509 
G01 X-0.8173 Y3.0654 
G01 X-0.8630 Y3.0654 
G01 X-0.8738 Y3.0547 
G01 X-0.8776 Y3.0509 
G01 X-0.8863 Y3.0421 
G01 X-0.8872 Y3.0412 
G01 X-0.8876 Y3.0408 
G01 X-0.8893 Y3.0401 
G01 X-0.8911 Y3.0401 
G01 X-0.8927 Y3.0408 
G01 X-0.8940 Y3.0421 
G01 X-0.9027 Y3.0509 
G01 X-0.9173 Y3.0654 
G01 X-0.9630 Y3.0654 
G01 X-0.9738 Y3.0547 
G01 X-0.9776 Y3.0509 
G01 X-0.9863 Y3.0421 
G01 X-0.9872 Y3.0412 
G01 X-0.9876 Y3.0408 
G01 X-0.9893 Y3.0401 
G01 X-0.9911 Y3.0401 
G01 X-0.9927 Y3.0408 
G01 X-0.9940 Y3.0421 
G01 X-1.0027 Y3.0509 
G01 X-1.0173 Y3.0654 
G01 X-1.0630 Y3.0654 
G01 X-1.0738 Y3.0547 
G01 X-1.0776 Y3.0509 
G01 X-1.0863 Y3.0421 
G01 X-1.0872 Y3.0412 
G01 X-1.0876 Y3.0408 
G01 X-1.0893 Y3.0401 
G01 X-1.0911 Y3.0401 
G01 X-1.0927 Y3.0408 
G01 X-1.0940 Y3.0421 
G01 X-1.1027 Y3.0509 
G01 X-1.1173 Y3.0654 
G01 X-1.1630 Y3.0654 
G01 X-1.1776 Y3.0509 
G01 X-1.1876 Y3.0408 
G01 X-1.1893 Y3.0401 
G01 X-1.1911 Y3.0401 
G01 X-1.1927 Y3.0408 
G01 X-1.1940 Y3.0421 
G01 X-1.2027 Y3.0509 
G01 X-1.2066 Y3.0547 
G01 X-1.2173 Y3.0654 
G01 X-1.2630 Y3.0654 
G01 X-1.2738 Y3.0547 
G01 X-1.2776 Y3.0509 
G01 X-1.2863 Y3.0421 
G01 X-1.2872 Y3.0412 
G01 X-1.2876 Y3.0408 
G01 X-1.2893 Y3.0401 
G01 X-1.2911 Y3.0401 
G01 X-1.2927 Y3.0408 
G01 X-1.2940 Y3.0421 
G01 X-1.3027 Y3.0509 
G01 X-1.3173 Y3.0654 
G01 X-1.3630 Y3.0654 
G01 X-1.3738 Y3.0547 
G01 X-1.3776 Y3.0509 
G01 X-1.3863 Y3.0421 
G01 X-1.3872 Y3.0412 
G01 X-1.3876 Y3.0408 
G01 X-1.3893 Y3.0401 
G01 X-1.3911 Y3.0401 
G01 X-1.3927 Y3.0408 
G01 X-1.3940 Y3.0421 
G01 X-1.4027 Y3.0509 
G01 X-1.4173 Y3.0654 
G01 X-1.4630 Y3.0654 
G01 X-1.4738 Y3.0547 
G01 X-1.4776 Y3.0509 
G01 X-1.4863 Y3.0421 
G01 X-1.4872 Y3.0412 
G01 X-1.4876 Y3.0408 
G01 X-1.4893 Y3.0401 
G01 X-1.4911 Y3.0401 
G01 X-1.4927 Y3.0408 
G01 X-1.4940 Y3.0421 
G01 X-1.5027 Y3.0509 
G01 X-1.5173 Y3.0654 
G01 X-1.5630 Y3.0654 
G01 X-1.5738 Y3.0547 
G01 X-1.5776 Y3.0509 
G01 X-1.5863 Y3.0421 
G01 X-1.5872 Y3.0412 
G01 X-1.5876 Y3.0408 
G01 X-1.5893 Y3.0401 
G01 X-1.5911 Y3.0401 
G01 X-1.5927 Y3.0408 
G01 X-1.5940 Y3.0421 
G01 X-1.6027 Y3.0509 
G01 X-1.6173 Y3.0654 
G01 X-1.6630 Y3.0654 
G01 X-1.6738 Y3.0547 
G01 X-1.6776 Y3.0509 
G01 X-1.6863 Y3.0421 
G01 X-1.6872 Y3.0412 
G01 X-1.6876 Y3.0408 
G01 X-1.6893 Y3.0401 
G01 X-1.6911 Y3.0401 
G01 X-1.6927 Y3.0408 
G01 X-1.6940 Y3.0421 
G01 X-1.7027 Y3.0509 
G01 X-1.7173 Y3.0654 
G01 X-1.7630 Y3.0654 
G01 X-1.7846 Y3.0438 
G01 X-1.7863 Y3.0421 
G01 X-1.7872 Y3.0412 
G01 X-1.7876 Y3.0408 
G01 X-1.7893 Y3.0401 
G01 X-1.7911 Y3.0401 
G01 X-1.7918 Y3.0404 
G01 X-1.7945 Y3.0397 
G01 X-1.7999 Y3.0397 
G01 X-1.8051 Y3.0411 
G01 X-1.8068 Y3.0421 
G01 X-1.8098 Y3.0438 
G01 X-1.8136 Y3.0476 
G01 X-1.8197 Y3.0536 
G01 X-1.8197 Y3.0522 
G01 X-1.7960 Y3.0285 
G01 X-1.7960 Y2.9919 
G01 X-1.8219 Y2.9661 
G01 X-1.8585 Y2.9661 
G01 X-1.8821 Y2.9897 
G01 X-1.8836 Y2.9897 
G01 X-1.8572 Y2.9634 
G01 X-1.8534 Y2.9596 
G01 X-1.8508 Y2.9551 
G01 X-1.8174 Y2.9551 
G01 X-1.8157 Y2.9544 
G01 X-1.8145 Y2.9531 
G01 X-1.8138 Y2.9514 
G01 X-1.8138 Y2.9497 
G01 X-1.8145 Y2.9480 
G01 X-1.8157 Y2.9467 
G01 X-1.8353 Y2.9272 
G01 X-1.8369 Y2.9265 
G01 X-1.8671 Y2.9265 
G01 X-2.8482 Y2.9265 
G01 X-2.8531 Y2.9265 
G01 X-2.8547 Y2.9272 
G01 X-2.8560 Y2.9285 
G01 X-2.8581 Y2.9306 
G01 X-2.8619 Y2.9344 
G01 X-2.8788 Y2.9512 
G01 X-2.9212 Y2.9512 
G01 X-2.9512 Y2.9212 
G01 X-2.9512 Y2.8788 
G01 X-2.9359 Y2.8634 
G01 X-2.9321 Y2.8596 
G01 X-2.9212 Y2.8488 
G01 X-2.8788 Y2.8488 
G01 X-2.8560 Y2.8715 
G01 X-2.8551 Y2.8724 
G01 X-2.8547 Y2.8728 
G01 X-2.8531 Y2.8735 
G01 X-1.8197 Y2.8735 
G01 X-1.8100 Y2.8775 
G01 X-1.7332 Y2.9544 
G01 X-1.7315 Y2.9551 
G01 X-1.7174 Y2.9551 
G01 X-1.7157 Y2.9544 
G01 X-1.7145 Y2.9531 
G01 X-1.7138 Y2.9514 
G01 X-1.7138 Y2.9497 
G01 X-1.7145 Y2.9480 
G01 X-1.7157 Y2.9467 
G01 X-1.8353 Y2.8272 
G01 X-1.8369 Y2.8265 
G01 X-2.9458 Y2.8265 
G01 X-3.8422 Y2.8265 
G01 X-3.8470 Y2.8265 
G01 X-3.8487 Y2.8272 
G01 X-3.8500 Y2.8285 
G01 X-3.8521 Y2.8306 
G01 X-3.8559 Y2.8344 
G01 X-3.8770 Y2.8555 
G01 X-3.9230 Y2.8555 
G01 X-3.9446 Y2.8339 
G01 X-3.9484 Y2.8301 
G01 X-3.9555 Y2.8230 
G01 X-3.9555 Y2.7770 
G01 X-3.9323 Y2.7538 
G01 X-3.9314 Y2.7530 
G01 X-3.9310 Y2.7525 
G01 X-3.9304 Y2.7509 
G01 X-3.9304 Y2.7491 
G01 X-3.9310 Y2.7475 
G01 X-3.9323 Y2.7462 
G01 X-3.9555 Y2.7230 
G01 X-3.9555 Y2.6770 
G01 X-3.9323 Y2.6538 
G01 X-3.9314 Y2.6530 
G01 X-3.9310 Y2.6525 
G01 X-3.9304 Y2.6509 
G01 X-3.9304 Y2.6491 
G01 X-3.9310 Y2.6475 
G01 X-3.9323 Y2.6462 
G01 X-3.9555 Y2.6230 
G01 X-3.9555 Y2.5770 
G01 X-3.9323 Y2.5538 
G01 X-3.9314 Y2.5530 
G01 X-3.9310 Y2.5525 
G01 X-3.9304 Y2.5509 
G01 X-3.9304 Y2.5491 
G01 X-3.9310 Y2.5475 
G01 X-3.9323 Y2.5462 
G01 X-3.9555 Y2.5230 
G01 X-3.9555 Y2.4770 
G01 X-3.9323 Y2.4538 
G01 X-3.9314 Y2.4530 
G01 X-3.9310 Y2.4525 
G01 X-3.9304 Y2.4509 
G01 X-3.9304 Y2.4491 
G01 X-3.9310 Y2.4475 
G01 X-3.9323 Y2.4462 
G01 X-3.9555 Y2.4230 
G01 X-3.9555 Y2.3770 
G01 X-3.9323 Y2.3538 
G01 X-3.9314 Y2.3530 
G01 X-3.9310 Y2.3525 
G01 X-3.9304 Y2.3509 
G01 X-3.9304 Y2.3491 
G01 X-3.9310 Y2.3475 
G01 X-3.9323 Y2.3462 
G01 X-3.9555 Y2.3230 
G01 X-3.9555 Y2.2770 
G01 X-3.9323 Y2.2538 
G01 X-3.9314 Y2.2530 
G01 X-3.9310 Y2.2525 
G01 X-3.9304 Y2.2509 
G01 X-3.9304 Y2.2491 
G01 X-3.9310 Y2.2475 
G01 X-3.9323 Y2.2462 
G01 X-3.9555 Y2.2230 
G01 X-3.9555 Y2.1770 
G01 X-3.9323 Y2.1538 
G01 X-3.9314 Y2.1530 
G01 X-3.9310 Y2.1525 
G01 X-3.9304 Y2.1509 
G01 X-3.9304 Y2.1491 
G01 X-3.9310 Y2.1475 
G01 X-3.9323 Y2.1462 
G01 X-3.9555 Y2.1230 
G01 X-3.9555 Y2.0770 
G01 X-3.9323 Y2.0538 
G01 X-3.9314 Y2.0530 
G01 X-3.9310 Y2.0525 
G01 X-3.9304 Y2.0509 
G01 X-3.9304 Y2.0491 
G01 X-3.9310 Y2.0475 
G01 X-3.9323 Y2.0462 
G01 X-3.9555 Y2.0230 
G01 X-3.9555 Y1.9770 
G01 X-3.9323 Y1.9538 
G01 X-3.9314 Y1.9530 
G01 X-3.9310 Y1.9525 
G01 X-3.9304 Y1.9509 
G01 X-3.9304 Y1.9491 
G01 X-3.9310 Y1.9475 
G01 X-3.9323 Y1.9462 
G01 X-3.9555 Y1.9230 
G01 X-3.9555 Y1.8770 
G01 X-3.9323 Y1.8538 
G01 X-3.9314 Y1.8530 
G01 X-3.9310 Y1.8525 
G01 X-3.9304 Y1.8509 
G01 X-3.9304 Y1.8491 
G01 X-3.9310 Y1.8475 
G01 X-3.9323 Y1.8462 
G01 X-3.9555 Y1.8230 
G01 X-3.9555 Y1.7770 
G01 X-3.9323 Y1.7538 
G01 X-3.9314 Y1.7530 
G01 X-3.9310 Y1.7525 
G01 X-3.9304 Y1.7509 
G01 X-3.9304 Y1.7491 
G01 X-3.9310 Y1.7475 
G01 X-3.9323 Y1.7462 
G01 X-3.9555 Y1.7230 
G01 X-3.9555 Y1.6770 
G01 X-3.9323 Y1.6538 
G01 X-3.9314 Y1.6530 
G01 X-3.9310 Y1.6525 
G01 X-3.9304 Y1.6509 
G01 X-3.9304 Y1.6491 
G01 X-3.9310 Y1.6475 
G01 X-3.9323 Y1.6462 
G01 X-3.9555 Y1.6230 
G01 X-3.9555 Y1.5770 
G01 X-3.9323 Y1.5538 
G01 X-3.9314 Y1.5530 
G01 X-3.9310 Y1.5525 
G01 X-3.9304 Y1.5509 
G01 X-3.9304 Y1.5491 
G01 X-3.9310 Y1.5475 
G01 X-3.9323 Y1.5462 
G01 X-3.9555 Y1.5230 
G01 X-3.9555 Y1.4770 
G01 X-3.9293 Y1.4508 
G01 X-3.9285 Y1.4500 
G01 X-3.9280 Y1.4495 
G01 X-3.9273 Y1.4479 
G01 X-3.9273 Y1.4461 
G01 X-3.9280 Y1.4444 
G01 X-3.9293 Y1.4432 
G01 X-3.9512 Y1.4212 
G01 X-3.9512 Y1.3788 
G01 X-3.9484 Y1.3759 
G01 X-3.9446 Y1.3721 
G01 X-3.9344 Y1.3619 
G01 X-3.9306 Y1.3581 
G01 X-3.9272 Y1.3547 
G01 X-3.9265 Y1.3531 
G01 X-3.9265 Y1.3482 
G01 X-3.9265 Y1.1447 
G01 X-3.9225 Y1.1350 
G01 X-3.9102 Y1.1227 
G01 X-3.8900 Y1.1025 
G01 X-3.8803 Y1.0985 
G01 X-3.3697 Y1.0985 
G01 X-3.3600 Y1.1025 
G01 X-3.3477 Y1.1148 
G01 X-3.3001 Y1.1624 
G01 X-3.2937 Y1.1688 
G01 X-3.2921 Y1.1695 
G01 X-3.2829 Y1.1695 
G01 X-3.2813 Y1.1688 
G01 X-3.2800 Y1.1675 
G01 X-3.2749 Y1.1624 
G01 X-3.2711 Y1.1586 
G01 X-3.2650 Y1.1525 
G01 X-3.2553 Y1.1485 
G01 X-3.2440 Y1.1485 
G01 X-3.2089 Y1.1485 
G01 X-3.2073 Y1.1478 
G01 X-3.2060 Y1.1465 
G01 X-3.2053 Y1.1449 
G01 X-3.2053 Y1.1431 
G01 X-3.2060 Y1.1415 
G01 X-3.2073 Y1.1402 
G01 X-3.2262 Y1.1212 
G01 X-3.2262 Y1.0788 
G01 X-3.2056 Y1.0581 
G01 X-3.2035 Y1.0560 
G01 X-3.2026 Y1.0551 
G01 X-3.2022 Y1.0547 
G01 X-3.2015 Y1.0531 
G01 X-3.2015 Y1.0482 
G01 X-3.2015 Y0.9668 
G01 X-3.2015 Y0.9619 
G01 X-3.2022 Y0.9603 
G01 X-3.2034 Y0.9591 
G01 X-3.2056 Y0.9569 
G01 X-3.2094 Y0.9531 
G01 X-3.2779 Y0.8846 
G01 X-3.2800 Y0.8825 
G01 X-3.2813 Y0.8812 
G01 X-3.2829 Y0.8805 
G01 X-3.2878 Y0.8805 
G01 X-3.3230 Y0.8805 
G01 X-3.3336 Y0.8699 
G01 X-3.3374 Y0.8661 
G01 X-3.3462 Y0.8573 
G01 X-3.3470 Y0.8564 
G01 X-3.3475 Y0.8560 
G01 X-3.3491 Y0.8554 
G01 X-3.3509 Y0.8554 
G01 X-3.3525 Y0.8560 
G01 X-3.3538 Y0.8573 
G01 X-3.3626 Y0.8661 
G01 X-3.3770 Y0.8805 
G01 X-3.4230 Y0.8805 
G01 X-3.4336 Y0.8699 
G01 X-3.4374 Y0.8661 
G01 X-3.4462 Y0.8573 
G01 X-3.4470 Y0.8564 
G01 X-3.4475 Y0.8560 
G01 X-3.4491 Y0.8554 
G01 X-3.4509 Y0.8554 
G01 X-3.4525 Y0.8560 
G01 X-3.4538 Y0.8573 
G01 X-3.4626 Y0.8661 
G01 X-3.4770 Y0.8805 
G01 X-3.5230 Y0.8805 
G01 X-3.5336 Y0.8699 
G01 X-3.5374 Y0.8661 
G01 X-3.5462 Y0.8573 
G01 X-3.5470 Y0.8564 
G01 X-3.5475 Y0.8560 
G01 X-3.5491 Y0.8554 
G01 X-3.5509 Y0.8554 
G01 X-3.5525 Y0.8560 
G01 X-3.5538 Y0.8573 
G01 X-3.5626 Y0.8661 
G01 X-3.5770 Y0.8805 
G01 X-3.6230 Y0.8805 
G01 X-3.6336 Y0.8699 
G01 X-3.6374 Y0.8661 
G01 X-3.6462 Y0.8573 
G01 X-3.6470 Y0.8564 
G01 X-3.6475 Y0.8560 
G01 X-3.6491 Y0.8554 
G01 X-3.6509 Y0.8554 
G01 X-3.6525 Y0.8560 
G01 X-3.6538 Y0.8573 
G01 X-3.6626 Y0.8661 
G01 X-3.6770 Y0.8805 
G01 X-3.7230 Y0.8805 
G01 X-3.7445 Y0.8590 
G01 X-3.7462 Y0.8573 
G01 X-3.7470 Y0.8564 
G01 X-3.7475 Y0.8560 
G01 X-3.7491 Y0.8554 
G01 X-3.7509 Y0.8554 
G01 X-3.7516 Y0.8556 
G01 X-3.7544 Y0.8549 
G01 X-3.7598 Y0.8549 
G01 X-3.7650 Y0.8563 
G01 X-3.7667 Y0.8573 
G01 X-3.7697 Y0.8590 
G01 X-3.7735 Y0.8628 
G01 X-3.7795 Y0.8688 
G01 X-3.7795 Y0.8674 
G01 X-3.7555 Y0.8434 
G01 X-3.7555 Y0.8066 
G01 X-3.7795 Y0.7826 
G01 X-3.7795 Y0.7812 
G01 X-3.7735 Y0.7872 
G01 X-3.7697 Y0.7910 
G01 X-3.7667 Y0.7927 
G01 X-3.7650 Y0.7937 
G01 X-3.7598 Y0.7951 
G01 X-3.7544 Y0.7951 
G01 X-3.7516 Y0.7944 
G01 X-3.7509 Y0.7946 
G01 X-3.7491 Y0.7946 
G01 X-3.7475 Y0.7940 
G01 X-3.7462 Y0.7927 
G01 X-3.7445 Y0.7910 
G01 X-3.7407 Y0.7872 
G01 X-3.7230 Y0.7695 
G01 X-3.6770 Y0.7695 
G01 X-3.6626 Y0.7839 
G01 X-3.6525 Y0.7940 
G01 X-3.6509 Y0.7946 
G01 X-3.6491 Y0.7946 
G01 X-3.6475 Y0.7940 
G01 X-3.6462 Y0.7927 
G01 X-3.6374 Y0.7839 
G01 X-3.6336 Y0.7801 
G01 X-3.6230 Y0.7695 
G01 X-3.5770 Y0.7695 
G01 X-3.5626 Y0.7839 
G01 X-3.5525 Y0.7940 
G01 X-3.5509 Y0.7946 
G01 X-3.5491 Y0.7946 
G01 X-3.5475 Y0.7940 
G01 X-3.5462 Y0.7927 
G01 X-3.5374 Y0.7839 
G01 X-3.5336 Y0.7801 
G01 X-3.5306 Y0.7771 
G01 X-3.5272 Y0.7737 
G01 X-3.5265 Y0.7720 
G01 X-3.5265 Y0.7672 
G01 X-3.5265 Y0.7447 
G01 X-3.5225 Y0.7350 
G01 X-3.5140 Y0.7266 
G01 X-3.5102 Y0.7227 
G01 X-3.4761 Y0.6886 
G01 X-3.4650 Y0.6775 
G01 X-3.4553 Y0.6735 
G01 X-2.7447 Y0.6735 
G01 X-2.7350 Y0.6775 
G01 X-2.7263 Y0.6863 
G01 X-2.7239 Y0.6886 
G01 X-2.7201 Y0.6924 
G01 X-2.6218 Y0.7907 
G01 X-2.6184 Y0.7941 
G01 X-2.6167 Y0.7948 
G01 X-2.6119 Y0.7948 
G01 X-2.6021 Y0.7948 
G01 X-2.5698 Y0.8271 
G01 X-2.5698 Y0.8729 
G01 X-2.5914 Y0.8945 
G01 X-2.5944 Y0.8975 
G01 X-2.5951 Y0.8991 
G01 X-2.5951 Y0.9009 
G01 X-2.5948 Y0.9016 
G01 X-2.5955 Y0.9044 
G01 X-2.5955 Y0.9098 
G01 X-2.5941 Y0.9150 
G01 X-2.5932 Y0.9167 
G01 X-2.5914 Y0.9197 
G01 X-2.5876 Y0.9235 
G01 X-2.5816 Y0.9295 
G01 X-2.5830 Y0.9295 
G01 X-2.6067 Y0.9058 
G01 X-2.6433 Y0.9058 
G01 X-2.6692 Y0.9317 
G01 X-2.6692 Y0.9683 
G01 X-2.6455 Y0.9920 
G01 X-2.6455 Y0.9934 
G01 X-2.6515 Y0.9874 
G01 X-2.6553 Y0.9836 
G01 X-2.6566 Y0.9829 
G01 X-2.6600 Y0.9809 
G01 X-2.6652 Y0.9795 
G01 X-2.6706 Y0.9795 
G01 X-2.6734 Y0.9802 
G01 X-2.6741 Y0.9799 
G01 X-2.6759 Y0.9799 
G01 X-2.6775 Y0.9806 
G01 X-2.6788 Y0.9819 
G01 X-2.6805 Y0.9836 
G01 X-2.6906 Y0.9936 
G01 X-2.6944 Y0.9974 
G01 X-2.6978 Y1.0009 
G01 X-2.6985 Y1.0025 
G01 X-2.6985 Y1.0073 
G01 X-2.6985 Y1.0303 
G01 X-2.7025 Y1.0400 
G01 X-2.9516 Y1.2890 
G01 X-2.9600 Y1.2975 
G01 X-2.9697 Y1.3015 
G01 X-3.1232 Y1.3015 
G01 X-3.1281 Y1.3015 
G01 X-3.1297 Y1.3022 
G01 X-3.1310 Y1.3035 
G01 X-3.1331 Y1.3056 
G01 X-3.1369 Y1.3094 
G01 X-3.1538 Y1.3262 
G01 X-3.1910 Y1.3262 
G01 X-3.1951 Y1.3262 
G01 X-3.1968 Y1.3269 
G01 X-3.1981 Y1.3282 
G01 X-3.1984 Y1.3289 
G01 X-3.2008 Y1.3303 
G01 X-3.2047 Y1.3342 
G01 X-3.2074 Y1.3388 
G01 X-3.2080 Y1.3414 
G01 X-3.2295 Y1.3628 
G01 X-3.2295 Y1.3614 
G01 X-3.2098 Y1.3417 
G01 X-3.2098 Y1.3083 
G01 X-3.2333 Y1.2848 
G01 X-3.2667 Y1.2848 
G01 X-3.2864 Y1.3045 
G01 X-3.2912 Y1.3045 
G01 X-3.2912 Y1.2983 
G01 X-3.2922 Y1.2947 
G01 X-3.2863 Y1.2888 
G01 X-3.2853 Y1.2878 
G01 X-3.2850 Y1.2875 
G01 X-3.2843 Y1.2859 
G01 X-3.2843 Y1.2841 
G01 X-3.2850 Y1.2825 
G01 X-3.2863 Y1.2812 
G01 X-3.2879 Y1.2805 
G01 X-3.3090 Y1.2805 
G01 X-3.3230 Y1.2805 
G01 X-3.3336 Y1.2699 
G01 X-3.3343 Y1.2692 
G01 X-3.3374 Y1.2661 
G01 X-3.3475 Y1.2560 
G01 X-3.3491 Y1.2554 
G01 X-3.3509 Y1.2554 
G01 X-3.3525 Y1.2560 
G01 X-3.3538 Y1.2573 
G01 X-3.3626 Y1.2661 
G01 X-3.3632 Y1.2667 
G01 X-3.3664 Y1.2699 
G01 X-3.3694 Y1.2729 
G01 X-3.3728 Y1.2763 
G01 X-3.3735 Y1.2780 
G01 X-3.3735 Y1.2828 
G01 X-3.3735 Y1.3053 
G01 X-3.3775 Y1.3150 
G01 X-3.3782 Y1.3157 
G01 X-3.3863 Y1.3237 
G01 X-3.4228 Y1.3603 
G01 X-3.4235 Y1.3619 
G01 X-3.4235 Y1.4470 
G01 X-3.4228 Y1.4487 
G01 X-3.4215 Y1.4500 
G01 X-3.3987 Y1.4728 
G01 X-3.3970 Y1.4735 
G01 X-3.3239 Y1.4735 
G01 X-3.3223 Y1.4728 
G01 X-3.3210 Y1.4715 
G01 X-3.3203 Y1.4699 
G01 X-3.3203 Y1.4681 
G01 X-3.3210 Y1.4665 
G01 X-3.3223 Y1.4652 
G01 X-3.3355 Y1.4519 
G01 X-3.3372 Y1.4512 
G01 X-3.3712 Y1.4512 
G01 X-3.4012 Y1.4212 
G01 X-3.4012 Y1.3788 
G01 X-3.3712 Y1.3488 
G01 X-3.3645 Y1.3488 
G01 X-3.3618 Y1.3488 
G01 X-3.3591 Y1.3488 
G01 X-3.3288 Y1.3488 
G01 X-3.3282 Y1.3494 
G01 X-3.3244 Y1.3531 
G01 X-3.2988 Y1.3788 
G01 X-3.2988 Y1.3814 
G01 X-3.2988 Y1.3840 
G01 X-3.2988 Y1.3868 
G01 X-3.2988 Y1.4057 
G01 X-3.2988 Y1.4128 
G01 X-3.2981 Y1.4145 
G01 X-3.2968 Y1.4157 
G01 X-3.2897 Y1.4228 
G01 X-3.2881 Y1.4235 
G01 X-3.2810 Y1.4235 
G01 X-2.3783 Y1.4235 
G01 X-2.3641 Y1.4235 
G01 X-2.3625 Y1.4228 
G01 X-2.3612 Y1.4215 
G01 X-2.3605 Y1.4199 
G01 X-2.3605 Y1.4057 
G01 X-2.3605 Y1.3443 
G01 X-2.3605 Y1.3183 
G01 X-2.3612 Y1.3166 
G01 X-2.3625 Y1.3154 
G01 X-2.3641 Y1.3147 
G01 X-2.3659 Y1.3147 
G01 X-2.3675 Y1.3154 
G01 X-2.3688 Y1.3166 
G01 X-2.3787 Y1.3265 
G01 X-2.4213 Y1.3265 
G01 X-2.4336 Y1.3142 
G01 X-2.4374 Y1.3104 
G01 X-2.4462 Y1.3016 
G01 X-2.4470 Y1.3008 
G01 X-2.4475 Y1.3004 
G01 X-2.4491 Y1.2997 
G01 X-2.4509 Y1.2997 
G01 X-2.4525 Y1.3004 
G01 X-2.4538 Y1.3016 
G01 X-2.4626 Y1.3104 
G01 X-2.4787 Y1.3265 
G01 X-2.5213 Y1.3265 
G01 X-2.5336 Y1.3142 
G01 X-2.5374 Y1.3104 
G01 X-2.5462 Y1.3016 
G01 X-2.5470 Y1.3008 
G01 X-2.5475 Y1.3004 
G01 X-2.5491 Y1.2997 
G01 X-2.5509 Y1.2997 
G01 X-2.5525 Y1.3004 
G01 X-2.5538 Y1.3016 
G01 X-2.5626 Y1.3104 
G01 X-2.5787 Y1.3265 
G01 X-2.6213 Y1.3265 
G01 X-2.6336 Y1.3142 
G01 X-2.6374 Y1.3104 
G01 X-2.6462 Y1.3016 
G01 X-2.6470 Y1.3008 
G01 X-2.6475 Y1.3004 
G01 X-2.6491 Y1.2997 
G01 X-2.6509 Y1.2997 
G01 X-2.6525 Y1.3004 
G01 X-2.6538 Y1.3016 
G01 X-2.6626 Y1.3104 
G01 X-2.6787 Y1.3265 
G01 X-2.7213 Y1.3265 
G01 X-2.7445 Y1.3033 
G01 X-2.7462 Y1.3016 
G01 X-2.7470 Y1.3008 
G01 X-2.7475 Y1.3004 
G01 X-2.7491 Y1.2997 
G01 X-2.7509 Y1.2997 
G01 X-2.7516 Y1.3000 
G01 X-2.7544 Y1.2993 
G01 X-2.7598 Y1.2993 
G01 X-2.7650 Y1.3006 
G01 X-2.7667 Y1.3016 
G01 X-2.7697 Y1.3033 
G01 X-2.7735 Y1.3072 
G01 X-2.7795 Y1.3132 
G01 X-2.7795 Y1.3118 
G01 X-2.7595 Y1.2918 
G01 X-2.7595 Y1.2582 
G01 X-2.7795 Y1.2382 
G01 X-2.7795 Y1.2368 
G01 X-2.7735 Y1.2428 
G01 X-2.7697 Y1.2467 
G01 X-2.7667 Y1.2483 
G01 X-2.7650 Y1.2494 
G01 X-2.7598 Y1.2507 
G01 X-2.7544 Y1.2507 
G01 X-2.7516 Y1.2500 
G01 X-2.7509 Y1.2503 
G01 X-2.7491 Y1.2503 
G01 X-2.7475 Y1.2496 
G01 X-2.7462 Y1.2484 
G01 X-2.7445 Y1.2467 
G01 X-2.7407 Y1.2428 
G01 X-2.7213 Y1.2235 
G01 X-2.6787 Y1.2235 
G01 X-2.6626 Y1.2396 
G01 X-2.6525 Y1.2496 
G01 X-2.6509 Y1.2503 
G01 X-2.6491 Y1.2503 
G01 X-2.6475 Y1.2496 
G01 X-2.6462 Y1.2484 
G01 X-2.6374 Y1.2396 
G01 X-2.6336 Y1.2358 
G01 X-2.6213 Y1.2235 
G01 X-2.5787 Y1.2235 
G01 X-2.5626 Y1.2396 
G01 X-2.5525 Y1.2496 
G01 X-2.5509 Y1.2503 
G01 X-2.5491 Y1.2503 
G01 X-2.5475 Y1.2496 
G01 X-2.5462 Y1.2484 
G01 X-2.5374 Y1.2396 
G01 X-2.5336 Y1.2358 
G01 X-2.5213 Y1.2235 
G01 X-2.4787 Y1.2235 
G01 X-2.4626 Y1.2396 
G01 X-2.4525 Y1.2496 
G01 X-2.4509 Y1.2503 
G01 X-2.4491 Y1.2503 
G01 X-2.4475 Y1.2496 
G01 X-2.4462 Y1.2484 
G01 X-2.4374 Y1.2396 
G01 X-2.4336 Y1.2358 
G01 X-2.4213 Y1.2235 
G01 X-2.3787 Y1.2235 
G01 X-2.3626 Y1.2396 
G01 X-2.3525 Y1.2496 
G01 X-2.3509 Y1.2503 
G01 X-2.3491 Y1.2503 
G01 X-2.3475 Y1.2496 
G01 X-2.3462 Y1.2484 
G01 X-2.3374 Y1.2396 
G01 X-2.3336 Y1.2358 
G01 X-2.3213 Y1.2235 
G01 X-2.2787 Y1.2235 
G01 X-2.2626 Y1.2396 
G01 X-2.2525 Y1.2496 
G01 X-2.2509 Y1.2503 
G01 X-2.2491 Y1.2503 
G01 X-2.2475 Y1.2496 
G01 X-2.2462 Y1.2484 
G01 X-2.2374 Y1.2396 
G01 X-2.2336 Y1.2358 
G01 X-2.2213 Y1.2235 
G01 X-2.1787 Y1.2235 
G01 X-2.1626 Y1.2396 
G01 X-2.1525 Y1.2496 
G01 X-2.1509 Y1.2503 
G01 X-2.1491 Y1.2503 
G01 X-2.1475 Y1.2496 
G01 X-2.1462 Y1.2484 
G01 X-2.1374 Y1.2396 
G01 X-2.1336 Y1.2358 
G01 X-2.1213 Y1.2235 
G01 X-2.0787 Y1.2235 
G01 X-2.0485 Y1.2537 
G01 X-2.0485 Y1.2963 
G01 X-2.0674 Y1.3152 
G01 X-2.0683 Y1.3161 
G01 X-2.0686 Y1.3165 
G01 X-2.0693 Y1.3181 
G01 X-2.0693 Y1.3199 
G01 X-2.0686 Y1.3215 
G01 X-2.0674 Y1.3228 
G01 X-2.0657 Y1.3235 
G01 X-2.0307 Y1.3235 
G01 X-1.9668 Y1.3235 
G01 X-1.9619 Y1.3235 
G01 X-1.9603 Y1.3228 
G01 X-1.9600 Y1.3226 
G01 X-1.9569 Y1.3194 
G01 X-1.9531 Y1.3156 
G01 X-1.9486 Y1.3111 
G01 X-1.9453 Y1.3078 
G01 X-1.9447 Y1.3072 
G01 X-1.9440 Y1.3066 
G01 X-1.9439 Y1.3063 
G01 X-1.9433 Y1.3049 
G01 X-1.9433 Y1.3031 
G01 X-1.9439 Y1.3018 
G01 X-1.9440 Y1.3015 
G01 X-1.9445 Y1.3010 
G01 X-1.9445 Y1.2550 
G01 X-1.9120 Y1.2225 
G01 X-1.8660 Y1.2225 
G01 X-1.8655 Y1.2230 
G01 X-1.8646 Y1.2234 
G01 X-1.8639 Y1.2237 
G01 X-1.8621 Y1.2237 
G01 X-1.8604 Y1.2230 
G01 X-1.8595 Y1.2220 
G01 X-1.8592 Y1.2217 
G01 X-1.8559 Y1.2184 
G01 X-1.8521 Y1.2146 
G01 X-1.8234 Y1.1860 
G01 X-1.8150 Y1.1775 
G01 X-1.8053 Y1.1735 
G01 X-1.5117 Y1.1735 
G01 X-1.5020 Y1.1775 
G01 X-1.4611 Y1.2184 
G01 X-1.4577 Y1.2218 
G01 X-1.4561 Y1.2225 
G01 X-1.4512 Y1.2225 
G01 X-1.4160 Y1.2225 
G01 X-1.4155 Y1.2230 
G01 X-1.4153 Y1.2231 
G01 X-1.4139 Y1.2237 
G01 X-1.4121 Y1.2237 
G01 X-1.4107 Y1.2231 
G01 X-1.4104 Y1.2230 
G01 X-1.4098 Y1.2223 
G01 X-1.4092 Y1.2217 
G01 X-1.4059 Y1.2184 
G01 X-1.4021 Y1.2146 
G01 X-1.3734 Y1.1860 
G01 X-1.3650 Y1.1775 
G01 X-1.3553 Y1.1735 
G01 X-1.0617 Y1.1735 
G01 X-1.0520 Y1.1775 
G01 X-1.0111 Y1.2184 
G01 X-1.0090 Y1.2205 
G01 X-1.0084 Y1.2211 
G01 X-1.0077 Y1.2218 
G01 X-1.0061 Y1.2225 
G01 X-1.0012 Y1.2225 
G01 X-0.9768 Y1.2225 
G01 X-0.9719 Y1.2225 
G01 X-0.9703 Y1.2218 
G01 X-0.9690 Y1.2205 
G01 X-0.9669 Y1.2184 
G01 X-0.9631 Y1.2146 
G01 X-0.9260 Y1.1775 
G01 X-0.9163 Y1.1735 
G01 X-0.5947 Y1.1735 
G01 X-0.5850 Y1.1775 
G01 X-0.5727 Y1.1898 
G01 X-0.5479 Y1.2146 
G01 X-0.5441 Y1.2184 
G01 X-0.5407 Y1.2218 
G01 X-0.5391 Y1.2225 
G01 X-0.5342 Y1.2225 
G01 X-0.5160 Y1.2225 
G01 X-0.4835 Y1.2550 
G01 X-0.4835 Y1.3010 
G01 X-0.5160 Y1.3335 
G01 X-0.5620 Y1.3335 
G01 X-0.5945 Y1.3010 
G01 X-0.5945 Y1.2550 
G01 X-0.5923 Y1.2528 
G01 X-0.5911 Y1.2516 
G01 X-0.5906 Y1.2506 
G01 X-0.5903 Y1.2499 
G01 X-0.5903 Y1.2481 
G01 X-0.5910 Y1.2464 
G01 X-0.5923 Y1.2452 
G01 X-0.5986 Y1.2389 
G01 X-0.6024 Y1.2351 
G01 X-0.6069 Y1.2306 
G01 X-0.6103 Y1.2272 
G01 X-0.6119 Y1.2265 
G01 X-0.6168 Y1.2265 
G01 X-0.6539 Y1.2265 
G01 X-0.7740 Y1.2265 
G01 X-0.7757 Y1.2272 
G01 X-0.7770 Y1.2285 
G01 X-0.7776 Y1.2301 
G01 X-0.7776 Y1.2319 
G01 X-0.7770 Y1.2335 
G01 X-0.7757 Y1.2348 
G01 X-0.7597 Y1.2508 
G01 X-0.7580 Y1.2515 
G01 X-0.7253 Y1.2515 
G01 X-0.7236 Y1.2508 
G01 X-0.7213 Y1.2485 
G01 X-0.6787 Y1.2485 
G01 X-0.6676 Y1.2596 
G01 X-0.6638 Y1.2634 
G01 X-0.6485 Y1.2787 
G01 X-0.6485 Y1.3213 
G01 X-0.6787 Y1.3515 
G01 X-0.7213 Y1.3515 
G01 X-0.7511 Y1.3217 
G01 X-0.7515 Y1.3213 
G01 X-0.7515 Y1.3081 
G01 X-0.7522 Y1.3065 
G01 X-0.7535 Y1.3052 
G01 X-0.7551 Y1.3045 
G01 X-0.7580 Y1.3045 
G01 X-0.7597 Y1.3052 
G01 X-0.7610 Y1.3065 
G01 X-0.7763 Y1.3217 
G01 X-0.7801 Y1.3256 
G01 X-0.7880 Y1.3335 
G01 X-0.7902 Y1.3335 
G01 X-0.7951 Y1.3335 
G01 X-0.7967 Y1.3342 
G01 X-0.7980 Y1.3355 
G01 X-0.8001 Y1.3376 
G01 X-0.8039 Y1.3414 
G01 X-1.4016 Y1.9390 
G01 X-1.4029 Y1.9404 
G01 X-1.4100 Y1.9475 
G01 X-1.4197 Y1.9515 
G01 X-2.4803 Y1.9515 
G01 X-2.4900 Y1.9475 
G01 X-2.7150 Y1.7225 
G01 X-2.7225 Y1.7150 
G01 X-2.7265 Y1.7053 
G01 X-2.7265 Y1.6223 
G01 X-2.7272 Y1.6206 
G01 X-2.7285 Y1.6194 
G01 X-2.7475 Y1.6004 
G01 X-2.7491 Y1.5997 
G01 X-2.7509 Y1.5997 
G01 X-2.7525 Y1.6004 
G01 X-2.7538 Y1.6016 
G01 X-2.7728 Y1.6206 
G01 X-2.7735 Y1.6223 
G01 X-2.7735 Y1.6881 
G01 X-2.7728 Y1.6897 
G01 X-2.7715 Y1.6910 
G01 X-2.4897 Y1.9728 
G01 X-2.4881 Y1.9735 
G01 X-1.3892 Y1.9735 
G01 X-1.3866 Y1.9735 
G01 X-1.3838 Y1.9735 
G01 X-1.0668 Y1.9735 
G01 X-1.0619 Y1.9735 
G01 X-1.0603 Y1.9728 
G01 X-1.0590 Y1.9715 
G01 X-1.0569 Y1.9694 
G01 X-1.0531 Y1.9656 
G01 X-0.4151 Y1.3276 
G01 X-0.4050 Y1.3176 
G01 X-0.4043 Y1.3159 
G01 X-0.4043 Y1.3141 
G01 X-0.4050 Y1.3125 
G01 X-0.4063 Y1.3112 
G01 X-0.4151 Y1.3024 
G01 X-0.4165 Y1.3010 
G01 X-0.4165 Y1.2550 
G01 X-0.3840 Y1.2225 
G01 X-0.3380 Y1.2225 
G01 X-0.3169 Y1.2436 
G01 X-0.3131 Y1.2474 
G01 X-0.3097 Y1.2508 
G01 X-0.3080 Y1.2515 
G01 X-0.3032 Y1.2515 
G01 X-0.2801 Y1.2515 
G01 X-0.2753 Y1.2515 
G01 X-0.2736 Y1.2508 
G01 X-0.2724 Y1.2495 
G01 X-0.2713 Y1.2485 
G01 X-0.2287 Y1.2485 
G01 X-0.2134 Y1.2638 
G01 X-0.2096 Y1.2676 
G01 X-0.1985 Y1.2787 
G01 X-0.1985 Y1.3213 
G01 X-0.2287 Y1.3515 
G01 X-0.2608 Y1.3515 
G01 X-0.2713 Y1.3515 
G01 X-0.3011 Y1.3217 
G01 X-0.3015 Y1.3213 
G01 X-0.3015 Y1.3081 
G01 X-0.3022 Y1.3065 
G01 X-0.3035 Y1.3052 
G01 X-0.3051 Y1.3045 
G01 X-0.3080 Y1.3045 
G01 X-0.3097 Y1.3052 
G01 X-0.3110 Y1.3065 
G01 X-0.3263 Y1.3217 
G01 X-0.3301 Y1.3256 
G01 X-0.3380 Y1.3335 
G01 X-0.3402 Y1.3335 
G01 X-0.3451 Y1.3335 
G01 X-0.3467 Y1.3342 
G01 X-0.3480 Y1.3355 
G01 X-0.3501 Y1.3376 
G01 X-0.3539 Y1.3414 
G01 X-1.0266 Y2.0140 
G01 X-1.0350 Y2.0225 
G01 X-1.0447 Y2.0265 
G01 X-1.5017 Y2.0265 
G01 X-2.5053 Y2.0265 
G01 X-2.5150 Y2.0225 
G01 X-2.8150 Y1.7225 
G01 X-2.8225 Y1.7150 
G01 X-2.8265 Y1.7053 
G01 X-2.8265 Y1.6223 
G01 X-2.8272 Y1.6206 
G01 X-2.8285 Y1.6194 
G01 X-2.8515 Y1.5963 
G01 X-2.8515 Y1.5537 
G01 X-2.8326 Y1.5348 
G01 X-2.8317 Y1.5339 
G01 X-2.8314 Y1.5335 
G01 X-2.8307 Y1.5319 
G01 X-2.8307 Y1.5301 
G01 X-2.8314 Y1.5285 
G01 X-2.8326 Y1.5272 
G01 X-2.8343 Y1.5265 
G01 X-3.3970 Y1.5265 
G01 X-3.3987 Y1.5272 
G01 X-3.4000 Y1.5285 
G01 X-3.4270 Y1.5555 
G01 X-3.4730 Y1.5555 
G01 X-3.4962 Y1.5323 
G01 X-3.4970 Y1.5314 
G01 X-3.4975 Y1.5310 
G01 X-3.4991 Y1.5304 
G01 X-3.5009 Y1.5304 
G01 X-3.5025 Y1.5310 
G01 X-3.5038 Y1.5323 
G01 X-3.5270 Y1.5555 
G01 X-3.5730 Y1.5555 
G01 X-3.5962 Y1.5323 
G01 X-3.5970 Y1.5314 
G01 X-3.5975 Y1.5310 
G01 X-3.5991 Y1.5304 
G01 X-3.6009 Y1.5304 
G01 X-3.6025 Y1.5310 
G01 X-3.6038 Y1.5323 
G01 X-3.6228 Y1.5513 
G01 X-3.6235 Y1.5530 
G01 X-3.6235 Y1.6881 
G01 X-3.6228 Y1.6897 
G01 X-3.6219 Y1.6906 
G01 X-3.5660 Y1.7465 
G01 X-3.5656 Y1.7469 
G01 X-3.5647 Y1.7478 
G01 X-3.5631 Y1.7485 
G01 X-3.5287 Y1.7485 
G01 X-3.4985 Y1.7787 
G01 X-3.4985 Y1.8213 
G01 X-3.5287 Y1.8515 
G01 X-3.5713 Y1.8515 
G01 X-3.6015 Y1.8213 
G01 X-3.6015 Y1.7869 
G01 X-3.6022 Y1.7853 
G01 X-3.6650 Y1.7225 
G01 X-3.6725 Y1.7150 
G01 X-3.6765 Y1.7053 
G01 X-3.6765 Y1.6239 
G01 X-3.6769 Y1.6230 
G01 X-3.6772 Y1.6223 
G01 X-3.6785 Y1.6210 
G01 X-3.6794 Y1.6206 
G01 X-3.6801 Y1.6203 
G01 X-3.6819 Y1.6203 
G01 X-3.6829 Y1.6207 
G01 X-3.6835 Y1.6210 
G01 X-3.6848 Y1.6223 
G01 X-3.6850 Y1.6225 
G01 X-3.6947 Y1.6265 
G01 X-3.8470 Y1.6265 
G01 X-3.8487 Y1.6272 
G01 X-3.8500 Y1.6285 
G01 X-3.8690 Y1.6475 
G01 X-3.8696 Y1.6491 
G01 X-3.8696 Y1.6509 
G01 X-3.8690 Y1.6525 
G01 X-3.8677 Y1.6538 
G01 X-3.8445 Y1.6770 
G01 X-3.8445 Y1.7230 
G01 X-3.8690 Y1.7475 
G01 X-3.8696 Y1.7491 
G01 X-3.8696 Y1.7509 
G01 X-3.8690 Y1.7525 
G01 X-3.8677 Y1.7538 
G01 X-3.8487 Y1.7728 
G01 X-3.8470 Y1.7735 
G01 X-3.6947 Y1.7735 
G01 X-3.6850 Y1.7775 
G01 X-3.6763 Y1.7863 
G01 X-3.4272 Y2.0353 
G01 X-3.4256 Y2.0360 
G01 X-1.5447 Y2.0360 
G01 X-1.5350 Y2.0400 
G01 X-1.5263 Y2.0488 
G01 X-1.5154 Y2.0596 
G01 X-1.5116 Y2.0634 
G01 X-0.6275 Y2.9475 
G01 X-0.6252 Y2.9531 
G01 X-0.6239 Y2.9544 
G01 X-0.6223 Y2.9551 
G01 X-0.6173 Y2.9551 
G01 X-0.6027 Y2.9696 
G00 Z0.1000 
G00 X-3.4525 Y0.7940 
G01 Z-0.0070 F10.00 
G01 X-3.4509 Y0.7946 F20.00 
G01 X-3.4491 Y0.7946 
G01 X-3.4475 Y0.7940 
G01 X-3.4462 Y0.7927 
G01 X-3.4285 Y0.7750 
G01 X-3.4272 Y0.7737 
G01 X-3.4265 Y0.7720 
G01 X-3.4265 Y0.7697 
G01 X-3.4225 Y0.7600 
G01 X-3.4147 Y0.7522 
G01 X-3.3973 Y0.7348 
G01 X-3.3963 Y0.7338 
G01 X-3.3960 Y0.7335 
G01 X-3.3953 Y0.7319 
G01 X-3.3953 Y0.7301 
G01 X-3.3960 Y0.7285 
G01 X-3.3973 Y0.7272 
G01 X-3.3989 Y0.7265 
G01 X-3.4381 Y0.7265 
G01 X-3.4397 Y0.7272 
G01 X-3.4410 Y0.7285 
G01 X-3.4728 Y0.7603 
G01 X-3.4735 Y0.7619 
G01 X-3.4735 Y0.7720 
G01 X-3.4728 Y0.7737 
G01 X-3.4715 Y0.7750 
G01 X-3.4525 Y0.7940 
G00 Z0.1000 
G00 X-3.8470 Y2.6265 
G01 Z-0.0070 F10.00 
G01 X-3.8487 Y2.6272 F20.00 
G01 X-3.8500 Y2.6285 
G01 X-3.8677 Y2.6462 
G01 X-3.8690 Y2.6475 
G01 X-3.8696 Y2.6491 
G01 X-3.8696 Y2.6509 
G01 X-3.8690 Y2.6525 
G01 X-3.8487 Y2.6728 
G01 X-3.8470 Y2.6735 
G01 X-3.6947 Y2.6735 
G01 X-3.6850 Y2.6775 
G01 X-3.6763 Y2.6863 
G01 X-3.6647 Y2.6978 
G01 X-3.6631 Y2.6985 
G01 X-1.7947 Y2.6985 
G01 X-1.7850 Y2.7025 
G01 X-1.7775 Y2.7100 
G01 X-1.7763 Y2.7113 
G01 X-1.5350 Y2.9525 
G01 X-1.5332 Y2.9544 
G01 X-1.5315 Y2.9551 
G01 X-1.5174 Y2.9551 
G01 X-1.5157 Y2.9544 
G01 X-1.5145 Y2.9531 
G01 X-1.5138 Y2.9514 
G01 X-1.5138 Y2.9497 
G01 X-1.5145 Y2.9480 
G01 X-1.5157 Y2.9467 
G01 X-1.7853 Y2.6772 
G01 X-1.7869 Y2.6765 
G01 X-3.6553 Y2.6765 
G01 X-3.6650 Y2.6725 
G01 X-3.7103 Y2.6272 
G01 X-3.7119 Y2.6265 
G01 X-3.7137 Y2.6265 
G01 X-3.8470 Y2.6265 
G00 Z0.1000 
G00 X-1.2332 Y2.9544 
G01 Z-0.0070 F10.00 
G01 X-1.2315 Y2.9551 F20.00 
G01 X-1.2174 Y2.9551 
G01 X-1.2157 Y2.9544 
G01 X-1.2145 Y2.9531 
G01 X-1.2138 Y2.9514 
G01 X-1.2138 Y2.9497 
G01 X-1.2145 Y2.9480 
G01 X-1.2157 Y2.9467 
G01 X-1.7103 Y2.4522 
G01 X-1.7119 Y2.4515 
G01 X-3.5803 Y2.4515 
G01 X-3.5900 Y2.4475 
G01 X-3.5987 Y2.4387 
G01 X-3.7103 Y2.3272 
G01 X-3.7119 Y2.3265 
G01 X-3.8470 Y2.3265 
G01 X-3.8487 Y2.3272 
G01 X-3.8500 Y2.3285 
G01 X-3.8690 Y2.3475 
G01 X-3.8696 Y2.3491 
G01 X-3.8696 Y2.3509 
G01 X-3.8690 Y2.3525 
G01 X-3.8677 Y2.3538 
G01 X-3.8487 Y2.3728 
G01 X-3.8470 Y2.3735 
G01 X-3.6947 Y2.3735 
G01 X-3.6850 Y2.3775 
G01 X-3.6763 Y2.3863 
G01 X-3.5897 Y2.4728 
G01 X-3.5881 Y2.4735 
G01 X-1.7197 Y2.4735 
G01 X-1.7100 Y2.4775 
G01 X-1.7013 Y2.4863 
G01 X-1.2332 Y2.9544 
G00 Z0.1000 
G00 X-3.8470 Y2.1265 
G01 Z-0.0070 F10.00 
G01 X-3.8487 Y2.1272 F20.00 
G01 X-3.8500 Y2.1285 
G01 X-3.8690 Y2.1475 
G01 X-3.8696 Y2.1491 
G01 X-3.8696 Y2.1509 
G01 X-3.8690 Y2.1525 
G01 X-3.8677 Y2.1538 
G01 X-3.8487 Y2.1728 
G01 X-3.8470 Y2.1735 
G01 X-3.6947 Y2.1735 
G01 X-3.6850 Y2.1775 
G01 X-3.6763 Y2.1863 
G01 X-3.5397 Y2.3228 
G01 X-3.5381 Y2.3235 
G01 X-1.6697 Y2.3235 
G01 X-1.6600 Y2.3275 
G01 X-1.6513 Y2.3363 
G01 X-1.0332 Y2.9544 
G01 X-1.0315 Y2.9551 
G01 X-1.0174 Y2.9551 
G01 X-1.0157 Y2.9544 
G01 X-1.0145 Y2.9531 
G01 X-1.0138 Y2.9514 
G01 X-1.0138 Y2.9497 
G01 X-1.0145 Y2.9480 
G01 X-1.0157 Y2.9467 
G01 X-1.6603 Y2.3022 
G01 X-1.6619 Y2.3015 
G01 X-3.5303 Y2.3015 
G01 X-3.5400 Y2.2975 
G01 X-3.7103 Y2.1272 
G01 X-3.7119 Y2.1265 
G01 X-3.7137 Y2.1265 
G01 X-3.8470 Y2.1265 
G00 Z0.1000 
G00 X-3.8470 Y1.9265 
G01 Z-0.0070 F10.00 
G01 X-3.8487 Y1.9272 F20.00 
G01 X-3.8500 Y1.9285 
G01 X-3.8690 Y1.9475 
G01 X-3.8696 Y1.9491 
G01 X-3.8696 Y1.9509 
G01 X-3.8690 Y1.9525 
G01 X-3.8677 Y1.9538 
G01 X-3.8487 Y1.9728 
G01 X-3.8470 Y1.9735 
G01 X-3.6947 Y1.9735 
G01 X-3.6850 Y1.9775 
G01 X-3.6775 Y1.9850 
G01 X-3.4897 Y2.1728 
G01 X-3.4881 Y2.1735 
G01 X-1.6197 Y2.1735 
G01 X-1.6100 Y2.1775 
G01 X-1.6013 Y2.1863 
G01 X-0.8332 Y2.9544 
G01 X-0.8315 Y2.9551 
G01 X-0.8174 Y2.9551 
G01 X-0.8157 Y2.9544 
G01 X-0.8145 Y2.9531 
G01 X-0.8138 Y2.9514 
G01 X-0.8138 Y2.9497 
G01 X-0.8145 Y2.9480 
G01 X-0.8157 Y2.9467 
G01 X-1.6103 Y2.1522 
G01 X-1.6119 Y2.1515 
G01 X-3.4803 Y2.1515 
G01 X-3.4900 Y2.1475 
G01 X-3.7103 Y1.9272 
G01 X-3.7119 Y1.9265 
G01 X-3.7137 Y1.9265 
G01 X-3.8470 Y1.9265 
G00 Z0.1000 
G00 X-0.4985 Y2.7157 
G01 Z-0.0070 F10.00 
G01 X-0.4978 Y2.7174 F20.00 
G01 X-0.4965 Y2.7186 
G01 X-0.4949 Y2.7193 
G01 X-0.4931 Y2.7193 
G01 X-0.4915 Y2.7186 
G01 X-0.4902 Y2.7174 
G01 X-0.4754 Y2.7025 
G01 X-0.4747 Y2.7009 
G01 X-0.4747 Y2.6991 
G01 X-0.4754 Y2.6975 
G01 X-0.4766 Y2.6962 
G01 X-0.4889 Y2.6840 
G01 X-0.4901 Y2.6827 
G01 X-0.4918 Y2.6820 
G01 X-0.4936 Y2.6820 
G01 X-0.4952 Y2.6827 
G01 X-0.4978 Y2.6853 
G01 X-0.4985 Y2.6869 
G01 X-0.4985 Y2.6887 
G01 X-0.4985 Y2.7157 
G00 Z0.1000 
G00 X-0.4902 Y2.7826 
G01 Z-0.0070 F10.00 
G01 X-0.4911 Y2.7817 F20.00 
G01 X-0.4915 Y2.7814 
G01 X-0.4931 Y2.7807 
G01 X-0.4949 Y2.7807 
G01 X-0.4965 Y2.7814 
G01 X-0.4978 Y2.7826 
G01 X-0.4985 Y2.7843 
G01 X-0.4985 Y2.9729 
G01 X-0.4978 Y2.9745 
G01 X-0.4965 Y2.9758 
G01 X-0.4927 Y2.9796 
G01 X-0.4911 Y2.9803 
G01 X-0.4893 Y2.9803 
G01 X-0.4876 Y2.9796 
G01 X-0.4863 Y2.9784 
G01 X-0.4673 Y2.9594 
G01 X-0.4667 Y2.9577 
G01 X-0.4667 Y2.8051 
G01 X-0.4673 Y2.8035 
G01 X-0.4686 Y2.8022 
G01 X-0.4703 Y2.8015 
G01 X-0.4713 Y2.8015 
G01 X-0.4902 Y2.7826 
G00 Z0.1000 
G00 X-3.8470 Y2.2265 
G01 Z-0.0070 F10.00 
G01 X-3.8487 Y2.2272 F20.00 
G01 X-3.8500 Y2.2285 
G01 X-3.8690 Y2.2475 
G01 X-3.8696 Y2.2491 
G01 X-3.8696 Y2.2509 
G01 X-3.8690 Y2.2525 
G01 X-3.8677 Y2.2538 
G01 X-3.8487 Y2.2728 
G01 X-3.8470 Y2.2735 
G01 X-3.6947 Y2.2735 
G01 X-3.6850 Y2.2775 
G01 X-3.5647 Y2.3978 
G01 X-3.5631 Y2.3985 
G01 X-1.6947 Y2.3985 
G01 X-1.6850 Y2.4025 
G01 X-1.1350 Y2.9525 
G01 X-1.1332 Y2.9544 
G01 X-1.1315 Y2.9551 
G01 X-1.1174 Y2.9551 
G01 X-1.1157 Y2.9544 
G01 X-1.1145 Y2.9531 
G01 X-1.1138 Y2.9514 
G01 X-1.1138 Y2.9497 
G01 X-1.1145 Y2.9480 
G01 X-1.1157 Y2.9467 
G01 X-1.6853 Y2.3772 
G01 X-1.6869 Y2.3765 
G01 X-3.5553 Y2.3765 
G01 X-3.5650 Y2.3725 
G01 X-3.7103 Y2.2272 
G01 X-3.7119 Y2.2265 
G01 X-3.7137 Y2.2265 
G01 X-3.8470 Y2.2265 
G00 Z0.1000 
G00 X-3.8470 Y2.5265 
G01 Z-0.0070 F10.00 
G01 X-3.8487 Y2.5272 F20.00 
G01 X-3.8500 Y2.5285 
G01 X-3.8677 Y2.5462 
G01 X-3.8690 Y2.5475 
G01 X-3.8696 Y2.5491 
G01 X-3.8696 Y2.5509 
G01 X-3.8690 Y2.5525 
G01 X-3.8487 Y2.5728 
G01 X-3.8470 Y2.5735 
G01 X-3.6947 Y2.5735 
G01 X-3.6850 Y2.5775 
G01 X-3.6763 Y2.5863 
G01 X-3.6397 Y2.6228 
G01 X-3.6381 Y2.6235 
G01 X-1.7697 Y2.6235 
G01 X-1.7600 Y2.6275 
G01 X-1.7513 Y2.6363 
G01 X-1.4332 Y2.9544 
G01 X-1.4315 Y2.9551 
G01 X-1.4174 Y2.9551 
G01 X-1.4157 Y2.9544 
G01 X-1.4145 Y2.9531 
G01 X-1.4138 Y2.9514 
G01 X-1.4138 Y2.9497 
G01 X-1.4145 Y2.9480 
G01 X-1.4157 Y2.9467 
G01 X-1.7603 Y2.6022 
G01 X-1.7619 Y2.6015 
G01 X-3.6303 Y2.6015 
G01 X-3.6400 Y2.5975 
G01 X-3.7103 Y2.5272 
G01 X-3.7119 Y2.5265 
G01 X-3.7137 Y2.5265 
G01 X-3.8470 Y2.5265 
G00 Z0.1000 
G00 X-3.8470 Y2.7265 
G01 Z-0.0070 F10.00 
G01 X-3.8487 Y2.7272 F20.00 
G01 X-3.8500 Y2.7285 
G01 X-3.8690 Y2.7475 
G01 X-3.8696 Y2.7491 
G01 X-3.8696 Y2.7509 
G01 X-3.8690 Y2.7525 
G01 X-3.8677 Y2.7538 
G01 X-3.8487 Y2.7728 
G01 X-3.8470 Y2.7735 
G01 X-1.8197 Y2.7735 
G01 X-1.8100 Y2.7775 
G01 X-1.8013 Y2.7863 
G01 X-1.6332 Y2.9544 
G01 X-1.6315 Y2.9551 
G01 X-1.6174 Y2.9551 
G01 X-1.6157 Y2.9544 
G01 X-1.6145 Y2.9531 
G01 X-1.6138 Y2.9514 
G01 X-1.6138 Y2.9497 
G01 X-1.6145 Y2.9480 
G01 X-1.6157 Y2.9467 
G01 X-1.8103 Y2.7522 
G01 X-1.8119 Y2.7515 
G01 X-3.6803 Y2.7515 
G01 X-3.6900 Y2.7475 
G01 X-3.7103 Y2.7272 
G01 X-3.7119 Y2.7265 
G01 X-3.7137 Y2.7265 
G01 X-3.8470 Y2.7265 
G00 Z0.1000 
G00 X-2.2452 Y1.5423 
G01 Z-0.0070 F10.00 
G01 X-2.2465 Y1.5410 F20.00 
G01 X-2.2465 Y1.5410 
G01 X-2.3090 Y1.4785 
G01 X-2.3103 Y1.4772 
G01 X-2.3119 Y1.4765 
G01 X-2.3261 Y1.4765 
G01 X-2.3270 Y1.4769 
G01 X-2.3277 Y1.4772 
G01 X-2.3290 Y1.4785 
G01 X-2.3294 Y1.4794 
G01 X-2.3297 Y1.4801 
G01 X-2.3297 Y1.4819 
G01 X-2.3293 Y1.4829 
G01 X-2.3290 Y1.4835 
G01 X-2.3277 Y1.4848 
G01 X-2.3263 Y1.4863 
G01 X-2.2897 Y1.5228 
G01 X-2.2881 Y1.5235 
G01 X-2.2787 Y1.5235 
G01 X-2.2525 Y1.5496 
G01 X-2.2517 Y1.5500 
G01 X-2.2509 Y1.5503 
G01 X-2.2491 Y1.5503 
G01 X-2.2477 Y1.5497 
G01 X-2.2475 Y1.5496 
G01 X-2.2465 Y1.5486 
G01 X-2.2452 Y1.5474 
G01 X-2.2449 Y1.5466 
G01 X-2.2445 Y1.5457 
G01 X-2.2445 Y1.5439 
G01 X-2.2451 Y1.5426 
G01 X-2.2452 Y1.5423 
G00 Z0.1000 
G00 X-2.6569 Y0.9038 
G01 Z-0.0070 F10.00 
G01 X-2.6559 Y0.9028 F20.00 
G01 X-2.6556 Y0.9025 
G01 X-2.6549 Y0.9009 
G01 X-2.6549 Y0.8991 
G01 X-2.6556 Y0.8975 
G01 X-2.6569 Y0.8962 
G01 X-2.6725 Y0.8806 
G01 X-2.6741 Y0.8799 
G01 X-2.6759 Y0.8799 
G01 X-2.6775 Y0.8806 
G01 X-2.6788 Y0.8819 
G01 X-2.6944 Y0.8975 
G01 X-2.6951 Y0.8991 
G01 X-2.6951 Y0.9009 
G01 X-2.6944 Y0.9025 
G01 X-2.6931 Y0.9038 
G01 X-2.6788 Y0.9181 
G01 X-2.6775 Y0.9194 
G01 X-2.6759 Y0.9201 
G01 X-2.6741 Y0.9201 
G01 X-2.6725 Y0.9194 
G01 X-2.6569 Y0.9038 
G00 Z0.1000 
G00 X-2.7569 Y0.9038 
G01 Z-0.0070 F10.00 
G01 X-2.7559 Y0.9028 F20.00 
G01 X-2.7556 Y0.9025 
G01 X-2.7549 Y0.9009 
G01 X-2.7549 Y0.8991 
G01 X-2.7556 Y0.8975 
G01 X-2.7569 Y0.8962 
G01 X-2.7725 Y0.8806 
G01 X-2.7741 Y0.8799 
G01 X-2.7759 Y0.8799 
G01 X-2.7775 Y0.8806 
G01 X-2.7788 Y0.8819 
G01 X-2.7944 Y0.8975 
G01 X-2.7951 Y0.8991 
G01 X-2.7951 Y0.9009 
G01 X-2.7944 Y0.9025 
G01 X-2.7931 Y0.9038 
G01 X-2.7788 Y0.9181 
G01 X-2.7775 Y0.9194 
G01 X-2.7759 Y0.9201 
G01 X-2.7741 Y0.9201 
G01 X-2.7725 Y0.9194 
G01 X-2.7569 Y0.9038 
G00 Z0.1000 
G00 X-3.8728 Y1.1603 
G01 Z-0.0070 F10.00 
G01 X-3.8735 Y1.1619 F20.00 
G01 X-3.8735 Y1.2626 
G01 X-3.8735 Y1.3482 
G01 X-3.8735 Y1.3531 
G01 X-3.8728 Y1.3547 
G01 X-3.8715 Y1.3560 
G01 X-3.8694 Y1.3581 
G01 X-3.8656 Y1.3619 
G01 X-3.8488 Y1.3788 
G01 X-3.8488 Y1.4212 
G01 X-3.8652 Y1.4377 
G01 X-3.8690 Y1.4415 
G01 X-3.8707 Y1.4432 
G01 X-3.8716 Y1.4441 
G01 X-3.8720 Y1.4444 
G01 X-3.8727 Y1.4461 
G01 X-3.8727 Y1.4479 
G01 X-3.8724 Y1.4486 
G01 X-3.8731 Y1.4514 
G01 X-3.8731 Y1.4568 
G01 X-3.8717 Y1.4620 
G01 X-3.8690 Y1.4667 
G01 X-3.8562 Y1.4795 
G01 X-3.8576 Y1.4795 
G01 X-3.8816 Y1.4555 
G01 X-3.9184 Y1.4555 
G01 X-3.9445 Y1.4816 
G01 X-3.9445 Y1.5184 
G01 X-3.9184 Y1.5445 
G01 X-3.8816 Y1.5445 
G01 X-3.8576 Y1.5205 
G01 X-3.8562 Y1.5205 
G01 X-3.8622 Y1.5265 
G01 X-3.8659 Y1.5303 
G01 X-3.8667 Y1.5316 
G01 X-3.8687 Y1.5350 
G01 X-3.8701 Y1.5402 
G01 X-3.8701 Y1.5456 
G01 X-3.8694 Y1.5484 
G01 X-3.8696 Y1.5491 
G01 X-3.8696 Y1.5509 
G01 X-3.8690 Y1.5525 
G01 X-3.8677 Y1.5538 
G01 X-3.8660 Y1.5555 
G01 X-3.8559 Y1.5656 
G01 X-3.8521 Y1.5694 
G01 X-3.8487 Y1.5728 
G01 X-3.8470 Y1.5735 
G01 X-3.8422 Y1.5735 
G01 X-3.7876 Y1.5735 
G01 X-3.7119 Y1.5735 
G01 X-3.7103 Y1.5728 
G01 X-3.7099 Y1.5724 
G01 X-3.6868 Y1.5493 
G01 X-3.6859 Y1.5484 
G01 X-3.6855 Y1.5481 
G01 X-3.6848 Y1.5464 
G01 X-3.6848 Y1.5446 
G01 X-3.6855 Y1.5430 
G01 X-3.6868 Y1.5417 
G01 X-3.6975 Y1.5310 
G01 X-3.6991 Y1.5304 
G01 X-3.7009 Y1.5304 
G01 X-3.7025 Y1.5310 
G01 X-3.7038 Y1.5323 
G01 X-3.7270 Y1.5555 
G01 X-3.7698 Y1.5555 
G01 X-3.7698 Y1.5503 
G01 X-3.7712 Y1.5453 
G01 X-3.7712 Y1.5451 
G01 X-3.7739 Y1.5404 
G01 X-3.7778 Y1.5366 
G01 X-3.7938 Y1.5205 
G01 X-3.7924 Y1.5205 
G01 X-3.7684 Y1.5445 
G01 X-3.7316 Y1.5445 
G01 X-3.7055 Y1.5184 
G01 X-3.7055 Y1.4816 
G01 X-3.7295 Y1.4576 
G01 X-3.7295 Y1.4562 
G01 X-3.7235 Y1.4622 
G01 X-3.7197 Y1.4660 
G01 X-3.7167 Y1.4677 
G01 X-3.7150 Y1.4687 
G01 X-3.7098 Y1.4701 
G01 X-3.7044 Y1.4701 
G01 X-3.7042 Y1.4700 
G01 X-3.7016 Y1.4694 
G01 X-3.7009 Y1.4696 
G01 X-3.6991 Y1.4696 
G01 X-3.6975 Y1.4690 
G01 X-3.6962 Y1.4677 
G01 X-3.6945 Y1.4660 
G01 X-3.6881 Y1.4596 
G01 X-3.6780 Y1.4495 
G01 X-3.6773 Y1.4479 
G01 X-3.6773 Y1.4461 
G01 X-3.6780 Y1.4444 
G01 X-3.6793 Y1.4432 
G01 X-3.6881 Y1.4344 
G01 X-3.6919 Y1.4306 
G01 X-3.7012 Y1.4212 
G01 X-3.7012 Y1.3868 
G01 X-3.7012 Y1.3841 
G01 X-3.7012 Y1.3814 
G01 X-3.7012 Y1.3788 
G01 X-3.6757 Y1.3532 
G01 X-3.6718 Y1.3494 
G01 X-3.6712 Y1.3488 
G01 X-3.6288 Y1.3488 
G01 X-3.6126 Y1.3649 
G01 X-3.6025 Y1.3750 
G01 X-3.6009 Y1.3757 
G01 X-3.5991 Y1.3757 
G01 X-3.5975 Y1.3750 
G01 X-3.5962 Y1.3737 
G01 X-3.5874 Y1.3649 
G01 X-3.5836 Y1.3611 
G01 X-3.5806 Y1.3581 
G01 X-3.5772 Y1.3547 
G01 X-3.5765 Y1.3531 
G01 X-3.5765 Y1.3482 
G01 X-3.5765 Y1.3447 
G01 X-3.5725 Y1.3350 
G01 X-3.5369 Y1.2994 
G01 X-3.5331 Y1.2956 
G01 X-3.5272 Y1.2897 
G01 X-3.5265 Y1.2881 
G01 X-3.5265 Y1.2780 
G01 X-3.5272 Y1.2763 
G01 X-3.5285 Y1.2750 
G01 X-3.5331 Y1.2704 
G01 X-3.5374 Y1.2661 
G01 X-3.5475 Y1.2560 
G01 X-3.5491 Y1.2554 
G01 X-3.5509 Y1.2554 
G01 X-3.5525 Y1.2560 
G01 X-3.5538 Y1.2573 
G01 X-3.5626 Y1.2661 
G01 X-3.5664 Y1.2699 
G01 X-3.5770 Y1.2805 
G01 X-3.6230 Y1.2805 
G01 X-3.6374 Y1.2661 
G01 X-3.6475 Y1.2560 
G01 X-3.6491 Y1.2554 
G01 X-3.6509 Y1.2554 
G01 X-3.6525 Y1.2560 
G01 X-3.6538 Y1.2573 
G01 X-3.6626 Y1.2661 
G01 X-3.6664 Y1.2699 
G01 X-3.6770 Y1.2805 
G01 X-3.6910 Y1.2805 
G01 X-3.7121 Y1.2805 
G01 X-3.7137 Y1.2812 
G01 X-3.7150 Y1.2825 
G01 X-3.7157 Y1.2841 
G01 X-3.7157 Y1.2859 
G01 X-3.7150 Y1.2875 
G01 X-3.7137 Y1.2888 
G01 X-3.7078 Y1.2947 
G01 X-3.7088 Y1.2983 
G01 X-3.7088 Y1.3045 
G01 X-3.7136 Y1.3045 
G01 X-3.7333 Y1.2848 
G01 X-3.7667 Y1.2848 
G01 X-3.7765 Y1.2945 
G01 X-3.7795 Y1.2915 
G01 X-3.7795 Y1.2674 
G01 X-3.7555 Y1.2434 
G01 X-3.7555 Y1.2066 
G01 X-3.7816 Y1.1805 
G01 X-3.8184 Y1.1805 
G01 X-3.8445 Y1.2066 
G01 X-3.8445 Y1.2434 
G01 X-3.8205 Y1.2674 
G01 X-3.8205 Y1.2688 
G01 X-3.8366 Y1.2528 
G01 X-3.8404 Y1.2489 
G01 X-3.8450 Y1.2463 
G01 X-3.8503 Y1.2448 
G01 X-3.8555 Y1.2448 
G01 X-3.8555 Y1.2020 
G01 X-3.8230 Y1.1695 
G01 X-3.7770 Y1.1695 
G01 X-3.7538 Y1.1927 
G01 X-3.7530 Y1.1936 
G01 X-3.7525 Y1.1940 
G01 X-3.7509 Y1.1946 
G01 X-3.7491 Y1.1946 
G01 X-3.7475 Y1.1940 
G01 X-3.7462 Y1.1927 
G01 X-3.7230 Y1.1695 
G01 X-3.6770 Y1.1695 
G01 X-3.6538 Y1.1927 
G01 X-3.6530 Y1.1936 
G01 X-3.6525 Y1.1940 
G01 X-3.6509 Y1.1946 
G01 X-3.6491 Y1.1946 
G01 X-3.6475 Y1.1940 
G01 X-3.6462 Y1.1927 
G01 X-3.6230 Y1.1695 
G01 X-3.5770 Y1.1695 
G01 X-3.5538 Y1.1927 
G01 X-3.5530 Y1.1936 
G01 X-3.5525 Y1.1940 
G01 X-3.5509 Y1.1946 
G01 X-3.5491 Y1.1946 
G01 X-3.5475 Y1.1940 
G01 X-3.5462 Y1.1927 
G01 X-3.5230 Y1.1695 
G01 X-3.4770 Y1.1695 
G01 X-3.4538 Y1.1927 
G01 X-3.4530 Y1.1936 
G01 X-3.4525 Y1.1940 
G01 X-3.4509 Y1.1946 
G01 X-3.4491 Y1.1946 
G01 X-3.4475 Y1.1940 
G01 X-3.4462 Y1.1927 
G01 X-3.4230 Y1.1695 
G01 X-3.3779 Y1.1695 
G01 X-3.3763 Y1.1688 
G01 X-3.3750 Y1.1675 
G01 X-3.3743 Y1.1659 
G01 X-3.3743 Y1.1641 
G01 X-3.3750 Y1.1625 
G01 X-3.3763 Y1.1612 
G01 X-3.3853 Y1.1522 
G01 X-3.3869 Y1.1515 
G01 X-3.8631 Y1.1515 
G01 X-3.8647 Y1.1522 
G01 X-3.8660 Y1.1535 
G01 X-3.8728 Y1.1603 
G00 Z0.1000 
G00 X-3.6207 Y1.4432 
G01 Z-0.0070 F10.00 
G01 X-3.6217 Y1.4441 F20.00 
G01 X-3.6220 Y1.4444 
G01 X-3.6227 Y1.4461 
G01 X-3.6227 Y1.4479 
G01 X-3.6220 Y1.4495 
G01 X-3.6207 Y1.4508 
G01 X-3.6025 Y1.4690 
G01 X-3.6009 Y1.4696 
G01 X-3.5991 Y1.4696 
G01 X-3.5975 Y1.4690 
G01 X-3.5962 Y1.4677 
G01 X-3.5793 Y1.4508 
G01 X-3.5780 Y1.4495 
G01 X-3.5773 Y1.4479 
G01 X-3.5773 Y1.4461 
G01 X-3.5780 Y1.4444 
G01 X-3.5975 Y1.4250 
G01 X-3.5991 Y1.4243 
G01 X-3.6009 Y1.4243 
G01 X-3.6025 Y1.4250 
G01 X-3.6028 Y1.4253 
G01 X-3.6207 Y1.4432 
G00 Z0.1000 
G00 X-2.0530 Y1.3731 
G01 Z-0.0070 F10.00 
G01 X-2.0530 Y1.3705 F20.00 
G01 X-1.9473 Y1.3705 
G01 X-1.9421 Y1.3691 
G01 X-1.9374 Y1.3664 
G01 X-1.8935 Y1.3225 
G01 X-1.8706 Y1.3225 
G01 X-1.8445 Y1.2964 
G01 X-1.8445 Y1.2735 
G01 X-1.7915 Y1.2205 
G01 X-1.5255 Y1.2205 
G01 X-1.4835 Y1.2625 
G01 X-1.4835 Y1.2964 
G01 X-1.4574 Y1.3225 
G01 X-1.4206 Y1.3225 
G01 X-1.3945 Y1.2964 
G01 X-1.3945 Y1.2735 
G01 X-1.3415 Y1.2205 
G01 X-1.0755 Y1.2205 
G01 X-1.0335 Y1.2625 
G01 X-1.0335 Y1.2964 
G01 X-1.0074 Y1.3225 
G01 X-0.9706 Y1.3225 
G01 X-0.9445 Y1.2964 
G01 X-0.9445 Y1.2625 
G01 X-0.9025 Y1.2205 
G01 X-0.6085 Y1.2205 
G01 X-0.5765 Y1.2525 
G01 X-0.5835 Y1.2596 
G01 X-0.5835 Y1.2964 
G01 X-0.5574 Y1.3225 
G01 X-0.5206 Y1.3225 
G01 X-0.4945 Y1.2964 
G01 X-0.4945 Y1.2596 
G01 X-0.5206 Y1.2335 
G01 X-0.5375 Y1.2335 
G01 X-0.5836 Y1.1874 
G01 X-0.5874 Y1.1836 
G01 X-0.5921 Y1.1809 
G01 X-0.5973 Y1.1795 
G01 X-0.9137 Y1.1795 
G01 X-0.9189 Y1.1809 
G01 X-0.9236 Y1.1836 
G01 X-0.9735 Y1.2335 
G01 X-1.0045 Y1.2335 
G01 X-1.0544 Y1.1836 
G01 X-1.0591 Y1.1809 
G01 X-1.0643 Y1.1795 
G01 X-1.3527 Y1.1795 
G01 X-1.3579 Y1.1809 
G01 X-1.3626 Y1.1836 
G01 X-1.3664 Y1.1874 
G01 X-1.4165 Y1.2375 
G01 X-1.4206 Y1.2335 
G01 X-1.4545 Y1.2335 
G01 X-1.5044 Y1.1836 
G01 X-1.5091 Y1.1809 
G01 X-1.5143 Y1.1795 
G01 X-1.8027 Y1.1795 
G01 X-1.8079 Y1.1809 
G01 X-1.8126 Y1.1836 
G01 X-1.8164 Y1.1874 
G01 X-1.8665 Y1.2375 
G01 X-1.8706 Y1.2335 
G01 X-1.9074 Y1.2335 
G01 X-1.9335 Y1.2596 
G01 X-1.9335 Y1.2964 
G01 X-1.9295 Y1.3005 
G01 X-1.9585 Y1.3295 
G01 X-2.0696 Y1.3295 
G01 X-2.0710 Y1.3281 
G01 X-2.0711 Y1.3279 
G01 X-2.0746 Y1.3265 
G01 X-2.1213 Y1.3265 
G01 X-2.1216 Y1.3262 
G01 X-2.1462 Y1.3016 
G01 X-2.1475 Y1.3004 
G01 X-2.1491 Y1.2997 
G01 X-2.1509 Y1.2997 
G01 X-2.1525 Y1.3004 
G01 X-2.1784 Y1.3262 
G01 X-2.1787 Y1.3265 
G01 X-2.2213 Y1.3265 
G01 X-2.2216 Y1.3262 
G01 X-2.2462 Y1.3016 
G01 X-2.2475 Y1.3004 
G01 X-2.2491 Y1.2997 
G01 X-2.2509 Y1.2997 
G01 X-2.2525 Y1.3004 
G01 X-2.2784 Y1.3262 
G01 X-2.2787 Y1.3265 
G01 X-2.3213 Y1.3265 
G01 X-2.3312 Y1.3166 
G01 X-2.3322 Y1.3156 
G01 X-2.3325 Y1.3154 
G01 X-2.3341 Y1.3147 
G01 X-2.3359 Y1.3147 
G01 X-2.3375 Y1.3154 
G01 X-2.3388 Y1.3166 
G01 X-2.3395 Y1.3183 
G01 X-2.3395 Y1.3386 
G01 X-2.3455 Y1.3446 
G01 X-2.3455 Y1.3241 
G01 X-2.3462 Y1.3225 
G01 X-2.3475 Y1.3212 
G01 X-2.3491 Y1.3205 
G01 X-2.3509 Y1.3205 
G01 X-2.3525 Y1.3212 
G01 X-2.3538 Y1.3225 
G01 X-2.3545 Y1.3241 
G01 X-2.3545 Y1.4259 
G01 X-2.3538 Y1.4275 
G01 X-2.3525 Y1.4288 
G01 X-2.3509 Y1.4295 
G01 X-2.3491 Y1.4295 
G01 X-2.3475 Y1.4288 
G01 X-2.3462 Y1.4275 
G01 X-2.3455 Y1.4259 
G01 X-2.3455 Y1.3804 
G01 X-2.3429 Y1.3831 
G01 X-2.3395 Y1.3845 
G01 X-2.3395 Y1.4199 
G01 X-2.3388 Y1.4215 
G01 X-2.3375 Y1.4228 
G01 X-2.3359 Y1.4235 
G01 X-2.2947 Y1.4235 
G01 X-2.2850 Y1.4275 
G01 X-2.2763 Y1.4363 
G01 X-2.1897 Y1.5228 
G01 X-2.1881 Y1.5235 
G01 X-2.1787 Y1.5235 
G01 X-2.1538 Y1.5484 
G01 X-2.1530 Y1.5492 
G01 X-2.1525 Y1.5496 
G01 X-2.1509 Y1.5503 
G01 X-2.1491 Y1.5503 
G01 X-2.1475 Y1.5496 
G01 X-2.1471 Y1.5493 
G01 X-2.1285 Y1.5306 
G01 X-2.1275 Y1.5297 
G01 X-2.1272 Y1.5294 
G01 X-2.1265 Y1.5277 
G01 X-2.1265 Y1.3845 
G01 X-2.1205 Y1.3845 
G01 X-2.1205 Y1.5382 
G01 X-2.1405 Y1.5582 
G01 X-2.1405 Y1.5918 
G01 X-2.1205 Y1.6118 
G01 X-2.1205 Y1.6382 
G01 X-2.1405 Y1.6582 
G01 X-2.1405 Y1.6918 
G01 X-2.1168 Y1.7155 
G01 X-2.0832 Y1.7155 
G01 X-2.0595 Y1.6918 
G01 X-2.0595 Y1.6582 
G01 X-2.0795 Y1.6382 
G01 X-2.0795 Y1.6118 
G01 X-2.0595 Y1.5918 
G01 X-2.0595 Y1.5582 
G01 X-2.0795 Y1.5382 
G01 X-2.0795 Y1.3845 
G01 X-2.0735 Y1.3845 
G01 X-2.0735 Y1.5277 
G01 X-2.0728 Y1.5294 
G01 X-2.0715 Y1.5306 
G01 X-2.0485 Y1.5537 
G01 X-2.0485 Y1.5963 
G01 X-2.0715 Y1.6194 
G01 X-2.0724 Y1.6202 
G01 X-2.0728 Y1.6206 
G01 X-2.0735 Y1.6223 
G01 X-2.0735 Y1.6277 
G01 X-2.0728 Y1.6294 
G01 X-2.0715 Y1.6306 
G01 X-2.0485 Y1.6537 
G01 X-2.0485 Y1.6963 
G01 X-2.0787 Y1.7265 
G01 X-2.1213 Y1.7265 
G01 X-2.1515 Y1.6963 
G01 X-2.1515 Y1.6537 
G01 X-2.1285 Y1.6306 
G01 X-2.1276 Y1.6298 
G01 X-2.1272 Y1.6294 
G01 X-2.1265 Y1.6277 
G01 X-2.1265 Y1.6223 
G01 X-2.1272 Y1.6206 
G01 X-2.1285 Y1.6194 
G01 X-2.1475 Y1.6004 
G01 X-2.1491 Y1.5997 
G01 X-2.1509 Y1.5997 
G01 X-2.1525 Y1.6004 
G01 X-2.1538 Y1.6016 
G01 X-2.1787 Y1.6265 
G01 X-2.2213 Y1.6265 
G01 X-2.2475 Y1.6004 
G01 X-2.2491 Y1.5997 
G01 X-2.2509 Y1.5997 
G01 X-2.2525 Y1.6004 
G01 X-2.2538 Y1.6016 
G01 X-2.2787 Y1.6265 
G01 X-2.3213 Y1.6265 
G01 X-2.3475 Y1.6004 
G01 X-2.3491 Y1.5997 
G01 X-2.3509 Y1.5997 
G01 X-2.3525 Y1.6004 
G01 X-2.3538 Y1.6016 
G01 X-2.3728 Y1.6206 
G01 X-2.3735 Y1.6223 
G01 X-2.3735 Y1.6277 
G01 X-2.3728 Y1.6294 
G01 X-2.3715 Y1.6306 
G01 X-2.3485 Y1.6537 
G01 X-2.3485 Y1.6963 
G01 X-2.3787 Y1.7265 
G01 X-2.4213 Y1.7265 
G01 X-2.4515 Y1.6963 
G01 X-2.4515 Y1.6537 
G01 X-2.4285 Y1.6306 
G01 X-2.4276 Y1.6298 
G01 X-2.4272 Y1.6294 
G01 X-2.4265 Y1.6277 
G01 X-2.4265 Y1.6223 
G01 X-2.4272 Y1.6206 
G01 X-2.4285 Y1.6194 
G01 X-2.4475 Y1.6004 
G01 X-2.4491 Y1.5997 
G01 X-2.4509 Y1.5997 
G01 X-2.4525 Y1.6004 
G01 X-2.4538 Y1.6016 
G01 X-2.4715 Y1.6194 
G01 X-2.4728 Y1.6206 
G01 X-2.4735 Y1.6223 
G01 X-2.4735 Y1.6881 
G01 X-2.4728 Y1.6897 
G01 X-2.4715 Y1.6910 
G01 X-2.4147 Y1.7478 
G01 X-2.4131 Y1.7485 
G01 X-2.0869 Y1.7485 
G01 X-2.0853 Y1.7478 
G01 X-2.0840 Y1.7465 
G01 X-1.7382 Y1.4007 
G01 X-1.7375 Y1.3991 
G01 X-1.7375 Y1.3310 
G01 X-1.7382 Y1.3293 
G01 X-1.7395 Y1.3280 
G01 X-1.7665 Y1.3010 
G01 X-1.7665 Y1.2550 
G01 X-1.7463 Y1.2348 
G01 X-1.7454 Y1.2339 
G01 X-1.7450 Y1.2335 
G01 X-1.7444 Y1.2319 
G01 X-1.7444 Y1.2301 
G01 X-1.7450 Y1.2285 
G01 X-1.7463 Y1.2272 
G01 X-1.7480 Y1.2265 
G01 X-1.7881 Y1.2265 
G01 X-1.7897 Y1.2272 
G01 X-1.7910 Y1.2285 
G01 X-1.8328 Y1.2703 
G01 X-1.8335 Y1.2719 
G01 X-1.8335 Y1.3010 
G01 X-1.8660 Y1.3335 
G01 X-1.8951 Y1.3335 
G01 X-1.8967 Y1.3342 
G01 X-1.8980 Y1.3355 
G01 X-1.9275 Y1.3650 
G01 X-1.9350 Y1.3725 
G01 X-1.9447 Y1.3765 
G01 X-2.0530 Y1.3765 
G01 X-2.0530 Y1.3731 
G00 Z0.1000 
G00 X-3.7397 Y1.2738 
G01 Z-0.0070 F10.00 
G01 X-3.7381 Y1.2731 F20.00 
G01 X-3.7368 Y1.2718 
G01 X-3.7361 Y1.2701 
G01 X-3.7361 Y1.2684 
G01 X-3.7368 Y1.2667 
G01 X-3.7381 Y1.2654 
G01 X-3.7471 Y1.2564 
G01 X-3.7475 Y1.2560 
G01 X-3.7491 Y1.2554 
G01 X-3.7509 Y1.2554 
G01 X-3.7525 Y1.2560 
G01 X-3.7632 Y1.2667 
G01 X-3.7639 Y1.2684 
G01 X-3.7639 Y1.2701 
G01 X-3.7632 Y1.2718 
G01 X-3.7619 Y1.2731 
G01 X-3.7603 Y1.2738 
G01 X-3.7585 Y1.2738 
G01 X-3.7397 Y1.2738 
G00 Z0.1000 
G00 X-1.0773 Y1.2272 
G01 Z-0.0070 F10.00 
G01 X-1.0789 Y1.2265 F20.00 
G01 X-1.2240 Y1.2265 
G01 X-1.2257 Y1.2272 
G01 X-1.2270 Y1.2285 
G01 X-1.2276 Y1.2301 
G01 X-1.2276 Y1.2319 
G01 X-1.2270 Y1.2335 
G01 X-1.2257 Y1.2348 
G01 X-1.2097 Y1.2508 
G01 X-1.2080 Y1.2515 
G01 X-1.1753 Y1.2515 
G01 X-1.1746 Y1.2512 
G01 X-1.1736 Y1.2508 
G01 X-1.1724 Y1.2495 
G01 X-1.1713 Y1.2485 
G01 X-1.1287 Y1.2485 
G01 X-1.0985 Y1.2787 
G01 X-1.0985 Y1.3213 
G01 X-1.1287 Y1.3515 
G01 X-1.1713 Y1.3515 
G01 X-1.2015 Y1.3213 
G01 X-1.2015 Y1.3081 
G01 X-1.2022 Y1.3065 
G01 X-1.2035 Y1.3052 
G01 X-1.2051 Y1.3045 
G01 X-1.2080 Y1.3045 
G01 X-1.2097 Y1.3052 
G01 X-1.2110 Y1.3065 
G01 X-1.2380 Y1.3335 
G01 X-1.2451 Y1.3335 
G01 X-1.2467 Y1.3342 
G01 X-1.2480 Y1.3355 
G01 X-1.7775 Y1.8650 
G01 X-1.7850 Y1.8725 
G01 X-1.7947 Y1.8765 
G01 X-2.4553 Y1.8765 
G01 X-2.4650 Y1.8725 
G01 X-2.6150 Y1.7225 
G01 X-2.6225 Y1.7150 
G01 X-2.6265 Y1.7053 
G01 X-2.6265 Y1.6223 
G01 X-2.6272 Y1.6206 
G01 X-2.6285 Y1.6194 
G01 X-2.6475 Y1.6004 
G01 X-2.6491 Y1.5997 
G01 X-2.6509 Y1.5997 
G01 X-2.6525 Y1.6004 
G01 X-2.6538 Y1.6016 
G01 X-2.6728 Y1.6206 
G01 X-2.6735 Y1.6223 
G01 X-2.6735 Y1.6881 
G01 X-2.6728 Y1.6897 
G01 X-2.6715 Y1.6910 
G01 X-2.4647 Y1.8978 
G01 X-2.4631 Y1.8985 
G01 X-1.4369 Y1.8985 
G01 X-1.4353 Y1.8978 
G01 X-1.4340 Y1.8965 
G01 X-0.8550 Y1.3176 
G01 X-0.8543 Y1.3159 
G01 X-0.8543 Y1.3141 
G01 X-0.8550 Y1.3125 
G01 X-0.8563 Y1.3112 
G01 X-0.8665 Y1.3010 
G01 X-0.8665 Y1.2550 
G01 X-0.8463 Y1.2348 
G01 X-0.8454 Y1.2339 
G01 X-0.8450 Y1.2335 
G01 X-0.8444 Y1.2319 
G01 X-0.8444 Y1.2301 
G01 X-0.8450 Y1.2285 
G01 X-0.8463 Y1.2272 
G01 X-0.8480 Y1.2265 
G01 X-0.8991 Y1.2265 
G01 X-0.9007 Y1.2272 
G01 X-0.9020 Y1.2285 
G01 X-0.9328 Y1.2593 
G01 X-0.9335 Y1.2609 
G01 X-0.9335 Y1.3010 
G01 X-0.9660 Y1.3335 
G01 X-1.0120 Y1.3335 
G01 X-1.0445 Y1.3010 
G01 X-1.0445 Y1.2609 
G01 X-1.0452 Y1.2593 
G01 X-1.0465 Y1.2580 
G01 X-1.0773 Y1.2272 
G00 Z0.1000 
G00 X-2.6326 Y1.5348 
G01 Z-0.0070 F10.00 
G01 X-2.6316 Y1.5338 F20.00 
G01 X-2.6314 Y1.5335 
G01 X-2.6307 Y1.5319 
G01 X-2.6307 Y1.5301 
G01 X-2.6314 Y1.5285 
G01 X-2.6326 Y1.5272 
G01 X-2.6343 Y1.5265 
G01 X-2.6657 Y1.5265 
G01 X-2.6674 Y1.5272 
G01 X-2.6686 Y1.5285 
G01 X-2.6693 Y1.5301 
G01 X-2.6693 Y1.5319 
G01 X-2.6686 Y1.5335 
G01 X-2.6674 Y1.5348 
G01 X-2.6538 Y1.5484 
G01 X-2.6525 Y1.5496 
G01 X-2.6509 Y1.5503 
G01 X-2.6491 Y1.5503 
G01 X-2.6475 Y1.5496 
G01 X-2.6326 Y1.5348 
G00 Z0.1000 
G00 X-2.4326 Y1.5348 
G01 Z-0.0070 F10.00 
G01 X-2.4316 Y1.5338 F20.00 
G01 X-2.4314 Y1.5335 
G01 X-2.4307 Y1.5319 
G01 X-2.4307 Y1.5301 
G01 X-2.4314 Y1.5285 
G01 X-2.4326 Y1.5272 
G01 X-2.4343 Y1.5265 
G01 X-2.4657 Y1.5265 
G01 X-2.4674 Y1.5272 
G01 X-2.4686 Y1.5285 
G01 X-2.4693 Y1.5301 
G01 X-2.4693 Y1.5319 
G01 X-2.4686 Y1.5335 
G01 X-2.4674 Y1.5348 
G01 X-2.4538 Y1.5484 
G01 X-2.4525 Y1.5496 
G01 X-2.4509 Y1.5503 
G01 X-2.4491 Y1.5503 
G01 X-2.4475 Y1.5496 
G01 X-2.4326 Y1.5348 
G00 Z0.1000 
G00 X-2.3475 Y1.5496 
G01 Z-0.0070 F10.00 
G01 X-2.3475 Y1.5496 F20.00 
G01 X-2.3465 Y1.5486 
G01 X-2.3452 Y1.5474 
G01 X-2.3449 Y1.5465 
G01 X-2.3445 Y1.5457 
G01 X-2.3445 Y1.5439 
G01 X-2.3451 Y1.5425 
G01 X-2.3452 Y1.5423 
G01 X-2.3603 Y1.5272 
G01 X-2.3619 Y1.5265 
G01 X-2.3657 Y1.5265 
G01 X-2.3674 Y1.5272 
G01 X-2.3686 Y1.5285 
G01 X-2.3693 Y1.5301 
G01 X-2.3693 Y1.5319 
G01 X-2.3686 Y1.5335 
G01 X-2.3674 Y1.5348 
G01 X-2.3525 Y1.5496 
G01 X-2.3517 Y1.5500 
G01 X-2.3509 Y1.5503 
G01 X-2.3491 Y1.5503 
G01 X-2.3477 Y1.5497 
G01 X-2.3475 Y1.5496 
G00 Z0.1000 
G00 X-3.4765 Y1.3447 
G01 Z-0.0070 F10.00 
G01 X-3.4725 Y1.3350 F20.00 
G01 X-3.4272 Y1.2897 
G01 X-3.4265 Y1.2881 
G01 X-3.4265 Y1.2780 
G01 X-3.4272 Y1.2763 
G01 X-3.4285 Y1.2750 
G01 X-3.4475 Y1.2560 
G01 X-3.4491 Y1.2554 
G01 X-3.4509 Y1.2554 
G01 X-3.4525 Y1.2560 
G01 X-3.4538 Y1.2573 
G01 X-3.4728 Y1.2763 
G01 X-3.4735 Y1.2780 
G01 X-3.4735 Y1.3053 
G01 X-3.4775 Y1.3150 
G01 X-3.4863 Y1.3237 
G01 X-3.5175 Y1.3550 
G01 X-3.5182 Y1.3566 
G01 X-3.5182 Y1.3584 
G01 X-3.5175 Y1.3600 
G01 X-3.5162 Y1.3613 
G01 X-3.4988 Y1.3788 
G01 X-3.4988 Y1.4212 
G01 X-3.5207 Y1.4432 
G01 X-3.5216 Y1.4441 
G01 X-3.5220 Y1.4444 
G01 X-3.5227 Y1.4461 
G01 X-3.5227 Y1.4479 
G01 X-3.5220 Y1.4495 
G01 X-3.5207 Y1.4508 
G01 X-3.5025 Y1.4690 
G01 X-3.5009 Y1.4696 
G01 X-3.4991 Y1.4696 
G01 X-3.4975 Y1.4690 
G01 X-3.4962 Y1.4677 
G01 X-3.4785 Y1.4500 
G01 X-3.4772 Y1.4487 
G01 X-3.4765 Y1.4470 
G01 X-3.4765 Y1.3553 
G01 X-3.4765 Y1.3447 
G00 Z0.1000 
G00 X-2.9402 Y2.8833 
G01 Z-0.0070 F10.00 
G01 X-2.9402 Y2.9167 F20.00 
G01 X-2.9167 Y2.9402 
G01 X-2.8833 Y2.9402 
G01 X-2.8636 Y2.9205 
G01 X-1.8335 Y2.9205 
G01 X-1.7732 Y2.9808 
G01 X-1.7843 Y2.9919 
G01 X-1.7843 Y3.0285 
G01 X-1.7585 Y3.0544 
G01 X-1.7219 Y3.0544 
G01 X-1.6960 Y3.0285 
G01 X-1.6960 Y2.9919 
G01 X-1.7219 Y2.9661 
G01 X-1.7300 Y2.9661 
G01 X-1.8086 Y2.8874 
G01 X-1.8124 Y2.8836 
G01 X-1.8171 Y2.8809 
G01 X-1.8223 Y2.8795 
G01 X-2.8636 Y2.8795 
G01 X-2.8833 Y2.8598 
G01 X-2.9167 Y2.8598 
G01 X-2.9402 Y2.8833 
G00 Z0.1000 
G00 X-1.7555 Y1.0036 
G01 Z-0.0070 F10.00 
G01 X-1.7555 Y1.0404 F20.00 
G01 X-1.7294 Y1.0665 
G01 X-1.6926 Y1.0665 
G01 X-1.6665 Y1.0404 
G01 X-1.6665 Y1.0036 
G01 X-1.6926 Y0.9775 
G01 X-1.7294 Y0.9775 
G01 X-1.7555 Y1.0036 
G00 Z0.1000 
G00 X-3.3445 Y0.8066 
G01 Z-0.0070 F10.00 
G01 X-3.3445 Y0.8434 F20.00 
G01 X-3.3184 Y0.8695 
G01 X-3.2845 Y0.8695 
G01 X-3.1955 Y0.9585 
G01 X-3.1955 Y1.0636 
G01 X-3.2152 Y1.0833 
G01 X-3.2152 Y1.1167 
G01 X-3.1917 Y1.1402 
G01 X-3.1583 Y1.1402 
G01 X-3.1348 Y1.1167 
G01 X-3.1348 Y1.0833 
G01 X-3.1545 Y1.0636 
G01 X-3.1545 Y0.9473 
G01 X-3.1559 Y0.9421 
G01 X-3.1586 Y0.9374 
G01 X-3.2555 Y0.8405 
G01 X-3.2555 Y0.8066 
G01 X-3.2816 Y0.7805 
G01 X-3.3184 Y0.7805 
G01 X-3.3445 Y0.8066 
G00 Z0.1000 
G00 X-3.4445 Y0.8066 
G01 Z-0.0070 F10.00 
G01 X-3.4445 Y0.8434 F20.00 
G01 X-3.4184 Y0.8695 
G01 X-3.3816 Y0.8695 
G01 X-3.3555 Y0.8434 
G01 X-3.3555 Y0.8066 
G01 X-3.3790 Y0.7830 
G01 X-3.3665 Y0.7705 
G01 X-2.8085 Y0.7705 
G01 X-2.7582 Y0.8208 
G01 X-2.7692 Y0.8317 
G01 X-2.7692 Y0.8683 
G01 X-2.7433 Y0.8942 
G01 X-2.7067 Y0.8942 
G01 X-2.6808 Y0.8683 
G01 X-2.6808 Y0.8317 
G01 X-2.7067 Y0.8058 
G01 X-2.7152 Y0.8058 
G01 X-2.7836 Y0.7374 
G01 X-2.7874 Y0.7336 
G01 X-2.7921 Y0.7309 
G01 X-2.7973 Y0.7295 
G01 X-3.3777 Y0.7295 
G01 X-3.3829 Y0.7309 
G01 X-3.3876 Y0.7336 
G01 X-3.4126 Y0.7586 
G01 X-3.4164 Y0.7624 
G01 X-3.4191 Y0.7671 
G01 X-3.4205 Y0.7723 
G01 X-3.4205 Y0.7826 
G01 X-3.4445 Y0.8066 
G00 Z0.1000 
G00 X-3.5445 Y0.8066 
G01 Z-0.0070 F10.00 
G01 X-3.5445 Y0.8434 F20.00 
G01 X-3.5184 Y0.8695 
G01 X-3.4816 Y0.8695 
G01 X-3.4555 Y0.8434 
G01 X-3.4555 Y0.8066 
G01 X-3.4795 Y0.7826 
G01 X-3.4795 Y0.7585 
G01 X-3.4415 Y0.7205 
G01 X-2.7585 Y0.7205 
G01 X-2.6582 Y0.8208 
G01 X-2.6692 Y0.8317 
G01 X-2.6692 Y0.8683 
G01 X-2.6433 Y0.8942 
G01 X-2.6067 Y0.8942 
G01 X-2.5808 Y0.8683 
G01 X-2.5808 Y0.8317 
G01 X-2.6067 Y0.8058 
G01 X-2.6152 Y0.8058 
G01 X-2.7374 Y0.6836 
G01 X-2.7421 Y0.6809 
G01 X-2.7473 Y0.6795 
G01 X-3.4527 Y0.6795 
G01 X-3.4579 Y0.6809 
G01 X-3.4626 Y0.6836 
G01 X-3.5126 Y0.7336 
G01 X-3.5164 Y0.7374 
G01 X-3.5191 Y0.7421 
G01 X-3.5205 Y0.7473 
G01 X-3.5205 Y0.7826 
G01 X-3.5445 Y0.8066 
G00 Z0.1000 
G00 X-3.6445 Y0.8066 
G01 Z-0.0070 F10.00 
G01 X-3.6445 Y0.8434 F20.00 
G01 X-3.6184 Y0.8695 
G01 X-3.5816 Y0.8695 
G01 X-3.5555 Y0.8434 
G01 X-3.5555 Y0.8066 
G01 X-3.5816 Y0.7805 
G01 X-3.6184 Y0.7805 
G01 X-3.6445 Y0.8066 
G00 Z0.1000 
G00 X-3.7445 Y0.8066 
G01 Z-0.0070 F10.00 
G01 X-3.7445 Y0.8434 F20.00 
G01 X-3.7184 Y0.8695 
G01 X-3.6816 Y0.8695 
G01 X-3.6555 Y0.8434 
G01 X-3.6555 Y0.8066 
G01 X-3.6816 Y0.7805 
G01 X-3.7184 Y0.7805 
G01 X-3.7445 Y0.8066 
G00 Z0.1000 
G00 X-3.7445 Y1.2066 
G01 Z-0.0070 F10.00 
G01 X-3.7445 Y1.2434 F20.00 
G01 X-3.7184 Y1.2695 
G01 X-3.6816 Y1.2695 
G01 X-3.6555 Y1.2434 
G01 X-3.6555 Y1.2066 
G01 X-3.6816 Y1.1805 
G01 X-3.7184 Y1.1805 
G01 X-3.7445 Y1.2066 
G00 Z0.1000 
G00 X-3.6445 Y1.2066 
G01 Z-0.0070 F10.00 
G01 X-3.6445 Y1.2434 F20.00 
G01 X-3.6184 Y1.2695 
G01 X-3.5816 Y1.2695 
G01 X-3.5555 Y1.2434 
G01 X-3.5555 Y1.2066 
G01 X-3.5816 Y1.1805 
G01 X-3.6184 Y1.1805 
G01 X-3.6445 Y1.2066 
G00 Z0.1000 
G00 X-3.5445 Y1.2066 
G01 Z-0.0070 F10.00 
G01 X-3.5445 Y1.2434 F20.00 
G01 X-3.5205 Y1.2674 
G01 X-3.5205 Y1.2915 
G01 X-3.5664 Y1.3374 
G01 X-3.5691 Y1.3421 
G01 X-3.5705 Y1.3473 
G01 X-3.5705 Y1.3636 
G01 X-3.5902 Y1.3833 
G01 X-3.5902 Y1.4167 
G01 X-3.5705 Y1.4364 
G01 X-3.5705 Y1.4576 
G01 X-3.5945 Y1.4816 
G01 X-3.5945 Y1.5184 
G01 X-3.5684 Y1.5445 
G01 X-3.5316 Y1.5445 
G01 X-3.5055 Y1.5184 
G01 X-3.5055 Y1.4816 
G01 X-3.5295 Y1.4576 
G01 X-3.5295 Y1.4364 
G01 X-3.5098 Y1.4167 
G01 X-3.5098 Y1.3833 
G01 X-3.5295 Y1.3636 
G01 X-3.5295 Y1.3585 
G01 X-3.4874 Y1.3164 
G01 X-3.4836 Y1.3126 
G01 X-3.4809 Y1.3079 
G01 X-3.4795 Y1.3027 
G01 X-3.4795 Y1.2674 
G01 X-3.4555 Y1.2434 
G01 X-3.4555 Y1.2066 
G01 X-3.4816 Y1.1805 
G01 X-3.5184 Y1.1805 
G01 X-3.5445 Y1.2066 
G00 Z0.1000 
G00 X-3.4445 Y1.2066 
G01 Z-0.0070 F10.00 
G01 X-3.4445 Y1.2434 F20.00 
G01 X-3.4205 Y1.2674 
G01 X-3.4205 Y1.2915 
G01 X-3.4664 Y1.3374 
G01 X-3.4691 Y1.3421 
G01 X-3.4705 Y1.3473 
G01 X-3.4705 Y1.4576 
G01 X-3.4945 Y1.4816 
G01 X-3.4945 Y1.5184 
G01 X-3.4684 Y1.5445 
G01 X-3.4316 Y1.5445 
G01 X-3.4076 Y1.5205 
G01 X-2.3585 Y1.5205 
G01 X-2.3306 Y1.5484 
G01 X-2.3405 Y1.5582 
G01 X-2.3405 Y1.5918 
G01 X-2.3168 Y1.6155 
G01 X-2.2832 Y1.6155 
G01 X-2.2595 Y1.5918 
G01 X-2.2595 Y1.5582 
G01 X-2.2832 Y1.5345 
G01 X-2.2865 Y1.5345 
G01 X-2.3374 Y1.4836 
G01 X-2.3421 Y1.4809 
G01 X-2.3473 Y1.4795 
G01 X-3.4076 Y1.4795 
G01 X-3.4295 Y1.4576 
G01 X-3.4295 Y1.3585 
G01 X-3.3874 Y1.3164 
G01 X-3.3836 Y1.3126 
G01 X-3.3809 Y1.3079 
G01 X-3.3795 Y1.3027 
G01 X-3.3795 Y1.2674 
G01 X-3.3555 Y1.2434 
G01 X-3.3555 Y1.2066 
G01 X-3.3816 Y1.1805 
G01 X-3.4184 Y1.1805 
G01 X-3.4445 Y1.2066 
G00 Z0.1000 
G00 X-3.3445 Y1.2066 
G01 Z-0.0070 F10.00 
G01 X-3.3445 Y1.2434 F20.00 
G01 X-3.3184 Y1.2695 
G01 X-3.2816 Y1.2695 
G01 X-3.2555 Y1.2434 
G01 X-3.2555 Y1.2095 
G01 X-3.2415 Y1.1955 
G01 X-2.9973 Y1.1955 
G01 X-2.9921 Y1.1941 
G01 X-2.9874 Y1.1914 
G01 X-2.9836 Y1.1876 
G01 X-2.9613 Y1.1652 
G01 X-2.9333 Y1.1652 
G01 X-2.9098 Y1.1417 
G01 X-2.9098 Y1.1137 
G01 X-2.8086 Y1.0126 
G01 X-2.8059 Y1.0079 
G01 X-2.8045 Y1.0027 
G01 X-2.8045 Y0.9920 
G01 X-2.7808 Y0.9683 
G01 X-2.7808 Y0.9317 
G01 X-2.8067 Y0.9058 
G01 X-2.8433 Y0.9058 
G01 X-2.8692 Y0.9317 
G01 X-2.8692 Y0.9683 
G01 X-2.8457 Y0.9917 
G01 X-2.9387 Y1.0848 
G01 X-2.9667 Y1.0848 
G01 X-2.9902 Y1.1083 
G01 X-2.9902 Y1.1363 
G01 X-3.0085 Y1.1545 
G01 X-3.2527 Y1.1545 
G01 X-3.2579 Y1.1559 
G01 X-3.2626 Y1.1586 
G01 X-3.2845 Y1.1805 
G01 X-3.2905 Y1.1805 
G01 X-3.3586 Y1.1124 
G01 X-3.3624 Y1.1086 
G01 X-3.3671 Y1.1059 
G01 X-3.3723 Y1.1045 
G01 X-3.8777 Y1.1045 
G01 X-3.8829 Y1.1059 
G01 X-3.8876 Y1.1086 
G01 X-3.9126 Y1.1336 
G01 X-3.9164 Y1.1374 
G01 X-3.9191 Y1.1421 
G01 X-3.9205 Y1.1473 
G01 X-3.9205 Y1.3636 
G01 X-3.9402 Y1.3833 
G01 X-3.9402 Y1.4167 
G01 X-3.9167 Y1.4402 
G01 X-3.8833 Y1.4402 
G01 X-3.8598 Y1.4167 
G01 X-3.8598 Y1.3833 
G01 X-3.8795 Y1.3636 
G01 X-3.8795 Y1.1585 
G01 X-3.8665 Y1.1455 
G01 X-3.3835 Y1.1455 
G01 X-3.3335 Y1.1955 
G01 X-3.3445 Y1.2066 
G00 Z0.1000 
G00 X-2.7692 Y0.9317 
G01 Z-0.0070 F10.00 
G01 X-2.7692 Y0.9683 F20.00 
G01 X-2.7455 Y0.9920 
G01 X-2.7455 Y1.0165 
G01 X-2.9835 Y1.2545 
G01 X-3.1386 Y1.2545 
G01 X-3.1583 Y1.2348 
G01 X-3.1917 Y1.2348 
G01 X-3.2152 Y1.2583 
G01 X-3.2152 Y1.2917 
G01 X-3.1917 Y1.3152 
G01 X-3.1583 Y1.3152 
G01 X-3.1386 Y1.2955 
G01 X-2.9723 Y1.2955 
G01 X-2.9671 Y1.2941 
G01 X-2.9624 Y1.2914 
G01 X-2.9586 Y1.2876 
G01 X-2.7086 Y1.0376 
G01 X-2.7059 Y1.0329 
G01 X-2.7045 Y1.0277 
G01 X-2.7045 Y0.9920 
G01 X-2.6808 Y0.9683 
G01 X-2.6808 Y0.9317 
G01 X-2.7067 Y0.9058 
G01 X-2.7433 Y0.9058 
G01 X-2.7692 Y0.9317 
G00 Z0.1000 
G00 X-2.1405 Y1.2582 
G01 Z-0.0070 F10.00 
G01 X-2.1405 Y1.2918 F20.00 
G01 X-2.1168 Y1.3155 
G01 X-2.0832 Y1.3155 
G01 X-2.0595 Y1.2918 
G01 X-2.0595 Y1.2582 
G01 X-2.0832 Y1.2345 
G01 X-2.1168 Y1.2345 
G01 X-2.1405 Y1.2582 
G00 Z0.1000 
G00 X-2.2405 Y1.2582 
G01 Z-0.0070 F10.00 
G01 X-2.2405 Y1.2918 F20.00 
G01 X-2.2168 Y1.3155 
G01 X-2.1832 Y1.3155 
G01 X-2.1595 Y1.2918 
G01 X-2.1595 Y1.2582 
G01 X-2.1832 Y1.2345 
G01 X-2.2168 Y1.2345 
G01 X-2.2405 Y1.2582 
G00 Z0.1000 
G00 X-2.3405 Y1.2582 
G01 Z-0.0070 F10.00 
G01 X-2.3405 Y1.2918 F20.00 
G01 X-2.3168 Y1.3155 
G01 X-2.2832 Y1.3155 
G01 X-2.2595 Y1.2918 
G01 X-2.2595 Y1.2582 
G01 X-2.2832 Y1.2345 
G01 X-2.3168 Y1.2345 
G01 X-2.3405 Y1.2582 
G00 Z0.1000 
G00 X-2.4405 Y1.2582 
G01 Z-0.0070 F10.00 
G01 X-2.4405 Y1.2918 F20.00 
G01 X-2.4168 Y1.3155 
G01 X-2.3832 Y1.3155 
G01 X-2.3595 Y1.2918 
G01 X-2.3595 Y1.2582 
G01 X-2.3832 Y1.2345 
G01 X-2.4168 Y1.2345 
G01 X-2.4405 Y1.2582 
G00 Z0.1000 
G00 X-2.5405 Y1.2582 
G01 Z-0.0070 F10.00 
G01 X-2.5405 Y1.2918 F20.00 
G01 X-2.5168 Y1.3155 
G01 X-2.4832 Y1.3155 
G01 X-2.4595 Y1.2918 
G01 X-2.4595 Y1.2582 
G01 X-2.4832 Y1.2345 
G01 X-2.5168 Y1.2345 
G01 X-2.5405 Y1.2582 
G00 Z0.1000 
G00 X-2.6405 Y1.2582 
G01 Z-0.0070 F10.00 
G01 X-2.6405 Y1.2918 F20.00 
G01 X-2.6168 Y1.3155 
G01 X-2.5832 Y1.3155 
G01 X-2.5595 Y1.2918 
G01 X-2.5595 Y1.2582 
G01 X-2.5832 Y1.2345 
G01 X-2.6168 Y1.2345 
G01 X-2.6405 Y1.2582 
G00 Z0.1000 
G00 X-2.7405 Y1.2582 
G01 Z-0.0070 F10.00 
G01 X-2.7405 Y1.2918 F20.00 
G01 X-2.7168 Y1.3155 
G01 X-2.6832 Y1.3155 
G01 X-2.6595 Y1.2918 
G01 X-2.6595 Y1.2582 
G01 X-2.6832 Y1.2345 
G01 X-2.7168 Y1.2345 
G01 X-2.7405 Y1.2582 
G00 Z0.1000 
G00 X-2.4405 Y1.5582 
G01 Z-0.0070 F10.00 
G01 X-2.4405 Y1.5918 F20.00 
G01 X-2.4205 Y1.6118 
G01 X-2.4205 Y1.6382 
G01 X-2.4405 Y1.6582 
G01 X-2.4405 Y1.6918 
G01 X-2.4168 Y1.7155 
G01 X-2.3832 Y1.7155 
G01 X-2.3595 Y1.6918 
G01 X-2.3595 Y1.6582 
G01 X-2.3795 Y1.6382 
G01 X-2.3795 Y1.6118 
G01 X-2.3595 Y1.5918 
G01 X-2.3595 Y1.5582 
G01 X-2.3832 Y1.5345 
G01 X-2.4168 Y1.5345 
G01 X-2.4405 Y1.5582 
G00 Z0.1000 
G00 X-2.2405 Y1.5582 
G01 Z-0.0070 F10.00 
G01 X-2.2405 Y1.5918 F20.00 
G01 X-2.2168 Y1.6155 
G01 X-2.1832 Y1.6155 
G01 X-2.1595 Y1.5918 
G01 X-2.1595 Y1.5582 
G01 X-2.1832 Y1.5345 
G01 X-2.1865 Y1.5345 
G01 X-2.2836 Y1.4374 
G01 X-2.2874 Y1.4336 
G01 X-2.2921 Y1.4309 
G01 X-2.2973 Y1.4295 
G01 X-3.2915 Y1.4295 
G01 X-3.3098 Y1.4113 
G01 X-3.3098 Y1.3833 
G01 X-3.3333 Y1.3598 
G01 X-3.3667 Y1.3598 
G01 X-3.3902 Y1.3833 
G01 X-3.3902 Y1.4167 
G01 X-3.3667 Y1.4402 
G01 X-3.3387 Y1.4402 
G01 X-3.3126 Y1.4664 
G01 X-3.3079 Y1.4691 
G01 X-3.3027 Y1.4705 
G01 X-2.3085 Y1.4705 
G01 X-2.2306 Y1.5484 
G01 X-2.2405 Y1.5582 
G00 Z0.1000 
G00 X-1.6405 Y1.3168 
G01 Z-0.0070 F10.00 
G01 X-1.6168 Y1.3405 F20.00 
G01 X-1.5832 Y1.3405 
G01 X-1.5595 Y1.3168 
G01 X-1.5595 Y1.2832 
G01 X-1.5832 Y1.2595 
G01 X-1.6130 Y1.2595 
G01 X-1.6141 Y1.2589 
G01 X-1.6193 Y1.2575 
G01 X-1.6686 Y1.2575 
G01 X-1.6926 Y1.2335 
G01 X-1.7294 Y1.2335 
G01 X-1.7555 Y1.2596 
G01 X-1.7555 Y1.2964 
G01 X-1.7315 Y1.3204 
G01 X-1.7315 Y1.4025 
G01 X-2.0835 Y1.7545 
G01 X-2.4165 Y1.7545 
G01 X-2.4795 Y1.6915 
G01 X-2.4795 Y1.6118 
G01 X-2.4595 Y1.5918 
G01 X-2.4595 Y1.5582 
G01 X-2.4832 Y1.5345 
G01 X-2.5168 Y1.5345 
G01 X-2.5405 Y1.5582 
G01 X-2.5405 Y1.5918 
G01 X-2.5205 Y1.6118 
G01 X-2.5205 Y1.7027 
G01 X-2.5191 Y1.7079 
G01 X-2.5164 Y1.7126 
G01 X-2.5126 Y1.7164 
G01 X-2.4376 Y1.7914 
G01 X-2.4329 Y1.7941 
G01 X-2.4277 Y1.7955 
G01 X-2.0723 Y1.7955 
G01 X-2.0671 Y1.7941 
G01 X-2.0624 Y1.7914 
G01 X-2.0586 Y1.7876 
G01 X-1.6984 Y1.4274 
G01 X-1.6946 Y1.4236 
G01 X-1.6919 Y1.4189 
G01 X-1.6905 Y1.4137 
G01 X-1.6905 Y1.3204 
G01 X-1.6686 Y1.2985 
G01 X-1.6405 Y1.2985 
G01 X-1.6405 Y1.3168 
G00 Z0.1000 
G00 X-1.3055 Y1.2596 
G01 Z-0.0070 F10.00 
G01 X-1.3055 Y1.2964 F20.00 
G01 X-1.2905 Y1.3115 
G01 X-1.8085 Y1.8295 
G01 X-2.4415 Y1.8295 
G01 X-2.5795 Y1.6915 
G01 X-2.5795 Y1.6118 
G01 X-2.5595 Y1.5918 
G01 X-2.5595 Y1.5582 
G01 X-2.5832 Y1.5345 
G01 X-2.6168 Y1.5345 
G01 X-2.6405 Y1.5582 
G01 X-2.6405 Y1.5918 
G01 X-2.6205 Y1.6118 
G01 X-2.6205 Y1.7027 
G01 X-2.6191 Y1.7079 
G01 X-2.6164 Y1.7126 
G01 X-2.6126 Y1.7164 
G01 X-2.4626 Y1.8664 
G01 X-2.4579 Y1.8691 
G01 X-2.4527 Y1.8705 
G01 X-1.7973 Y1.8705 
G01 X-1.7921 Y1.8691 
G01 X-1.7874 Y1.8664 
G01 X-1.7836 Y1.8626 
G01 X-1.2446 Y1.3236 
G01 X-1.2440 Y1.3225 
G01 X-1.2426 Y1.3225 
G01 X-1.2186 Y1.2985 
G01 X-1.1905 Y1.2985 
G01 X-1.1905 Y1.3168 
G01 X-1.1668 Y1.3405 
G01 X-1.1332 Y1.3405 
G01 X-1.1095 Y1.3168 
G01 X-1.1095 Y1.2832 
G01 X-1.1332 Y1.2595 
G01 X-1.1630 Y1.2595 
G01 X-1.1641 Y1.2589 
G01 X-1.1693 Y1.2575 
G01 X-1.2186 Y1.2575 
G01 X-1.2426 Y1.2335 
G01 X-1.2794 Y1.2335 
G01 X-1.3055 Y1.2596 
G00 Z0.1000 
G00 X-1.3055 Y1.0036 
G01 Z-0.0070 F10.00 
G01 X-1.3055 Y1.0404 F20.00 
G01 X-1.2794 Y1.0665 
G01 X-1.2426 Y1.0665 
G01 X-1.2165 Y1.0404 
G01 X-1.2165 Y1.0036 
G01 X-1.2426 Y0.9775 
G01 X-1.2794 Y0.9775 
G01 X-1.3055 Y1.0036 
G00 Z0.1000 
G00 X-0.8555 Y1.0036 
G01 Z-0.0070 F10.00 
G01 X-0.8555 Y1.0404 F20.00 
G01 X-0.8294 Y1.0665 
G01 X-0.7926 Y1.0665 
G01 X-0.7665 Y1.0404 
G01 X-0.7665 Y1.0036 
G01 X-0.7926 Y0.9775 
G01 X-0.8294 Y0.9775 
G01 X-0.8555 Y1.0036 
G00 Z0.1000 
G00 X-0.7405 Y1.3168 
G01 Z-0.0070 F10.00 
G01 X-0.7168 Y1.3405 F20.00 
G01 X-0.6832 Y1.3405 
G01 X-0.6595 Y1.3168 
G01 X-0.6595 Y1.2832 
G01 X-0.6832 Y1.2595 
G01 X-0.7130 Y1.2595 
G01 X-0.7141 Y1.2589 
G01 X-0.7193 Y1.2575 
G01 X-0.7686 Y1.2575 
G01 X-0.7926 Y1.2335 
G01 X-0.8294 Y1.2335 
G01 X-0.8555 Y1.2596 
G01 X-0.8555 Y1.2964 
G01 X-0.8405 Y1.3115 
G01 X-1.4335 Y1.9045 
G01 X-2.4665 Y1.9045 
G01 X-2.6795 Y1.6915 
G01 X-2.6795 Y1.6118 
G01 X-2.6595 Y1.5918 
G01 X-2.6595 Y1.5582 
G01 X-2.6832 Y1.5345 
G01 X-2.7168 Y1.5345 
G01 X-2.7405 Y1.5582 
G01 X-2.7405 Y1.5918 
G01 X-2.7205 Y1.6118 
G01 X-2.7205 Y1.7027 
G01 X-2.7191 Y1.7079 
G01 X-2.7164 Y1.7126 
G01 X-2.7126 Y1.7164 
G01 X-2.4876 Y1.9414 
G01 X-2.4829 Y1.9441 
G01 X-2.4777 Y1.9455 
G01 X-1.4223 Y1.9455 
G01 X-1.4171 Y1.9441 
G01 X-1.4124 Y1.9414 
G01 X-1.4086 Y1.9376 
G01 X-0.7946 Y1.3236 
G01 X-0.7940 Y1.3225 
G01 X-0.7926 Y1.3225 
G01 X-0.7686 Y1.2985 
G01 X-0.7405 Y1.2985 
G01 X-0.7405 Y1.3168 
G00 Z0.1000 
G00 X-0.4055 Y1.2596 
G01 Z-0.0070 F10.00 
G01 X-0.4055 Y1.2964 F20.00 
G01 X-0.3905 Y1.3115 
G01 X-1.0585 Y1.9795 
G01 X-2.4915 Y1.9795 
G01 X-2.7795 Y1.6915 
G01 X-2.7795 Y1.6118 
G01 X-2.7595 Y1.5918 
G01 X-2.7595 Y1.5582 
G01 X-2.7832 Y1.5345 
G01 X-2.8168 Y1.5345 
G01 X-2.8405 Y1.5582 
G01 X-2.8405 Y1.5918 
G01 X-2.8205 Y1.6118 
G01 X-2.8205 Y1.7027 
G01 X-2.8191 Y1.7079 
G01 X-2.8164 Y1.7126 
G01 X-2.8126 Y1.7164 
G01 X-2.5126 Y2.0164 
G01 X-2.5079 Y2.0191 
G01 X-2.5027 Y2.0205 
G01 X-1.0473 Y2.0205 
G01 X-1.0421 Y2.0191 
G01 X-1.0374 Y2.0164 
G01 X-1.0336 Y2.0126 
G01 X-0.3446 Y1.3236 
G01 X-0.3440 Y1.3225 
G01 X-0.3426 Y1.3225 
G01 X-0.3186 Y1.2985 
G01 X-0.2905 Y1.2985 
G01 X-0.2905 Y1.3168 
G01 X-0.2668 Y1.3405 
G01 X-0.2332 Y1.3405 
G01 X-0.2095 Y1.3168 
G01 X-0.2095 Y1.2832 
G01 X-0.2332 Y1.2595 
G01 X-0.2630 Y1.2595 
G01 X-0.2641 Y1.2589 
G01 X-0.2693 Y1.2575 
G01 X-0.3186 Y1.2575 
G01 X-0.3426 Y1.2335 
G01 X-0.3794 Y1.2335 
G01 X-0.4055 Y1.2596 
G00 Z0.1000 
G00 X-0.4843 Y2.9919 
G01 Z-0.0070 F10.00 
G01 X-0.4843 Y3.0285 F20.00 
G01 X-0.4585 Y3.0544 
G01 X-0.4496 Y3.0544 
G01 X-0.4126 Y3.0914 
G01 X-0.4079 Y3.0941 
G01 X-0.4027 Y3.0955 
G01 X-0.2973 Y3.0955 
G01 X-0.2921 Y3.0941 
G01 X-0.2874 Y3.0914 
G01 X-0.2836 Y3.0876 
G01 X-0.2336 Y3.0376 
G01 X-0.2309 Y3.0329 
G01 X-0.2295 Y3.0277 
G01 X-0.2295 Y1.4335 
G01 X-0.1336 Y1.3376 
G01 X-0.1309 Y1.3329 
G01 X-0.1295 Y1.3277 
G01 X-0.1295 Y0.9473 
G01 X-0.1309 Y0.9421 
G01 X-0.1336 Y0.9374 
G01 X-0.1374 Y0.9336 
G01 X-0.2124 Y0.8586 
G01 X-0.2171 Y0.8559 
G01 X-0.2223 Y0.8545 
G01 X-0.4527 Y0.8545 
G01 X-0.4579 Y0.8559 
G01 X-0.4626 Y0.8586 
G01 X-0.4664 Y0.8624 
G01 X-0.5375 Y0.9335 
G01 X-0.5586 Y0.9124 
G01 X-0.5624 Y0.9086 
G01 X-0.5671 Y0.9059 
G01 X-0.5723 Y0.9045 
G01 X-0.9277 Y0.9045 
G01 X-0.9329 Y0.9059 
G01 X-0.9376 Y0.9086 
G01 X-0.9835 Y0.9545 
G01 X-0.9915 Y0.9545 
G01 X-1.0336 Y0.9124 
G01 X-1.0374 Y0.9086 
G01 X-1.0421 Y0.9059 
G01 X-1.0473 Y0.9045 
G01 X-1.3777 Y0.9045 
G01 X-1.3829 Y0.9059 
G01 X-1.3876 Y0.9086 
G01 X-1.4335 Y0.9545 
G01 X-1.4415 Y0.9545 
G01 X-1.4836 Y0.9124 
G01 X-1.4874 Y0.9086 
G01 X-1.4921 Y0.9059 
G01 X-1.4973 Y0.9045 
G01 X-1.7947 Y0.9045 
G01 X-1.7999 Y0.9059 
G01 X-1.8046 Y0.9086 
G01 X-1.8735 Y0.9775 
G01 X-1.9074 Y0.9775 
G01 X-1.9335 Y1.0036 
G01 X-1.9335 Y1.0375 
G01 X-2.0005 Y1.1045 
G01 X-2.5636 Y1.1045 
G01 X-2.5833 Y1.0848 
G01 X-2.6167 Y1.0848 
G01 X-2.6402 Y1.1083 
G01 X-2.6402 Y1.1417 
G01 X-2.6167 Y1.1652 
G01 X-2.5833 Y1.1652 
G01 X-2.5636 Y1.1455 
G01 X-1.9893 Y1.1455 
G01 X-1.9841 Y1.1441 
G01 X-1.9794 Y1.1414 
G01 X-1.9045 Y1.0665 
G01 X-1.8706 Y1.0665 
G01 X-1.8445 Y1.0404 
G01 X-1.8445 Y1.0065 
G01 X-1.7835 Y0.9455 
G01 X-1.5085 Y0.9455 
G01 X-1.4670 Y0.9870 
G01 X-1.4835 Y1.0036 
G01 X-1.4835 Y1.0404 
G01 X-1.4574 Y1.0665 
G01 X-1.4206 Y1.0665 
G01 X-1.3945 Y1.0404 
G01 X-1.3945 Y1.0036 
G01 X-1.4095 Y0.9885 
G01 X-1.4086 Y0.9876 
G01 X-1.3665 Y0.9455 
G01 X-1.0585 Y0.9455 
G01 X-1.0170 Y0.9870 
G01 X-1.0335 Y1.0036 
G01 X-1.0335 Y1.0404 
G01 X-1.0074 Y1.0665 
G01 X-0.9706 Y1.0665 
G01 X-0.9445 Y1.0404 
G01 X-0.9445 Y1.0036 
G01 X-0.9595 Y0.9885 
G01 X-0.9586 Y0.9876 
G01 X-0.9165 Y0.9455 
G01 X-0.5835 Y0.9455 
G01 X-0.5595 Y0.9695 
G01 X-0.5595 Y0.9796 
G01 X-0.5835 Y1.0036 
G01 X-0.5835 Y1.0404 
G01 X-0.5574 Y1.0665 
G01 X-0.5206 Y1.0665 
G01 X-0.4945 Y1.0404 
G01 X-0.4945 Y1.0036 
G01 X-0.5185 Y0.9796 
G01 X-0.5185 Y0.9725 
G01 X-0.4415 Y0.8955 
G01 X-0.2335 Y0.8955 
G01 X-0.1705 Y0.9585 
G01 X-0.1705 Y1.3165 
G01 X-0.2626 Y1.4086 
G01 X-0.2664 Y1.4124 
G01 X-0.2691 Y1.4171 
G01 X-0.2705 Y1.4223 
G01 X-0.2705 Y3.0165 
G01 X-0.3085 Y3.0545 
G01 X-0.3915 Y3.0545 
G01 X-0.4067 Y3.0393 
G01 X-0.3960 Y3.0285 
G01 X-0.3960 Y2.9919 
G01 X-0.4197 Y2.9682 
G01 X-0.4197 Y2.7769 
G01 X-0.4095 Y2.7668 
G01 X-0.4095 Y2.7332 
G01 X-0.4332 Y2.7095 
G01 X-0.4668 Y2.7095 
G01 X-0.4905 Y2.7332 
G01 X-0.4905 Y2.7668 
G01 X-0.4668 Y2.7905 
G01 X-0.4607 Y2.7905 
G01 X-0.4607 Y2.9682 
G01 X-0.4843 Y2.9919 
G00 Z0.1000 
G00 X-0.5843 Y2.9919 
G01 Z-0.0070 F10.00 
G01 X-0.5843 Y3.0285 F20.00 
G01 X-0.5585 Y3.0544 
G01 X-0.5219 Y3.0544 
G01 X-0.4960 Y3.0285 
G01 X-0.4960 Y2.9919 
G01 X-0.5045 Y2.9834 
G01 X-0.5045 Y2.6835 
G01 X-0.4915 Y2.6705 
G01 X-0.4868 Y2.6705 
G01 X-0.4668 Y2.6905 
G01 X-0.4332 Y2.6905 
G01 X-0.4095 Y2.6668 
G01 X-0.4095 Y2.6332 
G01 X-0.4332 Y2.6095 
G01 X-0.4668 Y2.6095 
G01 X-0.4868 Y2.6295 
G01 X-0.5027 Y2.6295 
G01 X-0.5079 Y2.6309 
G01 X-0.5126 Y2.6336 
G01 X-0.5376 Y2.6586 
G01 X-0.5414 Y2.6624 
G01 X-0.5441 Y2.6671 
G01 X-0.5455 Y2.6723 
G01 X-0.5455 Y2.9661 
G01 X-0.5585 Y2.9661 
G01 X-0.5843 Y2.9919 
G00 Z0.1000 
G00 X-0.7843 Y2.9919 
G01 Z-0.0070 F10.00 
G01 X-0.7843 Y3.0285 F20.00 
G01 X-0.7585 Y3.0544 
G01 X-0.7219 Y3.0544 
G01 X-0.6960 Y3.0285 
G01 X-0.6960 Y2.9919 
G01 X-0.7219 Y2.9661 
G01 X-0.7300 Y2.9661 
G01 X-0.7336 Y2.9624 
G01 X-1.5836 Y2.1124 
G01 X-1.5874 Y2.1086 
G01 X-1.5921 Y2.1059 
G01 X-1.5973 Y2.1045 
G01 X-3.4665 Y2.1045 
G01 X-3.6836 Y1.8874 
G01 X-3.6874 Y1.8836 
G01 X-3.6921 Y1.8809 
G01 X-3.6973 Y1.8795 
G01 X-3.8576 Y1.8795 
G01 X-3.8816 Y1.8555 
G01 X-3.9184 Y1.8555 
G01 X-3.9445 Y1.8816 
G01 X-3.9445 Y1.9184 
G01 X-3.9184 Y1.9445 
G01 X-3.8816 Y1.9445 
G01 X-3.8576 Y1.9205 
G01 X-3.7085 Y1.9205 
G01 X-3.4876 Y2.1414 
G01 X-3.4829 Y2.1441 
G01 X-3.4777 Y2.1455 
G01 X-1.6085 Y2.1455 
G01 X-0.7732 Y2.9808 
G01 X-0.7843 Y2.9919 
G00 Z0.1000 
G00 X-0.8843 Y2.9919 
G01 Z-0.0070 F10.00 
G01 X-0.8843 Y3.0285 F20.00 
G01 X-0.8585 Y3.0544 
G01 X-0.8219 Y3.0544 
G01 X-0.7960 Y3.0285 
G01 X-0.7960 Y2.9919 
G01 X-0.8219 Y2.9661 
G01 X-0.8300 Y2.9661 
G01 X-0.8336 Y2.9624 
G01 X-1.6086 Y2.1874 
G01 X-1.6124 Y2.1836 
G01 X-1.6171 Y2.1809 
G01 X-1.6223 Y2.1795 
G01 X-3.4915 Y2.1795 
G01 X-3.6836 Y1.9874 
G01 X-3.6874 Y1.9836 
G01 X-3.6921 Y1.9809 
G01 X-3.6973 Y1.9795 
G01 X-3.8576 Y1.9795 
G01 X-3.8816 Y1.9555 
G01 X-3.9184 Y1.9555 
G01 X-3.9445 Y1.9816 
G01 X-3.9445 Y2.0184 
G01 X-3.9184 Y2.0445 
G01 X-3.8816 Y2.0445 
G01 X-3.8576 Y2.0205 
G01 X-3.7085 Y2.0205 
G01 X-3.5126 Y2.2164 
G01 X-3.5079 Y2.2191 
G01 X-3.5027 Y2.2205 
G01 X-1.6335 Y2.2205 
G01 X-0.8732 Y2.9808 
G01 X-0.8843 Y2.9919 
G00 Z0.1000 
G00 X-0.9843 Y2.9919 
G01 Z-0.0070 F10.00 
G01 X-0.9843 Y3.0285 F20.00 
G01 X-0.9585 Y3.0544 
G01 X-0.9219 Y3.0544 
G01 X-0.8960 Y3.0285 
G01 X-0.8960 Y2.9919 
G01 X-0.9219 Y2.9661 
G01 X-0.9300 Y2.9661 
G01 X-0.9336 Y2.9624 
G01 X-1.6336 Y2.2624 
G01 X-1.6374 Y2.2586 
G01 X-1.6421 Y2.2559 
G01 X-1.6473 Y2.2545 
G01 X-3.5165 Y2.2545 
G01 X-3.6836 Y2.0874 
G01 X-3.6874 Y2.0836 
G01 X-3.6921 Y2.0809 
G01 X-3.6973 Y2.0795 
G01 X-3.8576 Y2.0795 
G01 X-3.8816 Y2.0555 
G01 X-3.9184 Y2.0555 
G01 X-3.9445 Y2.0816 
G01 X-3.9445 Y2.1184 
G01 X-3.9184 Y2.1445 
G01 X-3.8816 Y2.1445 
G01 X-3.8576 Y2.1205 
G01 X-3.7085 Y2.1205 
G01 X-3.5376 Y2.2914 
G01 X-3.5329 Y2.2941 
G01 X-3.5277 Y2.2955 
G01 X-1.6585 Y2.2955 
G01 X-0.9732 Y2.9808 
G01 X-0.9843 Y2.9919 
G00 Z0.1000 
G00 X-1.0843 Y2.9919 
G01 Z-0.0070 F10.00 
G01 X-1.0843 Y3.0285 F20.00 
G01 X-1.0585 Y3.0544 
G01 X-1.0219 Y3.0544 
G01 X-0.9960 Y3.0285 
G01 X-0.9960 Y2.9919 
G01 X-1.0219 Y2.9661 
G01 X-1.0300 Y2.9661 
G01 X-1.6586 Y2.3374 
G01 X-1.6624 Y2.3336 
G01 X-1.6671 Y2.3309 
G01 X-1.6723 Y2.3295 
G01 X-3.5415 Y2.3295 
G01 X-3.6836 Y2.1874 
G01 X-3.6874 Y2.1836 
G01 X-3.6921 Y2.1809 
G01 X-3.6973 Y2.1795 
G01 X-3.8576 Y2.1795 
G01 X-3.8816 Y2.1555 
G01 X-3.9184 Y2.1555 
G01 X-3.9445 Y2.1816 
G01 X-3.9445 Y2.2184 
G01 X-3.9184 Y2.2445 
G01 X-3.8816 Y2.2445 
G01 X-3.8576 Y2.2205 
G01 X-3.7085 Y2.2205 
G01 X-3.5626 Y2.3664 
G01 X-3.5579 Y2.3691 
G01 X-3.5527 Y2.3705 
G01 X-1.6835 Y2.3705 
G01 X-1.0732 Y2.9808 
G01 X-1.0843 Y2.9919 
G00 Z0.1000 
G00 X-1.3843 Y2.9919 
G01 Z-0.0070 F10.00 
G01 X-1.3843 Y3.0285 F20.00 
G01 X-1.3585 Y3.0544 
G01 X-1.3219 Y3.0544 
G01 X-1.2960 Y3.0285 
G01 X-1.2960 Y2.9919 
G01 X-1.3219 Y2.9661 
G01 X-1.3300 Y2.9661 
G01 X-1.7336 Y2.5624 
G01 X-1.7374 Y2.5586 
G01 X-1.7421 Y2.5559 
G01 X-1.7473 Y2.5545 
G01 X-3.6165 Y2.5545 
G01 X-3.6836 Y2.4874 
G01 X-3.6874 Y2.4836 
G01 X-3.6921 Y2.4809 
G01 X-3.6973 Y2.4795 
G01 X-3.8576 Y2.4795 
G01 X-3.8816 Y2.4555 
G01 X-3.9184 Y2.4555 
G01 X-3.9445 Y2.4816 
G01 X-3.9445 Y2.5184 
G01 X-3.9184 Y2.5445 
G01 X-3.8816 Y2.5445 
G01 X-3.8576 Y2.5205 
G01 X-3.7085 Y2.5205 
G01 X-3.6376 Y2.5914 
G01 X-3.6329 Y2.5941 
G01 X-3.6277 Y2.5955 
G01 X-1.7585 Y2.5955 
G01 X-1.3732 Y2.9808 
G01 X-1.3843 Y2.9919 
G00 Z0.1000 
G00 X-1.5843 Y2.9919 
G01 Z-0.0070 F10.00 
G01 X-1.5843 Y3.0285 F20.00 
G01 X-1.5585 Y3.0544 
G01 X-1.5219 Y3.0544 
G01 X-1.4960 Y3.0285 
G01 X-1.4960 Y2.9919 
G01 X-1.5219 Y2.9661 
G01 X-1.5300 Y2.9661 
G01 X-1.5336 Y2.9624 
G01 X-1.7836 Y2.7124 
G01 X-1.7874 Y2.7086 
G01 X-1.7921 Y2.7059 
G01 X-1.7973 Y2.7045 
G01 X-3.6665 Y2.7045 
G01 X-3.6836 Y2.6874 
G01 X-3.6874 Y2.6836 
G01 X-3.6921 Y2.6809 
G01 X-3.6973 Y2.6795 
G01 X-3.8576 Y2.6795 
G01 X-3.8816 Y2.6555 
G01 X-3.9184 Y2.6555 
G01 X-3.9445 Y2.6816 
G01 X-3.9445 Y2.7184 
G01 X-3.9184 Y2.7445 
G01 X-3.8816 Y2.7445 
G01 X-3.8576 Y2.7205 
G01 X-3.7085 Y2.7205 
G01 X-3.6876 Y2.7414 
G01 X-3.6829 Y2.7441 
G01 X-3.6777 Y2.7455 
G01 X-1.8085 Y2.7455 
G01 X-1.5732 Y2.9808 
G01 X-1.5843 Y2.9919 
G00 Z0.1000 
G00 X-3.9445 Y2.7816 
G01 Z-0.0070 F10.00 
G01 X-3.9445 Y2.8184 F20.00 
G01 X-3.9184 Y2.8445 
G01 X-3.8816 Y2.8445 
G01 X-3.8576 Y2.8205 
G01 X-1.8335 Y2.8205 
G01 X-1.6732 Y2.9808 
G01 X-1.6843 Y2.9919 
G01 X-1.6843 Y3.0285 
G01 X-1.6585 Y3.0544 
G01 X-1.6219 Y3.0544 
G01 X-1.5960 Y3.0285 
G01 X-1.5960 Y2.9919 
G01 X-1.6219 Y2.9661 
G01 X-1.6300 Y2.9661 
G01 X-1.8086 Y2.7874 
G01 X-1.8124 Y2.7836 
G01 X-1.8171 Y2.7809 
G01 X-1.8223 Y2.7795 
G01 X-3.8576 Y2.7795 
G01 X-3.8816 Y2.7555 
G01 X-3.9184 Y2.7555 
G01 X-3.9445 Y2.7816 
G00 Z0.1000 
G00 X-3.9445 Y2.5816 
G01 Z-0.0070 F10.00 
G01 X-3.9445 Y2.6184 F20.00 
G01 X-3.9184 Y2.6445 
G01 X-3.8816 Y2.6445 
G01 X-3.8576 Y2.6205 
G01 X-3.7085 Y2.6205 
G01 X-3.6626 Y2.6664 
G01 X-3.6579 Y2.6691 
G01 X-3.6527 Y2.6705 
G01 X-1.7835 Y2.6705 
G01 X-1.4732 Y2.9808 
G01 X-1.4843 Y2.9919 
G01 X-1.4843 Y3.0285 
G01 X-1.4585 Y3.0544 
G01 X-1.4219 Y3.0544 
G01 X-1.3960 Y3.0285 
G01 X-1.3960 Y2.9919 
G01 X-1.4219 Y2.9661 
G01 X-1.4300 Y2.9661 
G01 X-1.7586 Y2.6374 
G01 X-1.7624 Y2.6336 
G01 X-1.7671 Y2.6309 
G01 X-1.7723 Y2.6295 
G01 X-3.6415 Y2.6295 
G01 X-3.6836 Y2.5874 
G01 X-3.6874 Y2.5836 
G01 X-3.6921 Y2.5809 
G01 X-3.6973 Y2.5795 
G01 X-3.8576 Y2.5795 
G01 X-3.8816 Y2.5555 
G01 X-3.9184 Y2.5555 
G01 X-3.9445 Y2.5816 
G00 Z0.1000 
G00 X-3.9445 Y2.3816 
G01 Z-0.0070 F10.00 
G01 X-3.9445 Y2.4184 F20.00 
G01 X-3.9184 Y2.4445 
G01 X-3.8816 Y2.4445 
G01 X-3.8576 Y2.4205 
G01 X-3.7085 Y2.4205 
G01 X-3.6126 Y2.5164 
G01 X-3.6079 Y2.5191 
G01 X-3.6027 Y2.5205 
G01 X-1.7335 Y2.5205 
G01 X-1.2732 Y2.9808 
G01 X-1.2843 Y2.9919 
G01 X-1.2843 Y3.0285 
G01 X-1.2585 Y3.0544 
G01 X-1.2219 Y3.0544 
G01 X-1.1960 Y3.0285 
G01 X-1.1960 Y2.9919 
G01 X-1.2219 Y2.9661 
G01 X-1.2300 Y2.9661 
G01 X-1.7086 Y2.4874 
G01 X-1.7124 Y2.4836 
G01 X-1.7171 Y2.4809 
G01 X-1.7223 Y2.4795 
G01 X-3.5915 Y2.4795 
G01 X-3.6836 Y2.3874 
G01 X-3.6874 Y2.3836 
G01 X-3.6921 Y2.3809 
G01 X-3.6973 Y2.3795 
G01 X-3.8576 Y2.3795 
G01 X-3.8816 Y2.3555 
G01 X-3.9184 Y2.3555 
G01 X-3.9445 Y2.3816 
G00 Z0.1000 
G00 X-3.9445 Y2.2816 
G01 Z-0.0070 F10.00 
G01 X-3.9445 Y2.3184 F20.00 
G01 X-3.9184 Y2.3445 
G01 X-3.8816 Y2.3445 
G01 X-3.8576 Y2.3205 
G01 X-3.7085 Y2.3205 
G01 X-3.5914 Y2.4376 
G01 X-3.5876 Y2.4414 
G01 X-3.5829 Y2.4441 
G01 X-3.5777 Y2.4455 
G01 X-1.7085 Y2.4455 
G01 X-1.1732 Y2.9808 
G01 X-1.1843 Y2.9919 
G01 X-1.1843 Y3.0285 
G01 X-1.1585 Y3.0544 
G01 X-1.1219 Y3.0544 
G01 X-1.0960 Y3.0285 
G01 X-1.0960 Y2.9919 
G01 X-1.1219 Y2.9661 
G01 X-1.1300 Y2.9661 
G01 X-1.1374 Y2.9586 
G01 X-1.6874 Y2.4086 
G01 X-1.6921 Y2.4059 
G01 X-1.6973 Y2.4045 
G01 X-3.5665 Y2.4045 
G01 X-3.6874 Y2.2836 
G01 X-3.6921 Y2.2809 
G01 X-3.6973 Y2.2795 
G01 X-3.8576 Y2.2795 
G01 X-3.8816 Y2.2555 
G01 X-3.9184 Y2.2555 
G01 X-3.9445 Y2.2816 
G00 Z0.1000 
G00 X-3.9445 Y1.7816 
G01 Z-0.0070 F10.00 
G01 X-3.9445 Y1.8184 F20.00 
G01 X-3.9184 Y1.8445 
G01 X-3.8816 Y1.8445 
G01 X-3.8576 Y1.8205 
G01 X-3.7085 Y1.8205 
G01 X-3.4501 Y2.0789 
G01 X-3.4454 Y2.0816 
G01 X-3.4402 Y2.0830 
G01 X-1.5585 Y2.0830 
G01 X-0.6705 Y2.9710 
G01 X-0.6705 Y2.9777 
G01 X-0.6704 Y2.9780 
G01 X-0.6843 Y2.9919 
G01 X-0.6843 Y3.0285 
G01 X-0.6585 Y3.0544 
G01 X-0.6219 Y3.0544 
G01 X-0.5960 Y3.0285 
G01 X-0.5960 Y2.9919 
G01 X-0.6219 Y2.9661 
G01 X-0.6295 Y2.9661 
G01 X-0.6295 Y2.9598 
G01 X-0.6309 Y2.9546 
G01 X-0.6336 Y2.9499 
G01 X-1.5336 Y2.0499 
G01 X-1.5374 Y2.0461 
G01 X-1.5421 Y2.0434 
G01 X-1.5473 Y2.0420 
G01 X-3.4290 Y2.0420 
G01 X-3.6836 Y1.7874 
G01 X-3.6874 Y1.7836 
G01 X-3.6921 Y1.7809 
G01 X-3.6973 Y1.7795 
G01 X-3.8576 Y1.7795 
G01 X-3.8816 Y1.7555 
G01 X-3.9184 Y1.7555 
G01 X-3.9445 Y1.7816 
G00 Z0.1000 
G00 X-3.9445 Y1.6816 
G01 Z-0.0070 F10.00 
G01 X-3.9445 Y1.7184 F20.00 
G01 X-3.9184 Y1.7445 
G01 X-3.8816 Y1.7445 
G01 X-3.8555 Y1.7184 
G01 X-3.8555 Y1.6816 
G01 X-3.8816 Y1.6555 
G01 X-3.9184 Y1.6555 
G01 X-3.9445 Y1.6816 
G00 Z0.1000 
G00 X-3.5905 Y1.8168 
G01 Z-0.0070 F10.00 
G01 X-3.5668 Y1.8405 F20.00 
G01 X-3.5332 Y1.8405 
G01 X-3.5095 Y1.8168 
G01 X-3.5095 Y1.7832 
G01 X-3.5332 Y1.7595 
G01 X-3.5615 Y1.7595 
G01 X-3.6295 Y1.6915 
G01 X-3.6295 Y1.5424 
G01 X-3.6055 Y1.5184 
G01 X-3.6055 Y1.4816 
G01 X-3.6295 Y1.4576 
G01 X-3.6295 Y1.4364 
G01 X-3.6098 Y1.4167 
G01 X-3.6098 Y1.3833 
G01 X-3.6333 Y1.3598 
G01 X-3.6667 Y1.3598 
G01 X-3.6902 Y1.3833 
G01 X-3.6902 Y1.4167 
G01 X-3.6705 Y1.4364 
G01 X-3.6705 Y1.4576 
G01 X-3.6945 Y1.4816 
G01 X-3.6945 Y1.5184 
G01 X-3.6710 Y1.5420 
G01 X-3.7085 Y1.5795 
G01 X-3.8576 Y1.5795 
G01 X-3.8816 Y1.5555 
G01 X-3.9184 Y1.5555 
G01 X-3.9445 Y1.5816 
G01 X-3.9445 Y1.6184 
G01 X-3.9184 Y1.6445 
G01 X-3.8816 Y1.6445 
G01 X-3.8576 Y1.6205 
G01 X-3.6973 Y1.6205 
G01 X-3.6921 Y1.6191 
G01 X-3.6874 Y1.6164 
G01 X-3.6705 Y1.5995 
G01 X-3.6705 Y1.7027 
G01 X-3.6691 Y1.7079 
G01 X-3.6664 Y1.7126 
G01 X-3.6626 Y1.7164 
G01 X-3.5905 Y1.7885 
G01 X-3.5905 Y1.8168 
G00 Z0.1000 
G00 X-3.0905 Y1.0832 
G01 Z-0.0070 F10.00 
G01 X-3.0905 Y1.1168 F20.00 
G01 X-3.0668 Y1.1405 
G01 X-3.0332 Y1.1405 
G01 X-3.0095 Y1.1168 
G01 X-3.0095 Y1.0832 
G01 X-3.0295 Y1.0632 
G01 X-3.0295 Y1.0085 
G01 X-2.8915 Y0.8705 
G01 X-2.8670 Y0.8705 
G01 X-2.8433 Y0.8942 
G01 X-2.8067 Y0.8942 
G01 X-2.7808 Y0.8683 
G01 X-2.7808 Y0.8317 
G01 X-2.8067 Y0.8058 
G01 X-2.8433 Y0.8058 
G01 X-2.8670 Y0.8295 
G01 X-2.9027 Y0.8295 
G01 X-2.9079 Y0.8309 
G01 X-2.9126 Y0.8336 
G01 X-3.0626 Y0.9836 
G01 X-3.0664 Y0.9874 
G01 X-3.0691 Y0.9921 
G01 X-3.0705 Y0.9973 
G01 X-3.0705 Y1.0632 
G01 X-3.0905 Y1.0832 
G00 Z0.1000 
G00 X-2.5525 Y1.5496 
G01 Z-0.0070 F10.00 
G01 X-2.5509 Y1.5503 F20.00 
G01 X-2.5491 Y1.5503 
G01 X-2.5475 Y1.5496 
G01 X-2.5462 Y1.5484 
G01 X-2.5326 Y1.5348 
G01 X-2.5314 Y1.5335 
G01 X-2.5307 Y1.5319 
G01 X-2.5307 Y1.5301 
G01 X-2.5314 Y1.5285 
G01 X-2.5326 Y1.5272 
G01 X-2.5343 Y1.5265 
G01 X-2.5657 Y1.5265 
G01 X-2.5674 Y1.5272 
G01 X-2.5686 Y1.5285 
G01 X-2.5693 Y1.5301 
G01 X-2.5693 Y1.5319 
G01 X-2.5686 Y1.5335 
G01 X-2.5674 Y1.5348 
G01 X-2.5525 Y1.5496 
G00 Z0.1000 
G00 X-2.7326 Y1.5348 
G01 Z-0.0070 F10.00 
G01 X-2.7316 Y1.5338 F20.00 
G01 X-2.7314 Y1.5335 
G01 X-2.7307 Y1.5319 
G01 X-2.7307 Y1.5301 
G01 X-2.7314 Y1.5285 
G01 X-2.7326 Y1.5272 
G01 X-2.7343 Y1.5265 
G01 X-2.7657 Y1.5265 
G01 X-2.7674 Y1.5272 
G01 X-2.7686 Y1.5285 
G01 X-2.7693 Y1.5301 
G01 X-2.7693 Y1.5319 
G01 X-2.7686 Y1.5335 
G01 X-2.7674 Y1.5348 
G01 X-2.7538 Y1.5484 
G01 X-2.7525 Y1.5496 
G01 X-2.7509 Y1.5503 
G01 X-2.7491 Y1.5503 
G01 X-2.7475 Y1.5496 
G01 X-2.7326 Y1.5348 
G00 Z0.1000 
G00 X-1.5260 Y1.2285 
G01 Z-0.0070 F10.00 
G01 X-1.5260 Y1.2285 F20.00 
G01 X-1.5273 Y1.2272 
G01 X-1.5289 Y1.2265 
G01 X-1.6740 Y1.2265 
G01 X-1.6757 Y1.2272 
G01 X-1.6770 Y1.2285 
G01 X-1.6776 Y1.2301 
G01 X-1.6776 Y1.2319 
G01 X-1.6770 Y1.2335 
G01 X-1.6757 Y1.2348 
G01 X-1.6597 Y1.2508 
G01 X-1.6580 Y1.2515 
G01 X-1.6253 Y1.2515 
G01 X-1.6246 Y1.2512 
G01 X-1.6236 Y1.2508 
G01 X-1.6224 Y1.2495 
G01 X-1.6213 Y1.2485 
G01 X-1.5787 Y1.2485 
G01 X-1.5485 Y1.2787 
G01 X-1.5485 Y1.3213 
G01 X-1.5787 Y1.3515 
G01 X-1.6213 Y1.3515 
G01 X-1.6515 Y1.3213 
G01 X-1.6515 Y1.3081 
G01 X-1.6522 Y1.3065 
G01 X-1.6535 Y1.3052 
G01 X-1.6551 Y1.3045 
G01 X-1.6580 Y1.3045 
G01 X-1.6597 Y1.3052 
G01 X-1.6610 Y1.3065 
G01 X-1.6838 Y1.3293 
G01 X-1.6845 Y1.3310 
G01 X-1.6845 Y1.4163 
G01 X-1.6885 Y1.4260 
G01 X-2.0525 Y1.7900 
G01 X-2.0600 Y1.7975 
G01 X-2.0697 Y1.8015 
G01 X-2.4303 Y1.8015 
G01 X-2.4400 Y1.7975 
G01 X-2.5150 Y1.7225 
G01 X-2.5225 Y1.7150 
G01 X-2.5265 Y1.7053 
G01 X-2.5265 Y1.6223 
G01 X-2.5272 Y1.6206 
G01 X-2.5285 Y1.6194 
G01 X-2.5475 Y1.6004 
G01 X-2.5491 Y1.5997 
G01 X-2.5509 Y1.5997 
G01 X-2.5525 Y1.6004 
G01 X-2.5538 Y1.6016 
G01 X-2.5728 Y1.6206 
G01 X-2.5735 Y1.6223 
G01 X-2.5735 Y1.6881 
G01 X-2.5728 Y1.6897 
G01 X-2.5715 Y1.6910 
G01 X-2.4397 Y1.8228 
G01 X-2.4381 Y1.8235 
G01 X-1.8119 Y1.8235 
G01 X-1.8103 Y1.8228 
G01 X-1.8090 Y1.8215 
G01 X-1.3050 Y1.3176 
G01 X-1.3043 Y1.3159 
G01 X-1.3043 Y1.3141 
G01 X-1.3050 Y1.3125 
G01 X-1.3063 Y1.3112 
G01 X-1.3165 Y1.3010 
G01 X-1.3165 Y1.2550 
G01 X-1.2963 Y1.2348 
G01 X-1.2954 Y1.2339 
G01 X-1.2950 Y1.2335 
G01 X-1.2944 Y1.2319 
G01 X-1.2944 Y1.2301 
G01 X-1.2950 Y1.2285 
G01 X-1.2963 Y1.2272 
G01 X-1.2980 Y1.2265 
G01 X-1.3381 Y1.2265 
G01 X-1.3397 Y1.2272 
G01 X-1.3404 Y1.2279 
G01 X-1.3815 Y1.2690 
G01 X-1.3821 Y1.2696 
G01 X-1.3828 Y1.2703 
G01 X-1.3835 Y1.2719 
G01 X-1.3835 Y1.3010 
G01 X-1.4160 Y1.3335 
G01 X-1.4620 Y1.3335 
G01 X-1.4945 Y1.3010 
G01 X-1.4945 Y1.2609 
G01 X-1.4952 Y1.2593 
G01 X-1.4965 Y1.2580 
G01 X-1.5260 Y1.2285 
G00 Z0.1000 
G00 X-2.3584 Y1.3062 
G01 Z-0.0070 F10.00 
G01 X-2.3595 Y1.3073 F20.00 
G01 X-2.3596 Y1.3075 
G01 X-2.3603 Y1.3091 
G01 X-2.3603 Y1.3109 
G01 X-2.3596 Y1.3125 
G01 X-2.3584 Y1.3138 
G01 X-2.3567 Y1.3145 
G01 X-2.3433 Y1.3145 
G01 X-2.3416 Y1.3138 
G01 X-2.3404 Y1.3125 
G01 X-2.3397 Y1.3109 
G01 X-2.3397 Y1.3091 
G01 X-2.3404 Y1.3075 
G01 X-2.3416 Y1.3062 
G01 X-2.3462 Y1.3016 
G01 X-2.3475 Y1.3004 
G01 X-2.3491 Y1.2997 
G01 X-2.3509 Y1.2997 
G01 X-2.3525 Y1.3004 
G01 X-2.3584 Y1.3062 
G00 Z0.1000 
G00 X-2.9712 Y1.0738 
G01 Z-0.0070 F10.00 
G01 X-2.9372 Y1.0738 F20.00 
G01 X-2.9355 Y1.0731 
G01 X-2.9344 Y1.0719 
G01 X-2.8616 Y0.9991 
G01 X-2.8615 Y0.9990 
G01 X-2.8603 Y0.9978 
G01 X-2.8596 Y0.9962 
G01 X-2.8596 Y0.9944 
G01 X-2.8603 Y0.9927 
G01 X-2.8616 Y0.9915 
G01 X-2.8802 Y0.9729 
G01 X-2.8802 Y0.9271 
G01 X-2.8569 Y0.9038 
G01 X-2.8560 Y0.9030 
G01 X-2.8556 Y0.9025 
G01 X-2.8549 Y0.9009 
G01 X-2.8549 Y0.8991 
G01 X-2.8556 Y0.8975 
G01 X-2.8559 Y0.8971 
G01 X-2.8746 Y0.8785 
G01 X-2.8755 Y0.8775 
G01 X-2.8759 Y0.8772 
G01 X-2.8775 Y0.8765 
G01 X-2.8881 Y0.8765 
G01 X-2.8897 Y0.8772 
G01 X-2.8910 Y0.8785 
G01 X-3.0228 Y1.0103 
G01 X-3.0235 Y1.0119 
G01 X-3.0235 Y1.0527 
G01 X-3.0228 Y1.0544 
G01 X-3.0215 Y1.0556 
G01 X-2.9985 Y1.0787 
G01 X-2.9985 Y1.0911 
G01 X-2.9978 Y1.0927 
G01 X-2.9965 Y1.0940 
G01 X-2.9949 Y1.0947 
G01 X-2.9931 Y1.0947 
G01 X-2.9915 Y1.0940 
G01 X-2.9902 Y1.0927 
G01 X-2.9712 Y1.0738 
G00 Z0.1000 
G00 X-3.0012 Y1.1341 
G01 Z-0.0070 F10.00 
G01 X-3.0019 Y1.1324 F20.00 
G01 X-3.0032 Y1.1311 
G01 X-3.0049 Y1.1304 
G01 X-3.0066 Y1.1304 
G01 X-3.0083 Y1.1311 
G01 X-3.0096 Y1.1324 
G01 X-3.0186 Y1.1415 
G01 X-3.0193 Y1.1431 
G01 X-3.0193 Y1.1449 
G01 X-3.0186 Y1.1465 
G01 X-3.0174 Y1.1478 
G01 X-3.0157 Y1.1485 
G01 X-3.0119 Y1.1485 
G01 X-3.0103 Y1.1478 
G01 X-3.0019 Y1.1395 
G01 X-3.0012 Y1.1378 
G01 X-3.0012 Y1.1360 
G01 X-3.0012 Y1.1341 
G00 Z0.1000 
G00 X-2.8988 Y1.1462 
G01 Z-0.0070 F10.00 
G01 X-2.9288 Y1.1762 F20.00 
G01 X-2.9628 Y1.1762 
G01 X-2.9645 Y1.1769 
G01 X-2.9657 Y1.1782 
G01 X-2.9775 Y1.1900 
G01 X-2.9850 Y1.1975 
G01 X-2.9947 Y1.2015 
G01 X-3.2381 Y1.2015 
G01 X-3.2397 Y1.2022 
G01 X-3.2410 Y1.2035 
G01 X-3.2438 Y1.2063 
G01 X-3.2445 Y1.2079 
G01 X-3.2445 Y1.2480 
G01 X-3.2619 Y1.2654 
G01 X-3.2629 Y1.2664 
G01 X-3.2632 Y1.2667 
G01 X-3.2639 Y1.2684 
G01 X-3.2639 Y1.2701 
G01 X-3.2632 Y1.2718 
G01 X-3.2619 Y1.2731 
G01 X-3.2603 Y1.2738 
G01 X-3.2299 Y1.2738 
G01 X-3.2282 Y1.2731 
G01 X-3.2269 Y1.2718 
G01 X-3.2262 Y1.2701 
G01 X-3.2262 Y1.2538 
G01 X-3.1962 Y1.2238 
G01 X-3.1538 Y1.2238 
G01 X-3.1297 Y1.2478 
G01 X-3.1281 Y1.2485 
G01 X-2.9869 Y1.2485 
G01 X-2.9853 Y1.2478 
G01 X-2.9840 Y1.2465 
G01 X-2.7522 Y1.0147 
G01 X-2.7515 Y1.0131 
G01 X-2.7515 Y1.0025 
G01 X-2.7522 Y1.0009 
G01 X-2.7725 Y0.9806 
G01 X-2.7741 Y0.9799 
G01 X-2.7759 Y0.9799 
G01 X-2.7775 Y0.9806 
G01 X-2.7788 Y0.9819 
G01 X-2.7978 Y1.0009 
G01 X-2.7985 Y1.0025 
G01 X-2.7985 Y1.0053 
