(.../external_usr-lang-prog/pcbgcode/pcb-gcode.ulp)
(Copyright 2005 - 2012 by John Johnson)
(See readme.txt for licensing terms.)
(This file generated from the board:)
(.../Welti/Bugboard.brd)
(Current profile is .../pcbgcode/profiles/generic.pp  )
(This file generated 10.09.2019 16:40:27)
(Settings from pcb-machine.h)
(  Tool Size)
(0.0070 )
(Z Axis Settings)
(  High     Up        Down     Drill)
(0.5000 	0.1000 	-0.0070 	-0.0320 )
(spindle on time = 3.0000)
(milling depth = -0.0100)
(text depth = -0.0050)
(tool change at 0.5000 0.6000 1.0000 )
(feed rate xy = F20.00 )
(feed rate z  = F10.00 )
(Settings from pcb-defaults.h)
(isolate min = 0.0010)
(isolate max = 0.0200)
(isolate step = 0.0050)
(Generated bottom outlines, bottom drill, )
(Unit of measure: inch)
( Tool|       Size       |  Min Sub |  Max Sub |   Count )
( T01  0.800mm 0.0315in 0.0000in 0.0000in )
( T02  0.813mm 0.0320in 0.0000in 0.0000in )
( T03  1.000mm 0.0394in 0.0000in 0.0000in )
( T04  1.016mm 0.0400in 0.0000in 0.0000in )
( T05  2.500mm 0.0984in 0.0000in 0.0000in )
(Inch Mode)
G20
(Absolute Coordinates)
G90
M05
G00 Z1.0000 
G00 X0.5000 Y0.6000 
M06 T01  ; 0.0315 
G01 Z0.0000 F10.00 
M06 T01  ; 0.0315 
G00 Z0.1000 
M03
G04 P3.000000
G00 Z0.100000
G00 X-0.1500 Y2.2250 
G01 Z-0.0320 F10.00 
G01 Z0.100000
(R0.1000  P1.000000)
(G00 Z0.100000)
G00 X-2.6000 Y1.1250 
G01 Z-0.032000
G01 Z0.100000
(G00 Z0.100000)
G00 X-2.9000 Y1.9750 
G01 Z-0.032000
G01 Z0.100000
(G00 Z0.100000)
G00 X-2.9000 Y2.9000 
G01 Z-0.032000
G01 Z0.100000
(G00 Z0.100000)
G00 X-2.9500 Y1.1250 
G01 Z-0.032000
G01 Z0.100000
(G00 Z0.100000)
G00 X-3.1750 Y1.2750 
G01 Z-0.032000
G01 Z0.100000
(G00 Z0.100000)
G00 X-3.1750 Y1.1000 
G01 Z-0.032000
G01 Z0.100000
(G00 Z0.100000)
G00 X-3.2500 Y1.3250 
G01 Z-0.032000
G01 Z0.100000
(G00 Z0.100000)
G00 X-3.3500 Y1.4000 
G01 Z-0.032000
G01 Z0.100000
(G00 Z0.100000)
G00 X-0.3500 Y2.2250 
G01 Z-0.032000
G01 Z0.100000
(G00 Z0.100000)
G00 X-3.5500 Y1.4000 
G01 Z-0.032000
G01 Z0.100000
(G00 Z0.100000)
G00 X-3.6500 Y1.4000 
G01 Z-0.032000
G01 Z0.100000
(G00 Z0.100000)
G00 X-3.6500 Y1.4000 
G01 Z-0.032000
G01 Z0.100000
(G00 Z0.100000)
G00 X-3.7500 Y1.3250 
G01 Z-0.032000
G01 Z0.100000
(G00 Z0.100000)
G00 X-3.9000 Y1.4000 
G01 Z-0.032000
G01 Z0.100000
(G00 Z0.100000)
G00 X-3.9000 Y1.4000 
G01 Z-0.032000
G01 Z0.100000
M05
G00 Z1.0000 
M06 T02  ; 0.0320 
G01 Z0.0000 F10.00 
M06 T02  ; 0.0320 
G00 Z0.1000 
M03
G04 P3.000000
G00 Z0.100000
G00 X-1.6000 Y1.3000 
G01 Z-0.0320 F10.00 
G01 Z0.100000
(R0.1000  P1.000000)
(G00 Z0.100000)
G00 X-1.6000 Y1.0000 
G01 Z-0.032000
G01 Z0.100000
(G00 Z0.100000)
G00 X-2.1000 Y1.2750 
G01 Z-0.032000
G01 Z0.100000
(G00 Z0.100000)
G00 X-2.1000 Y1.5750 
G01 Z-0.032000
G01 Z0.100000
(G00 Z0.100000)
G00 X-2.1000 Y1.6750 
G01 Z-0.032000
G01 Z0.100000
(G00 Z0.100000)
G00 X-2.2000 Y1.2750 
G01 Z-0.032000
G01 Z0.100000
(G00 Z0.100000)
G00 X-2.2000 Y1.5750 
G01 Z-0.032000
G01 Z0.100000
(G00 Z0.100000)
G00 X-2.3000 Y1.2750 
G01 Z-0.032000
G01 Z0.100000
(G00 Z0.100000)
G00 X-2.3000 Y1.5750 
G01 Z-0.032000
G01 Z0.100000
(G00 Z0.100000)
G00 X-2.4000 Y1.2750 
G01 Z-0.032000
G01 Z0.100000
(G00 Z0.100000)
G00 X-2.4000 Y1.5750 
G01 Z-0.032000
G01 Z0.100000
(G00 Z0.100000)
G00 X-2.4000 Y1.6750 
G01 Z-0.032000
G01 Z0.100000
(G00 Z0.100000)
G00 X-0.2500 Y1.3000 
G01 Z-0.032000
G01 Z0.100000
(G00 Z0.100000)
G00 X-0.2500 Y1.0000 
G01 Z-0.032000
G01 Z0.100000
(G00 Z0.100000)
G00 X-2.5000 Y1.2750 
G01 Z-0.032000
G01 Z0.100000
(G00 Z0.100000)
G00 X-2.5000 Y1.5750 
G01 Z-0.032000
G01 Z0.100000
(G00 Z0.100000)
G00 X-2.6000 Y1.2750 
G01 Z-0.032000
G01 Z0.100000
(G00 Z0.100000)
G00 X-2.6000 Y1.5750 
G01 Z-0.032000
G01 Z0.100000
(G00 Z0.100000)
G00 X-2.7000 Y1.2750 
G01 Z-0.032000
G01 Z0.100000
(G00 Z0.100000)
G00 X-2.7000 Y1.5750 
G01 Z-0.032000
G01 Z0.100000
(G00 Z0.100000)
G00 X-2.8000 Y1.2750 
G01 Z-0.032000
G01 Z0.100000
(G00 Z0.100000)
G00 X-2.8000 Y1.5750 
G01 Z-0.032000
G01 Z0.100000
(G00 Z0.100000)
G00 X-2.8500 Y1.8000 
G01 Z-0.032000
G01 Z0.100000
(G00 Z0.100000)
G00 X-2.9000 Y1.7250 
G01 Z-0.032000
G01 Z0.100000
(G00 Z0.100000)
G00 X-2.9500 Y1.8000 
G01 Z-0.032000
G01 Z0.100000
(G00 Z0.100000)
G00 X-3.0500 Y1.6000 
G01 Z-0.032000
G01 Z0.100000
(G00 Z0.100000)
G00 X-3.0500 Y1.1000 
G01 Z-0.032000
G01 Z0.100000
(G00 Z0.100000)
G00 X-3.2500 Y1.8000 
G01 Z-0.032000
G01 Z0.100000
(G00 Z0.100000)
G00 X-3.5500 Y1.8000 
G01 Z-0.032000
G01 Z0.100000
(G00 Z0.100000)
G00 X-0.4500 Y2.5500 
G01 Z-0.032000
G01 Z0.100000
(G00 Z0.100000)
G00 X-0.4500 Y2.6500 
G01 Z-0.032000
G01 Z0.100000
(G00 Z0.100000)
G00 X-0.4500 Y2.7500 
G01 Z-0.032000
G01 Z0.100000
(G00 Z0.100000)
G00 X-0.7000 Y1.3000 
G01 Z-0.032000
G01 Z0.100000
(G00 Z0.100000)
G00 X-0.7000 Y1.0000 
G01 Z-0.032000
G01 Z0.100000
(G00 Z0.100000)
G00 X-1.1500 Y1.3000 
G01 Z-0.032000
G01 Z0.100000
(G00 Z0.100000)
G00 X-1.1500 Y1.0000 
G01 Z-0.032000
G01 Z0.100000
M05
G00 Z1.0000 
M06 T03  ; 0.0394 
G01 Z0.0000 F10.00 
M06 T03  ; 0.0394 
G00 Z0.1000 
M03
G04 P3.000000
G00 Z0.100000
G00 X-1.2402 Y3.0102 
G01 Z-0.0320 F10.00 
G01 Z0.100000
(R0.1000  P1.000000)
(G00 Z0.100000)
G00 X-1.3402 Y3.0102 
G01 Z-0.032000
G01 Z0.100000
(G00 Z0.100000)
G00 X-1.4402 Y3.0102 
G01 Z-0.032000
G01 Z0.100000
(G00 Z0.100000)
G00 X-1.5402 Y3.0102 
G01 Z-0.032000
G01 Z0.100000
(G00 Z0.100000)
G00 X-1.6402 Y3.0102 
G01 Z-0.032000
G01 Z0.100000
(G00 Z0.100000)
G00 X-1.7402 Y3.0102 
G01 Z-0.032000
G01 Z0.100000
(G00 Z0.100000)
G00 X-1.8402 Y3.0102 
G01 Z-0.032000
G01 Z0.100000
(G00 Z0.100000)
G00 X-2.6250 Y0.8500 
G01 Z-0.032000
G01 Z0.100000
(G00 Z0.100000)
G00 X-2.6250 Y0.9500 
G01 Z-0.032000
G01 Z0.100000
(G00 Z0.100000)
G00 X-2.7250 Y0.8500 
G01 Z-0.032000
G01 Z0.100000
(G00 Z0.100000)
G00 X-2.7250 Y0.9500 
G01 Z-0.032000
G01 Z0.100000
(G00 Z0.100000)
G00 X-2.8250 Y0.8500 
G01 Z-0.032000
G01 Z0.100000
(G00 Z0.100000)
G00 X-2.8250 Y0.9500 
G01 Z-0.032000
G01 Z0.100000
(G00 Z0.100000)
G00 X-0.3402 Y3.0102 
G01 Z-0.032000
G01 Z0.100000
(G00 Z0.100000)
G00 X-0.4402 Y3.0102 
G01 Z-0.032000
G01 Z0.100000
(G00 Z0.100000)
G00 X-0.5402 Y3.0102 
G01 Z-0.032000
G01 Z0.100000
(G00 Z0.100000)
G00 X-0.6402 Y3.0102 
G01 Z-0.032000
G01 Z0.100000
(G00 Z0.100000)
G00 X-0.7402 Y3.0102 
G01 Z-0.032000
G01 Z0.100000
(G00 Z0.100000)
G00 X-0.8402 Y3.0102 
G01 Z-0.032000
G01 Z0.100000
(G00 Z0.100000)
G00 X-0.9402 Y3.0102 
G01 Z-0.032000
G01 Z0.100000
(G00 Z0.100000)
G00 X-1.0402 Y3.0102 
G01 Z-0.032000
G01 Z0.100000
(G00 Z0.100000)
G00 X-1.1402 Y3.0102 
G01 Z-0.032000
G01 Z0.100000
M05
G00 Z1.0000 
M06 T04  ; 0.0400 
G01 Z0.0000 F10.00 
M06 T04  ; 0.0400 
G00 Z0.1000 
M03
G04 P3.000000
G00 Z0.100000
G00 X-1.2610 Y1.2780 
G01 Z-0.0320 F10.00 
G01 Z0.100000
(R0.1000  P1.000000)
(G00 Z0.100000)
G00 X-1.2610 Y1.0220 
G01 Z-0.032000
G01 Z0.100000
(G00 Z0.100000)
G00 X-1.4390 Y1.2780 
G01 Z-0.032000
G01 Z0.100000
(G00 Z0.100000)
G00 X-1.4390 Y1.0220 
G01 Z-0.032000
G01 Z0.100000
(G00 Z0.100000)
G00 X-1.7110 Y1.2780 
G01 Z-0.032000
G01 Z0.100000
(G00 Z0.100000)
G00 X-1.7110 Y1.0220 
G01 Z-0.032000
G01 Z0.100000
(G00 Z0.100000)
G00 X-1.8890 Y1.2780 
G01 Z-0.032000
G01 Z0.100000
(G00 Z0.100000)
G00 X-1.8890 Y1.0220 
G01 Z-0.032000
G01 Z0.100000
(G00 Z0.100000)
G00 X-3.3000 Y0.8250 
G01 Z-0.032000
G01 Z0.100000
(G00 Z0.100000)
G00 X-3.3000 Y1.2250 
G01 Z-0.032000
G01 Z0.100000
(G00 Z0.100000)
G00 X-3.4000 Y0.8250 
G01 Z-0.032000
G01 Z0.100000
(G00 Z0.100000)
G00 X-3.4000 Y1.2250 
G01 Z-0.032000
G01 Z0.100000
(G00 Z0.100000)
G00 X-3.4500 Y1.5000 
G01 Z-0.032000
G01 Z0.100000
(G00 Z0.100000)
G00 X-3.5000 Y0.8250 
G01 Z-0.032000
G01 Z0.100000
(G00 Z0.100000)
G00 X-3.5000 Y1.2250 
G01 Z-0.032000
G01 Z0.100000
(G00 Z0.100000)
G00 X-3.5500 Y1.5000 
G01 Z-0.032000
G01 Z0.100000
(G00 Z0.100000)
G00 X-3.6000 Y0.8250 
G01 Z-0.032000
G01 Z0.100000
(G00 Z0.100000)
G00 X-3.6000 Y1.2250 
G01 Z-0.032000
G01 Z0.100000
(G00 Z0.100000)
G00 X-0.3610 Y1.2780 
G01 Z-0.032000
G01 Z0.100000
(G00 Z0.100000)
G00 X-0.3610 Y1.0220 
G01 Z-0.032000
G01 Z0.100000
(G00 Z0.100000)
G00 X-3.6500 Y1.5000 
G01 Z-0.032000
G01 Z0.100000
(G00 Z0.100000)
G00 X-3.7000 Y0.8250 
G01 Z-0.032000
G01 Z0.100000
(G00 Z0.100000)
G00 X-3.7000 Y1.2250 
G01 Z-0.032000
G01 Z0.100000
(G00 Z0.100000)
G00 X-3.7500 Y1.5000 
G01 Z-0.032000
G01 Z0.100000
(G00 Z0.100000)
G00 X-3.8000 Y0.8250 
G01 Z-0.032000
G01 Z0.100000
(G00 Z0.100000)
G00 X-3.8000 Y1.2250 
G01 Z-0.032000
G01 Z0.100000
(G00 Z0.100000)
G00 X-3.9000 Y1.5000 
G01 Z-0.032000
G01 Z0.100000
(G00 Z0.100000)
G00 X-3.9000 Y1.6000 
G01 Z-0.032000
G01 Z0.100000
(G00 Z0.100000)
G00 X-3.9000 Y1.7000 
G01 Z-0.032000
G01 Z0.100000
(G00 Z0.100000)
G00 X-3.9000 Y1.8000 
G01 Z-0.032000
G01 Z0.100000
(G00 Z0.100000)
G00 X-3.9000 Y1.9000 
G01 Z-0.032000
G01 Z0.100000
(G00 Z0.100000)
G00 X-3.9000 Y2.0000 
G01 Z-0.032000
G01 Z0.100000
(G00 Z0.100000)
G00 X-3.9000 Y2.1000 
G01 Z-0.032000
G01 Z0.100000
(G00 Z0.100000)
G00 X-3.9000 Y2.2000 
G01 Z-0.032000
G01 Z0.100000
(G00 Z0.100000)
G00 X-3.9000 Y2.3000 
G01 Z-0.032000
G01 Z0.100000
(G00 Z0.100000)
G00 X-3.9000 Y2.4000 
G01 Z-0.032000
G01 Z0.100000
(G00 Z0.100000)
G00 X-3.9000 Y2.5000 
G01 Z-0.032000
G01 Z0.100000
(G00 Z0.100000)
G00 X-3.9000 Y2.6000 
G01 Z-0.032000
G01 Z0.100000
(G00 Z0.100000)
G00 X-3.9000 Y2.7000 
G01 Z-0.032000
G01 Z0.100000
(G00 Z0.100000)
G00 X-3.9000 Y2.8000 
G01 Z-0.032000
G01 Z0.100000
(G00 Z0.100000)
G00 X-0.5390 Y1.2780 
G01 Z-0.032000
G01 Z0.100000
(G00 Z0.100000)
G00 X-0.5390 Y1.0220 
G01 Z-0.032000
G01 Z0.100000
(G00 Z0.100000)
G00 X-0.8110 Y1.2780 
G01 Z-0.032000
G01 Z0.100000
(G00 Z0.100000)
G00 X-0.8110 Y1.0220 
G01 Z-0.032000
G01 Z0.100000
(G00 Z0.100000)
G00 X-0.9890 Y1.2780 
G01 Z-0.032000
G01 Z0.100000
(G00 Z0.100000)
G00 X-0.9890 Y1.0220 
G01 Z-0.032000
G01 Z0.100000
M05
G00 Z1.0000 
M06 T05  ; 0.0984 
G01 Z0.0000 F10.00 
M06 T05  ; 0.0984 
G00 Z0.1000 
M03
G04 P3.000000
G00 Z0.100000
G00 X-0.1236 Y1.7898 
G01 Z-0.0320 F10.00 
G01 Z0.100000
(R0.1000  P1.000000)
(G00 Z0.100000)
G00 X-0.1236 Y3.0102 
G01 Z-0.032000
G01 Z0.100000
(G00 Z0.100000)
G00 X-3.0764 Y1.7898 
G01 Z-0.032000
G01 Z0.100000
(G00 Z0.100000)
G00 X-3.0764 Y3.0102 
G01 Z-0.032000
G01 Z0.100000
T01 
G00 Z0.5000 
M05
M02
